modelica/MAP-LIB_ReferenceResults/Modelica/Mechanics/MultiBody/Examples/Systems/RobotR3/FullRobot/FullRobot.csv
"time","axis1.controller.PI.x","axis1.gear.spring.phi_rel","axis1.gear.spring.w_rel","axis1.motor.C.v","axis1.motor.La.i","axis2.controller.PI.x","axis2.gear.spring.phi_rel","axis2.gear.spring.w_rel","axis2.motor.C.v","axis2.motor.La.i","axis3.controller.PI.x","axis3.gear.spring.phi_rel","axis3.gear.spring.w_rel","axis3.motor.C.v","axis3.motor.La.i","axis4.controller.PI.x","axis4.motor.C.v","axis4.motor.La.i","axis5.controller.PI.x","axis5.motor.C.v","axis5.motor.La.i","axis6.controller.PI.x","axis6.motor.C.v","axis6.motor.La.i","mechanics.b2.body.w_a[1]","mechanics.r1.phi","mechanics.r1.w","mechanics.r2.phi","mechanics.r3.phi","mechanics.r3.w","mechanics.r4.phi","mechanics.r4.w","mechanics.r5.phi","mechanics.r5.w","mechanics.r6.phi","mechanics.r6.w","axis1.gear.bearingFriction.mode","axis2.gear.bearingFriction.mode","axis3.gear.bearingFriction.mode","axis4.gear.bearingFriction.mode","axis5.gear.bearingFriction.mode","axis6.gear.bearingFriction.mode"
0,-1.16512976479093e-16,1.573738063699e-18,0,2.91282441197732e-15,-5.82564882395465e-17,-5.14693697666933,0.274150861706671,0,94.404566703399,-1.88809133406798,-7.72606044750748,0.0736781805449948,0,183.941738619564,-3.67883477239127,-1.20084878639352,30.0212196598381,-0.600424393196762,-1.44855863078639,36.2139657696598,-0.724279315393196,1.99251589579267e-16,-4.98128973948166e-15,9.96257947896333e-17,-0,-1.0471975511966,0,0.349065850398866,1.5707963267949,-0,0,0,-1.91986217719376,0,0,0,0,0,0,0,0,0
0.0004,-0.00242081415550515,1.57286304383689e-18,-3.01971020936786e-18,9.58207603946822,-0.0926456158193628,-5.13960216343431,0.274150861706671,-1.32051463417756e-17,110.341978064639,-2.06130887885458,-7.72455428109253,0.0736781805449948,6.26624565962417e-18,190.290991222448,-3.747842533043,-1.20170471711279,34.4207331150939,-0.650121831415962,-1.44521099063992,19.0069798113263,-0.529907112580334,-0.000855930719267643,8.44226037215976,-0.0750977357363066,-6.28816480030436e-20,-1.0471975511966,2.87591448190909e-20,0.349065850398866,1.5707963267949,1.04437426870828e-19,-7.7606034307036e-24,0,-1.91986217719376,0,9.74666495991337e-25,0,0,0,0,0,0,0
0.000628829786882413,-0.0059851222332563,1.57215315428722e-18,-2.46232830321298e-18,19.4560215838533,-0.247871860096815,-5.13867523722514,0.274150861706671,-8.85693644012997e-18,125.194896949437,-2.31853210541826,-7.72498991680837,0.0736781805449948,3.92120036087976e-18,196.208071353997,-3.8503156478696,-1.20296495461171,38.0598180379881,-0.717047830314742,-1.44028206175526,4.77411433511821,-0.268152094665104,-0.00211616821818676,11.7262347781722,-0.157079697900714,-4.21758865659724e-20,-1.0471975511966,2.34507457128322e-20,0.349065850398866,1.5707963267949,6.53533385559191e-20,-7.75993070352058e-24,0,-1.91986217719376,0,9.72092524008045e-25,0,0,0,0,0,0,0
0.000628829786882413,-0.0059851222332563,1.57215315428722e-18,-2.46232830321298e-18,19.4560215838533,-0.247871860096815,-5.13867523722514,0.274150861706671,-8.85693644012997e-18,125.194896949437,-2.31853210541826,-7.72498991680837,0.0736781805449948,3.92120036087976e-18,196.208071353997,-3.8503156478696,-1.20296495461171,38.0598180379881,-0.717047830314742,-1.44028206175526,4.77411433511821,-0.268152094665104,-0.00211616821818676,11.7262347781722,-0.157079697900714,-4.21758865659724e-20,-1.0471975511966,2.34507457128322e-20,0.349065850398866,1.5707963267949,6.53533385559191e-20,-7.75993070352058e-24,0,-1.91986217719376,0,9.72092524008045e-25,0,0,0,0,0,0,0
0.000628843286801242,-0.0059853793515302,1.5721531222268e-18,-2.25782616910024e-18,19.4566186732173,-0.247882363048651,-5.13867525280112,0.274150861706671,9.9999983310502e-11,125.195762086038,-2.31854862144991,-7.72498997039002,0.0736781805449948,7.12950517005335e-18,196.208416001517,-3.85032222750298,-1.20296504552139,38.0600204787674,-0.717051927823319,-1.44028170619742,4.77332256673701,-0.268136068853783,-0.00211625912786217,11.7263488168057,-0.157083875672072,-7.94769637399256e-20,-1.0471975511966,2.15031063403299e-20,0.349065850398866,1.5707963267949,1.18825085375479e-19,-7.75993070352058e-24,0,-1.91986217719376,0,9.72140355164628e-25,0,0,0,0,0,0,0
0.000628843286801242,-0.0059853793515302,1.5721531222268e-18,-2.25782616910024e-18,19.4566186732173,-0.247882363048651,-5.13867525280112,0.274150861706671,9.9999983310502e-11,125.195762086038,-2.31854862144991,-7.72498997039002,0.0736781805449948,7.12950517005335e-18,196.208416001517,-3.85032222750298,-1.20296504552139,38.0600204787674,-0.717051927823319,-1.44028170619742,4.77332256673701,-0.268136068853783,-0.00211625912786217,11.7263488168057,-0.157083875672072,-7.94769637399256e-20,-1.0471975511966,2.15031063403299e-20,0.349065850398866,1.5707963267949,1.18825085375479e-19,-7.75993070352058e-24,0,-1.91986217719376,0,9.72140355164628e-25,0,0,-1,0,0,0,0
0.000748612791647475,-0.00848414096132,3.36181239734789e-12,1.12597850913017e-07,24.7142908867474,-0.344352617689004,-5.13913359748405,0.274151176852237,0.00789588223395025,132.681163261958,-2.46643548112638,-7.7255948885709,0.0736781805977905,1.76821652409409e-06,199.204485839542,-3.90928832708948,-1.20384853623342,39.7955271964152,-0.752987171309394,-1.43682627585702,-2.01443704006306,-0.127589338774913,-0.00299974983989497,12.6582073672288,-0.190398797151215,-2.05661278119842e-08,-1.04719755119663,-1.07236048488588e-09,0.349065850398252,1.57079632679578,2.94702754015682e-08,-1.2373386519343e-23,0,-1.91986217719376,0,-8.94857084062787e-25,0,0,-1,0,0,0,0
0.000748612791647475,-0.00848414096132,3.36181239734789e-12,1.12597850913017e-07,24.7142908867474,-0.344352617689004,-5.13913359748405,0.274151176852237,0.00789588223395025,132.681163261958,-2.46643548112638,-7.7255948885709,0.0736781805977905,1.76821652409409e-06,199.204485839542,-3.90928832708948,-1.20384853623342,39.7955271964152,-0.752987171309394,-1.43682627585702,-2.01443704006306,-0.127589338774913,-0.00299974983989497,12.6582073672288,-0.190398797151215,-2.05661278119842e-08,-1.04719755119663,-1.07236048488588e-09,0.349065850398252,1.57079632679578,2.94702754015682e-08,-1.2373386519343e-23,0,-1.91986217719376,0,-8.94857084062787e-25,0,0,-1,0,0,0,0
0.000748629246283294,-0.00848451416346255,3.36366624117706e-12,1.12744633274222e-07,24.7150049278012,-0.344366206486288,-5.13913370358123,0.274151176982178,0.00789805408184866,132.682159965267,-2.46645580582314,-7.72559498948027,0.0736781805978196,1.7689511295871e-06,199.204888640569,-3.90929645056134,-1.20384866818703,39.7957581952397,-0.75299202702924,-1.43682575977178,-2.01534050213217,-0.127570347515072,-0.00299988179350966,12.6583379251205,-0.190402924094123,-2.05746726420865e-08,-1.04719755119663,-1.07280603118306e-09,0.349065850398252,1.57079632679578,2.94825188264517e-08,-1.2373386519343e-23,0,-1.91986217719376,0,-8.94715422779019e-25,0,0,-1,0,0,0,0
0.000748629246283294,-0.00848451416346255,3.36366624117706e-12,1.12744633274222e-07,24.7150049278012,-0.344366206486288,-5.13913370358123,0.274151176982178,0.00789805408184866,132.682159965267,-2.46645580582314,-7.72559498948027,0.0736781805978196,1.7689511295871e-06,199.204888640569,-3.90929645056134,-1.20384866818703,39.7957581952397,-0.75299202702924,-1.43682575977178,-2.01534050213217,-0.127570347515072,-0.00299988179350966,12.6583379251205,-0.190402924094123,-2.05746726420865e-08,-1.04719755119663,-1.07280603118306e-09,0.349065850398252,1.57079632679578,2.94825188264517e-08,-1.2373386519343e-23,0,-1.91986217719376,0,-8.94715422779019e-25,0,-1,-1,0,0,0,0
0.0008,-0.00968936536290972,1.69356358102827e-08,0.000978579236395315,26.9277583937558,-0.387039840296583,-5.13952104374695,0.274151781953109,0.0161264220423916,135.743852626302,-2.5296140112856,-7.72593387390863,0.073678180766923,5.21282051189481e-06,200.45090531206,-3.93460138413699,-1.2042747888153,40.5090794578358,-0.768018134242951,-1.43515915464788,-4.80521921806369,-0.0688015726347822,-0.00342600242177854,13.0906736041077,-0.202864147735127,-6.0634191991056e-08,-1.04719755119673,-3.03444482103695e-09,0.349065850396285,1.57079632679859,8.68803418650862e-08,-1.213407948656e-23,0,-1.91986217719376,0,-2.96058305471344e-24,0,-1,-1,0,0,0,0
0.0012,-0.0215892214301904,1.13500705727144e-05,0.0749259035481307,42.2174990446416,-0.709395759297301,-5.14609110794355,0.274184381764896,0.173061574213426,156.091631714125,-2.97298074901627,-7.73020498668936,0.0736782092313192,0.00020299858577168,209.661766536924,-4.12380720951688,-1.2085624233768,45.880303019958,-0.878346379053695,-1.41838973947401,-25.8126713721411,0.362704451513902,-0.00771363698327896,18.6688602292085,-0.302028424224079,-2.3608677617445e-06,-1.04719755119862,2.77688401992221e-08,0.349065850065233,1.570796327273,3.38330976286091e-06,-1.11998835764523e-23,0,-1.91986217719376,0,-2.38789975377354e-23,0,-1,-1,0,0,0,0
0.0015454971779054,-0.0349878766290166,6.09402850461581e-05,0.223834296320051,52.443524342755,-0.939712611933474,-5.15619600954772,0.274284388684467,0.421102970630958,170.045716672379,-3.27761659511653,-7.73622593281287,0.0736783745414628,0.000854608117318717,217.543663023889,-4.28149096739839,-1.21365092821919,50.6343428958774,-0.972555546008859,-1.398488031646,-44.4062495535155,0.731166971160761,-0.012802141825667,23.6204508035543,-0.402228227058878,-9.93979146859521e-06,-1.04719755111724,6.04195360941162e-07,0.349065848142631,1.57079633002817,1.42434686219782e-05,-1.11980006431337e-23,0,-1.91986217719376,0,-2.37169867720475e-23,0,-1,-1,0,0,0,0
0.0015454971779054,-0.0349878766290166,6.09402850461581e-05,0.223834296320051,52.443524342755,-0.939712611933474,-5.15619600954772,0.274284388684467,0.421102970630958,170.045716672379,-3.27761659511653,-7.73622593281287,0.0736783745414628,0.000854608117318717,217.543663023889,-4.28149096739839,-1.21365092821919,50.6343428958774,-0.972555546008859,-1.398488031646,-44.4062495535155,0.731166971160761,-0.012802141825667,23.6204508035543,-0.402228227058878,-9.93979146859521e-06,-1.04719755111724,6.04195360941162e-07,0.349065848142631,1.57079633002817,1.42434686219782e-05,-1.11980006431337e-23,0,-1.91986217719376,0,-2.37169867720475e-23,0,-1,-1,-1,0,0,0
0.0016,-0.0373297834672365,7.39397273201499e-05,0.253408935847535,53.866791645334,-0.97162639979822,-5.15811749887873,0.27430861570576,0.468214397024053,172.053021755674,-3.32068990257834,-7.73737314618584,0.073678437171518,0.00162579327597038,218.800616456068,-4.30647760233326,-1.21457104233948,51.3933670430628,-0.987616041433266,-1.39488936308664,-47.3748773291741,0.790070242154001,-0.0137222559459592,24.3244499367412,-0.41739156609424,-1.18431018700931e-05,-1.047197551079,8.05093403920793e-07,0.349065847549901,1.5707963308775,1.69689108227487e-05,-1.12068624944653e-23,0,-1.91986217719376,0,-2.35867516125777e-23,0,-1,-1,-1,0,0,0
0.0019626491893962,-0.0543005457385859,0.00020619741140056,0.48579732593258,62.4384291321172,-1.16051033702962,-5.17290927951021,0.274541567778627,0.829961711321752,184.320670173022,-3.58180569625911,-7.74628272914536,0.0736839803717542,0.0378477747581863,226.775110714367,-4.46999069849914,-1.22150889596291,56.4637065500704,-1.08859822310063,-1.3677546466928,-67.2055385121385,1.18502277489751,-0.0206601095693843,29.294768214117,-0.516401721017866,-3.04231676527197e-05,-1.04719755037893,3.51837389989605e-06,0.349065840206123,1.57079634133039,4.29080711430607e-05,-1.01555362388331e-23,0,-1.91986217719376,0,-3.22747035536508e-23,0,-1,-1,-1,0,0,0
0.0019626491893962,-0.0543005457385859,0.00020619741140056,0.48579732593258,62.4384291321172,-1.16051033702962,-5.17290927951021,0.274541567778627,0.829961711321752,184.320670173022,-3.58180569625911,-7.74628272914536,0.0736839803717542,0.0378477747581863,226.775110714367,-4.46999069849914,-1.22150889596291,56.4637065500704,-1.08859822310063,-1.3677546466928,-67.2055385121385,1.18502277489751,-0.0206601095693843,29.294768214117,-0.516401721017866,-3.04231676527197e-05,-1.04719755037893,3.51837389989605e-06,0.349065840206123,1.57079634133039,4.29080711430607e-05,-1.01555362388331e-23,0,-1.91986217719376,0,-3.22747035536508e-23,0,-1,-1,-1,0,0,0
0.00196264922824497,-0.0543005476770534,0.000206197430273228,0.485797353836501,62.4384299797405,-1.16051035543165,-5.17290928126933,0.27454156781087,0.829961752992158,184.320671389852,-3.58180572208433,-7.74628273021088,0.0736839803732246,0.0378477807582798,226.775111505223,-4.46999071525439,-1.22150889678214,56.4637070946866,-1.08859823396457,-1.36775464348871,-67.2055406421912,1.18502281738758,-0.0206601103886126,29.2947687762635,-0.51640173180604,-3.04231763233136e-05,-1.04719755037893,3.51837464203924e-06,0.349065840206122,1.57079634133039,4.29080630141211e-05,-1.01555362388331e-23,0,-1.91986217719376,1.00002526114909e-10,-3.22747035536508e-23,0,-1,-1,-1,0,0,0
0.00196264922824497,-0.0543005476770534,0.000206197430273228,0.485797353836501,62.4384299797405,-1.16051035543165,-5.17290928126933,0.27454156781087,0.829961752992158,184.320671389852,-3.58180572208433,-7.74628273021088,0.0736839803732246,0.0378477807582798,226.775111505223,-4.46999071525439,-1.22150889678214,56.4637070946866,-1.08859823396457,-1.36775464348871,-67.2055406421912,1.18502281738758,-0.0206601103886126,29.2947687762635,-0.51640173180604,-3.04231763233136e-05,-1.04719755037893,3.51837464203924e-06,0.349065840206122,1.57079634133039,4.29080630141211e-05,-1.01555362388331e-23,0,-1.91986217719376,1.00002526114909e-10,-3.22747035536508e-23,0,-1,-1,-1,0,1,0
0.002,-0.0561754086633896,0.000224847204261503,0.51290148240342,63.2472001082421,-1.178048864734,-5.17461673293744,0.274573320377876,0.870359439917618,185.481204061724,-3.6064357071445,-7.74731743340001,0.0736855050425397,0.0438529822254219,227.527974685573,-4.48598205034747,-1.22230406706937,56.9874902381803,-1.09904674909097,-1.36464758379427,-69.2333588487896,1.22585060851215,-0.0214552806758459,29.8363013057393,-0.526805977384844,-3.90825655537474e-05,-1.04719755023373,4.26450753802667e-06,0.349065838909616,1.57079634278104,3.4658186718335e-05,-1.01600174359132e-23,0,-1.91986217533805,0.000100470055956536,-3.23200496971982e-23,0,-1,-1,-1,0,1,0
0.0024,-0.0775563020789734,0.000492591922919826,0.835139449160016,71.186317907344,-1.34876986339237,-5.19479213907978,0.275013486369737,1.34181547187257,196.780486614416,-3.84627071746865,-7.75959757083363,0.0737197943674872,0.135559500962454,234.702093228431,-4.64060818608985,-1.23176491897736,62.6230435594459,-1.21141939278472,-1.32816673953469,-88.6362218160134,1.63528092448585,-0.0309161325838378,35.5670123734188,-0.640289039615517,-0.000171456564185921,-1.04719754630625,1.68648629126824e-05,0.349065799174416,1.5707963315403,-0.000106613874458403,-1.01666168031921e-23,0,-1.91986184627189,0.00170042777600313,-3.28018200618945e-23,0,-1,-1,-1,0,1,0
0.0028,-0.101019924352771,0.000899613199260784,1.20733297337706,77.9323794126544,-1.4929189115269,-5.21798435574532,0.275654927722597,1.87447594131525,206.239033939348,-4.04650556937375,-7.77379050441798,0.0737995749065596,0.26949586198714,240.609338644807,-4.76717567154707,-1.24295701945739,68.313928530655,-1.324835037006,-1.286212972314,-105.857272729405,1.99244669381744,-0.0421082330638629,41.249899723189,-0.75369457532332,-0.000371667447360494,-1.04719753535869,3.98609016146307e-05,0.349065692718328,1.5707962456288,-0.000337189014544899,-1.01569238263048e-23,0,-1.91986069906422,0.00417246113910303,-3.33916478958686e-23,0,-1,-1,-1,0,1,0
0.0032,-0.126205316647816,0.00146364041036659,1.61843629063372,83.6850132686181,-1.61503784616333,-5.24365136163446,0.276519516922477,2.45558489050772,214.198494144681,-4.21392309918725,-7.78956100515596,0.073939706115593,0.435861580834793,245.626556678014,-4.8733086962606,-1.2558837900174,74.0593207793815,-1.43934862930325,-1.23930045490841,-121.892185646666,2.32205601854753,-0.0550350036238796,47.0411774652704,-0.868571882944567,-0.000635415931669589,-1.04719751259642,7.65287367647476e-05,0.349065493372337,1.57079605050569,-0.000652497152135642,-1.00181265587288e-23,0,-1.91985840263543,0.00743764023991861,-1.02962195554118e-23,0,-1,-1,-1,0,1,0
0.0036,-0.152830963749668,0.00219825085449874,2.05875358351041,88.6726043685928,-1.71964104816688,-5.27134987632304,0.277624421256574,3.07445451119193,220.939437727641,-4.35465863272249,-7.80664447090317,0.0741515309606265,0.626766698760277,249.935684059172,-4.963782817107,-1.2705486520974,79.8586497742163,-1.55494227386573,-1.18790620505257,-136.580545129305,2.62526133850617,-0.0696998657038793,52.8606534067262,-0.98443027989643,-0.000959732348113653,-1.04719747181981,0.000130573939155183,0.349065176307636,1.57079571238033,-0.00105219417438318,-1.0100996837983e-23,0,-1.91985464999879,0.0114448381178085,-4.19692550236908e-24,0,-1,-1,-1,0,1,0
0.004,-0.180683431437302,0.00311343152120454,2.52002635079897,93.096386541658,-1.81104983039243,-5.30071815486389,0.278982953846861,3.72242559500025,226.686106957137,-4.4736363108672,-7.8248336718436,0.0744435002957163,0.835560974705583,253.687707888587,-5.04184456385429,-1.2869550271374,85.7122229780963,-1.6716191510626,-1.13247554790556,-150.012312186322,2.90253035718106,-0.0861062407438786,58.7457091791784,-1.10138141611488,-0.00134133960091049,-1.04719740529278,0.000205959306931511,0.349064717948383,1.57079519746658,-0.0015365538744124,-1.00897160050598e-23,0,-1.91984915476894,0.0161421797935359,-6.11884548520556e-24,0,-1,-1,-1,0,1,0
0.00436114061982347,-0.206752828413315,0.00410064433343519,2.94868408945135,96.7414212394245,-1.88525734649664,-5.32842196050469,0.280435886050293,4.32653245243241,231.176499457528,-4.56575049114478,-7.84207282093411,0.0747809737627558,1.03471971157448,256.712227095749,-5.1040985507893,-1.30326634517168,91.0437865930457,-1.77789374990636,-1.07930762483235,-161.143350198289,3.13233341551784,-0.102417558778161,64.1016650616517,-1.20791727617578,-0.0017324190532449,-1.04719731536176,0.00029580352061793,0.349064164211305,1.57079455241168,-0.00204752379694838,-1.00831701510593e-23,0,-1.9198424748027,0.0209359863847798,-4.24340254875087e-24,0,-1,-1,-1,0,1,0
0.00436114061982347,-0.206752828413315,0.00410064433343519,2.94868408945135,96.7414212394245,-1.88525734649664,-5.32842196050469,0.280435886050293,4.32653245243241,231.176499457528,-4.56575049114478,-7.84207282093411,0.0747809737627558,1.03471971157448,256.712227095749,-5.1040985507893,-1.30326634517168,91.0437865930457,-1.77789374990636,-1.07930762483235,-161.143350198289,3.13233341551784,-0.102417558778161,64.1016650616517,-1.20791727617578,-0.0017324190532449,-1.04719731536176,0.00029580352061793,0.349064164211305,1.57079455241168,-0.00204752379694838,-1.00831701510593e-23,0,-1.9198424748027,0.0209359863847798,-4.24340254875087e-24,0,-1,-1,-1,0,1,0
0.00436114071585435,-0.206752835453472,0.00410064461660029,2.94868420351856,96.7414221743051,-1.88525736539347,-5.32842196800397,0.280435886465774,4.32653261513575,231.176500574808,-4.56575051395301,-7.84207282561237,0.074780973862121,1.03471976583017,256.712227862562,-5.10409856648699,-1.30326634969836,91.0437880166482,-1.7778937782836,-1.07930761032763,-161.143353037391,3.13233347414718,-0.10241756330484,64.1016664917393,-1.20791730461702,-0.00173241916251973,-1.04719731536174,0.000295803557383814,0.349064164211139,1.57079455241148,-0.00204752393727526,3.06700822508744e-19,1.00002270207786e-10,-1.91984247480069,0.0209359877212077,-4.24340254875087e-24,0,-1,-1,-1,0,1,0
0.00436114071585435,-0.206752835453472,0.00410064461660029,2.94868420351856,96.7414221743051,-1.88525736539347,-5.32842196800397,0.280435886465774,4.32653261513575,231.176500574808,-4.56575051395301,-7.84207282561237,0.074780973862121,1.03471976583017,256.712227862562,-5.10409856648699,-1.30326634969836,91.0437880166482,-1.7778937782836,-1.07930761032763,-161.143353037391,3.13233347414718,-0.10241756330484,64.1016664917393,-1.20791730461702,-0.00173241916251973,-1.04719731536174,0.000295803557383814,0.349064164211139,1.57079455241148,-0.00204752393727526,3.06700822508744e-19,1.00002270207786e-10,-1.91984247480069,0.0209359877212077,-4.24340254875087e-24,0,-1,-1,-1,1,1,0
0.0044,-0.209606208020189,0.00421612560522645,2.99486935964398,97.1184333310044,-1.8928721594565,-5.33146199117189,0.280605292797464,4.39244979501629,231.625508800008,-4.57491173431736,-7.84396983034905,0.0748216094869446,1.0567142306713,257.021066649747,-5.11041723416008,-1.30510474551282,91.6088862613953,-1.7893606837557,-1.07342279012736,-162.287504817646,3.15595332939256,-0.104257550252816,64.6806319894148,-1.21943123497308,-0.00177687466127715,-1.04719730357422,0.000310936493873245,0.349064096027953,1.57079447173769,-0.00210466258854927,8.03544185993743e-10,4.164883338887e-05,-1.91984165069522,0.0214795535882517,-4.23183478072904e-24,0,-1,-1,-1,1,1,0
0.00466745552648834,-0.2294862804138,0.00505974699972794,3.31391569606558,99.6508310611653,-1.94372080749632,-5.35266563699202,0.281841130447815,4.85007211873047,234.556376974875,-4.63445708513078,-7.85723312946917,0.0751246619158173,1.20996772920201,259.07427909334,-5.15223270868427,-1.31810665494538,94.953615906879,-1.86275220927896,-1.03210575008289,-169.909639174387,3.31311232586793,-0.117369345499087,68.6802474912729,-1.29895953441456,-0.00209552946653032,-1.04719720515408,0.000429047339450051,0.349063578663403,1.57079385439082,-0.00251743389091206,5.62735368599189e-08,0.00039059641197457,-1.91983539140251,0.0253688217270575,-4.23965217509629e-24,0,-1,-1,-1,1,1,0
0.00466745552648834,-0.2294862804138,0.00505974699972794,3.31391569606558,99.6508310611653,-1.94372080749632,-5.35266563699202,0.281841130447815,4.85007211873047,234.556376974875,-4.63445708513078,-7.85723312946917,0.0751246619158173,1.20996772920201,259.07427909334,-5.15223270868427,-1.31810665494538,94.953615906879,-1.86275220927896,-1.03210575008289,-169.909639174387,3.31311232586793,-0.117369345499087,68.6802474912729,-1.29895953441456,-0.00209552946653032,-1.04719720515408,0.000429047339450051,0.349063578663403,1.57079385439082,-0.00251743389091206,5.62735368599189e-08,0.00039059641197457,-1.91983539140251,0.0253688217270575,-4.23965217509629e-24,0,-1,-1,-1,1,1,0
0.00466745553601183,-0.229486281129032,0.00505974703128802,3.3139157076173,99.6508311496283,-1.94372080926347,-5.35266563775534,0.281841130494004,4.85007213539382,234.556377074546,-4.63445708714782,-7.8572331299477,0.0751246619273405,1.20996773463278,259.074279164396,-5.15223271012548,-1.31810665541882,94.9536160127228,-1.86275221165458,-1.0321057485871,-169.909639437928,3.31311233130124,-0.117369345979897,68.6802476341272,-1.29895953725526,-0.00209552947704675,-1.04719720515408,0.000429047342526561,0.349063578663383,1.57079385439079,-0.00251743390749099,5.62735405798384e-08,0.000390596435527345,-1.91983539140226,0.0253688218809937,3.34127548473623e-19,1.0000000021878e-10,-1,-1,-1,1,1,0
0.00466745553601183,-0.229486281129032,0.00505974703128802,3.3139157076173,99.6508311496283,-1.94372080926347,-5.35266563775534,0.281841130494004,4.85007213539382,234.556377074546,-4.63445708714782,-7.8572331299477,0.0751246619273405,1.20996773463278,259.074279164396,-5.15223271012548,-1.31810665541882,94.9536160127228,-1.86275221165458,-1.0321057485871,-169.909639437928,3.31311233130124,-0.117369345979897,68.6802476341272,-1.29895953725526,-0.00209552947704675,-1.04719720515408,0.000429047342526561,0.349063578663383,1.57079385439079,-0.00251743390749099,5.62735405798384e-08,0.000390596435527345,-1.91983539140226,0.0253688218809937,3.34127548473623e-19,1.0000000021878e-10,-1,-1,-1,1,1,1
0.0048,-0.239490077093751,0.00550965227861483,3.47488944798858,100.872247629459,-1.96805998852596,-5.36334317829465,0.282499387299267,5.08281390240926,235.913551118396,-4.66186819532018,-7.86393469531497,0.0752900558848221,1.28578107088574,260.050746131644,-5.1719987491307,-1.32474738497024,96.258126333991,-1.89371996283969,-1.01114125229157,-173.41181209045,3.38707291419429,-0.123969443164698,67.6772684397404,-1.32904380286874,-0.00224386201667769,-1.04719714535767,0.000473948352121993,0.349063291126444,1.57079350520463,-0.0027531841065861,1.30527871382614e-07,0.000735258591258179,-1.91983188528692,0.0275478975465646,9.48142709172957e-08,0.00144803820598685,-1,-1,-1,1,1,1
0.0052,-0.270265093789509,0.00699687646817103,3.96097640359897,104.469362711582,-2.03906545691394,-5.39617024517376,0.284674163930298,5.79248107001582,239.679835344772,-4.73731737055913,-7.88464362949505,0.0758504812776586,1.51683603878494,262.870920930977,-5.228644859814,-1.34536176958733,99.1653802667651,-1.96209439647999,-0.946200530140976,-182.608617529428,3.58359885920226,-0.142690160662749,54.6057884168069,-1.20124195406429,-0.00272175850421236,-1.04719692379846,0.000643920058634889,0.349062299709166,1.57079225346912,-0.00351749061873457,6.53588185770816e-07,0.00189895855176059,-1.91981949537721,0.0344751240980696,1.57360571233893e-06,0.00585775265063438,-1,-1,-1,1,1,1
0.0056,-0.301893727139106,0.00867796407531361,4.44369260118346,108.002912149781,-2.10793848030403,-5.42979019898811,0.28713424038327,6.50888895053467,243.032086109903,-4.80360126079451,-7.90603938014943,0.0765037232068145,1.74932365609083,265.559053658868,-5.28204296890232,-1.36676736173856,102.020973768492,-2.01935434155318,-0.878959653831591,-191.094062588697,3.75737905094446,-0.159899620264637,55.3814704519728,-1.1232591577868,-0.00324933352683316,-1.0471966218336,0.000875600225871245,0.349061106966514,1.57079068166784,-0.00435463482442069,1.66198777825079e-06,0.00316505035164241,-1.91980425136762,0.0418176346018686,4.69748141774401e-06,0.00973016306386133,-1,-1,-1,1,1,1
0.006,-0.334365084142106,0.0105510324798043,4.92035782243191,111.549355635712,-2.1763738280831,-5.46408198392973,0.289881913677211,7.22996921736747,246.058985930571,-4.86265147846385,-7.92808736792319,0.0772497076049776,1.98012674076075,268.179338746387,-5.33358962438347,-1.38886672501407,104.63384925116,-2.07375528783437,-0.809685924408393,-198.871540099526,3.91787557769001,-0.175814853957896,50.1430813067688,-1.0595189454053,-0.00381907396521398,-1.04719621559949,0.00116598011429705,0.349059694707939,1.5707887587169,-0.00527388830445211,3.20564766131376e-06,0.00457565473230088,-1.91978598193691,0.0495987967317803,9.35541361931683e-06,0.0135299798781499,-1,-1,-1,1,1,1
0.0064,-0.367689829493062,0.0126130151927675,5.38782549895228,115.170787954808,-2.24575508983634,-5.49895088787862,0.29291840144261,7.95253509685286,248.834021413068,-4.91606551320061,-7.95077140086568,0.0780873189496131,2.20712880752405,270.783950655974,-5.38442832605632,-1.41155445179608,106.907616305029,-2.12133645435956,-0.738639547354912,-205.881774911324,4.06278362954394,-0.190564462867188,48.1596664681955,-0.990750157766352,-0.00443180774555622,-1.04719568022443,0.00152207736238709,0.349058045926987,1.57078645154146,-0.00627613656140473,5.33840589225319e-06,0.00610832345229731,-1.9197645205867,0.0577714180647239,1.54811624800241e-05,0.0170577646698433,-1,-1,-1,1,1,1
0.0068,-0.401895892502599,0.0148597849543848,5.84397318880898,118.917170696762,-2.3172009195792,-5.53432395665281,0.296243888709828,8.67467692480481,251.418025450208,-4.96516645589794,-7.97409004733581,0.0790146465606549,2.4284241911876,273.414809820387,-5.4354818827294,-1.43473446950878,108.903523880725,-2.16318666001525,-0.666059864689642,-212.206583642943,4.19359084474197,-0.204331526216309,45.6221172145787,-0.944392011837698,-0.00508479293812578,-1.04719498893817,0.0019459042228459,0.349056143920743,1.5707837261305,-0.00736576177686177,8.10928513995671e-06,0.00776693759528915,-1.91973971430691,0.0663211592028987,2.2981157932493e-05,0.0204169011157145,-1,-1,-1,1,1,1
0.0072,-0.437024823932741,0.0172864277067319,6.28689888919676,122.828178393435,-2.39160547242765,-5.57014618829052,0.299857835480932,9.39453979937498,253.861290517342,-5.01104857146691,-7.99805355434466,0.0800291049724966,2.64257521356027,276.105162872392,-5.48748631578069,-1.45830963261433,110.609765883427,-2.19922085589993,-0.592175866885347,-217.868241808552,4.31086000910924,-0.217246688815957,43.7189029367785,-0.89737983215983,-0.00577710916469608,-1.04719411393178,0.00244139199938308,0.349053972838838,1.57078054695297,-0.00854530297380277,1.1567750583221e-05,0.00954462776576275,-1.91971141692265,0.075222199623237,3.17884621283328e-05,0.0235860384373852,-1,-1,-1,1,1,1
0.0076,-0.473128709857155,0.0198873446630226,6.71513539405173,126.934742288221,-2.46967230623255,-5.60637736925385,0.303759023426328,10.1106757995047,256.205342896924,-5.05461586227737,-8.0226812410432,0.0811276000604197,2.84843735308028,278.880910382836,-5.54101929878614,-1.48218821154864,112.042459069144,-2.22969715113848,-0.517200946092769,-222.910266019383,4.41543414049146,-0.229458517046474,42.2686791909956,-0.864087204299452,-0.00650763101652638,-1.0471930258487,0.00301173402005929,0.349051517144706,1.57077687753731,-0.00981743009346101,1.57604362734775e-05,0.0114379562958626,-1.91967949238825,0.0844542049844005,4.18272321535146e-05,0.0265819783841983,-1,-1,-1,1,1,1
0.008,-0.510267559764349,0.0226564212943748,7.12752146980275,131.260370083722,-2.55194304438814,-5.64298944574101,0.307945715487165,10.8218651140369,258.484426536613,-5.09661414620083,-8.04799930027728,0.0823066335949813,3.04514749654906,281.76173995544,-5.59652457809876,-1.50628018802568,113.203021702774,-2.25469072272681,-0.441337214256107,-227.359972767212,4.50792028995294,-0.241094588641507,41.0824406275028,-0.835662675219349,-0.00727558478447673,-1.04719169414178,0.00366008177167562,0.349048761743277,1.57077268036879,-0.0111843512920466,2.07330196122857e-05,0.0134431198998239,-1.91964381204406,0.0939976741482652,5.3032365640987e-05,0.0294159450067071,-1,-1,-1,1,1,1
0.0084,-0.548507102971584,0.0255871271941323,7.52315535475801,135.822288555887,-2.63882210686204,-5.6799643402057,0.312415716261441,11.5270650314711,260.726732549129,-5.13765783515103,-8.07403895025208,0.0835624142730606,3.23208600649234,284.762106134047,-5.65433285535906,-1.53049918533218,114.102045121727,-2.27437328950408,-0.364774442045177,-231.251465366953,4.58897801929965,-0.252282279395995,40.358222016461,-0.816120994228784,-0.00808054885299786,-1.04719008696865,0.0043895339009382,0.349045691743376,1.57076791718996,-0.0126477554446213,2.6529249362638e-05,0.0155556702542347,-1.91960425527085,0.103833524025695,6.53389918399489e-05,0.0320924688715518,-1,-1,-1,1,1,1
0.0088,-0.587916933968841,0.0286726229329679,7.90137552160947,140.632421071367,-2.73059794427916,-5.7172921365077,0.317166451813433,12.2254005001181,262.955417294918,-5.17825204058399,-8.10083488934881,0.0848909425855479,3.40883189446619,287.892079843631,-5.71467996867946,-1.55476161177074,114.745322591841,-2.28888749007903,-0.287691559316078,-234.612411399281,4.65920072940124,-0.263140009175431,39.9148611382797,-0.803136191718347,-0.00892229610821992,-1.0471881713218,0.00520293058102855,0.349042292401334,1.5707625491205,-0.0142089704312558,3.31913817579582e-05,0.017771891912562,-1.91956070852742,0.113944610780873,7.86868887387979e-05,0.0346228590825562,-1,-1,-1,1,1,1
0.0092,-0.62856895698231,0.0319058415732858,8.2617062046569,145.698225745803,-2.82746123600785,-5.75496957199121,0.32219501788434,12.9160985575286,265.189450669092,-5.21881099515664,-8.12842401057018,0.0862880878527345,3.57514305288379,291.15807606624,-5.77772247858857,-1.57898699218246,115.140939551895,-2.29837955899826,-0.210256986717058,-237.470879359651,4.71914889998562,-0.273781200353603,39.8426821232646,-0.797195009531952,-0.00980093845771239,-1.04718591306146,0.00610303942952167,0.349038548988012,1.57075653686531,-0.0158687845907752,4.07600161283446e-05,0.020087532462878,-1.91951306512733,0.12431416303227,9.3018475687999e-05,0.0370124043022292,-1,-1,-1,1,1,1
0.0096,-0.670536086490042,0.0352795613853938,8.60384249184584,151.023412766369,-2.92952047516977,-5.79299878392798,0.327498222023907,13.5984837191776,267.44431844099,-5.25967331843997,-8.15684434001325,0.0877496523110584,3.73092312336716,294.563482744093,-5.84355112156084,-1.6030978752778,115.296223946131,-2.30300350001858,-0.132629318057707,-239.852612215068,4.76935695374313,-0.284313556197369,40.069649912537,-0.797775355133434,-0.0107168094176943,-1.04718327698786,0.00709241287656357,0.349034446688092,1.57074984089531,-0.0176275629668954,4.92741450311355e-05,0.0224986901072721,-1.91946122479485,0.134926745004999,0.000108279172868916,0.0392695066289006,-1,-1,-1,1,1,1
0.01,-0.713891166705317,0.0387864667031674,8.92761636981517,156.608559105196,-3.03681531771499,-5.83138626730018,0.33307261442321,14.2719424496032,269.732606177299,-5.30111469924585,-8.18613416730264,0.089271425850258,3.87620288991513,298.109200609648,-5.91220237669896,-1.62701982760131,115.218763873243,-2.30290785289784,-0.054957875453194,-241.782103222453,4.81032337991696,-0.294839384306272,40.6111537635309,-0.804620154357043,-0.0116705176355339,-1.04718022690602,0.008173468061143,0.349029970496442,1.57074242163413,-0.0194851833366809,5.8771160467728e-05,0.0250012982471076,-1.91940509330205,0.145767583006958,0.000124417231707316,0.041400310934225,-1,-1,-1,1,1,1
0.0104,-0.758706077033079,0.0424191993530871,9.23297969910654,162.451634565269,-3.14932801117776,-5.87014200797987,0.338914510704366,14.9359130741211,272.064482986446,-5.34335841076983,-8.21633134009026,0.090849232350039,4.01111810204657,301.794107721686,-5.9836684128411,-1.6506814480375,114.916195389903,-2.29824666452006,0.0226167965131557,-243.282505013461,4.842523263611,-0.305456060237738,41.4415685353419,-0.817509605150284,-0.0126628990130302,-1.04717672569018,0.0093484410505863,0.349025105118393,1.57073423964276,-0.0214410851609033,6.92868497657255e-05,0.0275914034561082,-1.91934458214507,0.156822827693474,0.000141383495544117,0.0434116184315449,-1,-1,-1,1,1,1
0.0108,-0.805050989791549,0.0461704024850597,9.51998365696566,168.548444763263,-3.26699301717821,-5.90927877033203,0.345020008305862,15.5898687023739,274.448096281746,-5.38658388800711,-8.24747269501627,0.092478968698158,4.13589334227411,305.615452641605,-6.0579055142606,-1.67401434245174,114.396119990813,-2.2891717410125,0.0999624567609488,-244.375651496659,4.86640305137275,-0.316255984168617,42.5541672346474,-0.836146877199775,-0.0136950197441363,-1.04717273534893,0.0106194076212513,0.349019834876642,1.57072525579668,-0.0234942676054232,8.0855411291658e-05,0.0302650396574625,-1.91927960823443,0.16807935004479,0.000159131416593536,0.045309526496716,-1,-1,-1,1,1,1
0.0112,-0.852993806007886,0.0500327565454062,9.7887625137947,174.893042957682,-3.38970597361089,-5.94881146354465,0.351385001399507,16.2333079440634,276.889930088943,-5.43093451474049,-8.27959363550894,0.0941566355283494,4.25082508248857,309.569215508883,-6.13484183718462,-1.6969530791525,113.666211891669,-2.27583694854647,0.176954615533515,-245.082269470717,4.88238689311444,-0.327327013130137,43.9346040528505,-0.860324893736963,-0.0147681495497959,-1.04716821710211,0.011988276725996,0.349014143630345,1.57071543144945,-0.025643325562004,9.35094810965413e-05,0.0330182914581874,-1.91921009353357,0.179524751406221,0.00017761683134754,0.0471000945593766,-1,-1,-1,1,1,1
0.0116,-0.902599658804976,0.0539990098218896,10.0395206417631,181.478032143259,-3.51733025434708,-5.98875667597319,0.358005186971166,16.8657466391239,279.395056430328,-5.47652308813473,-8.3127277823635,0.0958783642130937,4.35626953007432,313.650379455074,-6.21438322573149,-1.71943519062814,112.734098094106,-2.25839525201724,0.253476198448462,-245.421937998264,4.89087534010425,-0.338752457731536,45.5720359195602,-0.88977651099602,-0.0158837511368969,-1.04716313143699,0.0134567949882269,0.349008014692251,1.57070472859343,-0.0278864662010029,0.000107280134342987,0.0358472727522702,-1.91913596483882,0.191147296885876,0.000196797958564311,0.0487890749026263,-1,-1,-1,1,1,1
0.012,-0.953930488498363,0.0580620055428819,10.272521247947,188.294839732739,-3.64970293544041,-6.02913226149863,0.364876068466731,17.4867122453652,281.967356790869,-5.5234366341851,-8.34690669258161,0.0976404404100552,4.452630963198,317.853177290499,-6.29641850188392,-1.74140118871717,111.607440567405,-2.23700017016249,0.329417225987481,-245.413236007175,4.89224817178168,-0.350611281701499,47.4556643705429,-0.924300288907761,-0.017043462930845,-1.0471574381664,0.0150265459390506,0.349001430746793,1.57069311002076,-0.0302215351174722,0.000122196880142031,0.0387481406262689,-1.91905715356913,0.202935890861112,0.000216635294670834,0.0503820316423925,-1,-1,-1,1,1,1
0.0124,-1.0070447705202,0.0622147028036899,10.4880752284244,195.333978259737,-3.78664047546834,-6.06995696522078,0.37199296171522,18.0957394580779,284.609731120119,-5.57174094964255,-8.38215969844681,0.0994393198355867,4.54035043009264,322.171318805851,-6.38082436487126,-1.76279449817695,110.293847569597,-2.21180454543674,0.404674346354658,-245.073746995457,4.88686505203715,-0.362978243497648,49.5739180223336,-0.963656868341944,-0.0182490785016614,-1.04715109650246,0.0166989552935648,0.348994373788754,1.57068053945646,-0.0326460520255808,0.000138287698949085,0.0417170994258223,-1.91897359546034,0.214880030993631,0.000237091536753396,0.0518843527732704,-1,-1,-1,1,1,1
0.0128,-1.0619972910245,0.0664501937916801,10.6865325926484,202.585244936088,-3.92794305882064,-6.11125013829181,0.379350996823427,18.6923675180759,287.324250743947,-5.62148392616025,-8.41851379376921,0.101271641201247,4.61989681628235,326.598166408597,-6.46746917430044,-1.78356143346638,108.800919866873,-2.18296081638366,0.479150502506885,-244.420168766168,4.87506715576234,-0.375924063273879,51.9172827162009,-1.0076434351726,-0.0195025290085794,-1.04714406511721,0.0184752951905887,0.348986825064046,1.57066698168307,-0.0351572418664374,0.000155579057215098,0.0447503995955283,-1.91888523034691,0.226969768554554,0.000258131494075974,0.0533012117777,-1,-1,-1,1,1,1
0.0132,-1.11883915663727,0.0707617111683276,10.8682738729163,210.037915474787,-4.07339884819558,-6.15303148310946,0.386945127760837,19.2761387686294,290.112316562541,-5.67269898431742,-8.45599367927082,0.103134227037636,4.69175804536625,331.126891656147,-6.55621636605924,-1.80365103824163,107.136209053248,-2.15062077047367,0.55275434624797,-243.468372265632,4.85717895561858,-0.389515707824308,54.4746517040619,-1.05604969979601,-0.020805858871722,-1.04713630222325,0.0203566937604233,0.348978765054871,1.57065240259793,-0.0377520801203497,0.00017409599365298,0.0478443461520484,-1.91879200177908,0.239195662057017,0.000279721937099312,0.0546376577002571,-1,-1,-1,1,1,1
0.0136,-1.17761740923672,0.075142649558909,11.0337061843698,217.680845894661,-4.22278615434276,-6.19532088386596,0.394770120128955,19.846598112181,292.974711928153,-5.72540623030363,-8.49462157140657,0.105024103814374,4.75643582529981,335.750582010781,-6.64692670218609,-1.82301525547376,105.307213313112,-2.11493507901322,0.625400373004057,-242.233394940462,4.83350773001402,-0.403816223014365,57.2364057899957,-1.10866768646633,-0.0221612174465795,-1.04712776559511,0.022344129595782,0.348970173380386,1.57063676939012,-0.0404273056721067,0.000193862032407047,0.0509952993348684,-1.91869385710922,0.251548779000569,0.000301831683226557,0.0558985426525611,-1,-1,-1,1,1,1
0.014,-1.23837509669738,0.0795865694842809,11.1832563224486,225.502624246974,-4.37587677142122,-6.23813821213629,0.402820559149919,20.4032930358668,295.911723321516,-5.77961507439497,-8.53441730811736,0.106938498913853,4.8144384107559,340.462358989155,-6.739460864888,-1.84160877984758,103.321380887636,-2.07605342237324,0.697008394712408,-240.729531496245,4.80434548446398,-0.418885017136386,60.193178267829,-1.16530705869545,-0.0235708351003282,-1.04711841264623,0.0244384417434611,0.348961028788766,1.57062005058392,-0.043179466640541,0.000214899262544539,0.054199678774046,-1.91859074714723,0.264020650498042,0.000324431447096033,0.057088566693655,-1,-1,-1,1,1,1
0.0144,-1.30115129008874,0.0840872020775023,11.31736600974,233.491675910554,-4.53243828448102,-6.28150318731652,0.411090852963069,20.9457742967195,298.923218084385,-5.83532591828322,-8.57539842321872,0.108874839726292,4.86627529310768,345.255461494831,-6.83368128155953,-1.85938898274621,101.186086294802,-2.03412419388287,0.767503209550922,-238.970368884129,4.76996985299028,-0.434778003492102,63.3350277763113,-1.22577369317735,-0.0250370045308873,-1.04710820048624,0.0266403358579745,0.348951309139842,1.5706022160899,-0.0460049560804924,0.000237228379233227,0.0574539671132735,-1.91848262594436,0.276603242510522,0.000347493764238916,0.0582122998069437,-1,-1,-1,1,1,1
0.0148,-1.36598084449383,0.0886384646406817,11.436488586334,241.636345714107,-4.69223582598976,-6.3254352417512,0.41957522359701,21.4735972137932,302.008682937068,-5.8925309967975,-8.61758008215421,0.110830765154188,4.91245244361049,350.123325571474,-6.92945382115021,-1.87631602628478,98.9086249283107,-1.98929416644643,0.836814632954008,-236.968791679103,4.73064399851502,-0.451547503591013,66.6531212834671,-1.28987864697763,-0.0265620665923962,-1.04709708595716,0.0289503819037482,0.348940991329586,1.57058323734551,-0.0489000373148602,0.000260868626508549,0.0607547130110587,-1.91836945081175,0.289288952910432,0.000370993039573848,0.0592741425341964,-1,-1,-1,1,1,1
0.0152,-1.43289462563214,0.0932344559176971,11.5410846908845,249.924984941091,-4.85503401356472,-6.36995341978392,0.428267718057614,21.9863231620531,305.167299064129,-5.95121600276461,-8.66097529407211,0.112804113170867,4.95346791323718,355.059637892986,-7.02664901502516,-1.89235267963584,96.4962133734085,-1.94170858976319,0.9048769887695,-234.737060865526,4.68661832034011,-0.46924254054974,70.1385318134563,-1.35744486490826,-0.0281483884795218,-1.04708502570212,0.0313690257298431,0.348930051319512,1.57056308728971,-0.0518608874138999,0.00028583789504266,0.0640985333145752,-1.91825118198819,0.30207056913261,0.000394905392728025,0.0602783670538585,-1,-1,-1,1,1,1
0.0156,-1.50191952967348,0.0978694596841894,11.6316194394791,258.346012527529,-5.02059828787631,-6.41507628927047,0.43716220985799,22.4835214025193,308.397981472442,-6.01136094060256,-8.70559500451153,0.114792918278153,4.98980829435582,360.058380237696,-7.12514304050121,-1.90746428810099,93.9559694849429,-1.89151086220987,0.971628911164973,-232.28683192432,4.63813090108526,-0.487908905506937,73.7822198059493,-1.42829082063008,-0.029798347094988,-1.04707197621267,0.0338965933103442,0.348918464123051,1.57054174040129,-0.0548836292345822,0.000312152740181243,0.0674821155989876,-1.91812778250989,0.31494124992037,0.000419208621468961,0.0612291174751976,-1,-1,-1,1,1,1
0.016,-1.57307834060886,0.102537956049065,11.7085599912901,266.887973757868,-5.18869616725583,-6.46082183661714,0.446252393553614,22.9647716012407,311.69940212414,-6.07294063096278,-8.75144811413214,0.116795416303927,5.02194487695036,365.113880017179,-7.22481880706708,-1.92161885815055,91.294911085071,-1.83884232232035,1.03701334264363,-229.629167288607,4.58540758944484,-0.507589093039224,77.5761011421591,-1.50224482748843,-0.0315143120885702,-1.04705789387131,0.0365332901029586,0.348906203754375,1.57051917279718,-0.0579643627084718,0.000339828340001912,0.0709022220803595,-1.91799921820751,0.327894521729541,0.000443882233236579,0.0621303857389171,-1,-1,-1,1,1,1
0.0164,-1.64638995664106,0.107234615122242,11.7723732367746,275.539582451523,-5.35909820176559,-6.50720741804314,0.455531795625405,23.4296657376727,315.07003051858,-6.1359255855348,-8.79854168520893,0.118810030621937,5.05033135543946,370.220824271076,-7.32556632012014,-1.93478690970984,88.5199499289233,-1.7838422765269,1.10097716260139,-226.774586737391,4.52866317894944,-0.528322517668442,81.5117750446007,-1.57914126221345,-0.0332986288482969,-1.04704273500372,0.0392792102370096,0.348893243269224,1.57049536217871,-0.0610991989551824,0.00036887857384985,0.0743556916199387,-1.91786545746356,0.34092424911961,0.000468907330815576,0.0629860482256658,-1,-1,-1,1,1,1
0.0168,-1.72187040727271,0.111954250372351,11.8235244837659,284.289706664046,-5.53157782649413,-6.55424987179941,0.464993819507876,23.8778066846659,318.508202039706,-6.20028346705986,-8.84688149105268,0.120835320750699,5.0754064673526,375.374183800345,-7.4272812335923,-1.94694082206197,85.6379095104001,-1.72664830652963,1.16347007785846,-223.733217981418,4.4681044564962,-0.550146330221162,85.581021004866,-1.65881395135856,-0.0351536130635284,-1.04702645592559,0.0421343676708755,0.348879555008254,1.57047028743731,-0.0642842797931037,0.000399316361772169,0.0778394212909387,-1.91772647049204,0.354024537832939,0.000494266187972074,0.0637998857767631,-1,-1,-1,1,1,1
0.0172,-1.79953150257149,0.116691888381708,11.8624758144817,293.127460795026,-5.70591314182355,-6.60196523720317,0.474631688716388,24.3088147514799,322.012064219727,-6.26597795114259,-8.89647146053487,0.122870044469996,5.0975856187395,380.569357411782,-7.52986775118039,-1.95805571547384,82.6554828903881,-1.6673954059912,1.22444590502062,-220.514623493736,4.40392662981273,-0.573094360310766,89.7760026737539,-1.74110137214822,-0.0370815280161349,-1.0470090129612,0.0450986596927598,0.348865110256662,1.57044392922607,-0.0675158086570196,0.00043115321074008,0.0813503955863609,-1.91758223016816,0.367189843541809,0.000519942795432525,0.0645755370467099,-1,-1,-1,1,1,1
0.0176,-1.87938146295276,0.121442741984299,11.8896846528562,302.04221045572,-5.88188711803312,-6.65036879320554,0.48443847625558,24.7223282237108,325.579624615005,-6.33296974947581,-8.9473140666191,0.124913123709121,5.11726150033742,385.802130001806,-7.63323785114424,-1.96810905636937,79.5792436664417,-1.60621618503842,1.28386185340355,-217.127902735384,4.33631541258801,-0.597197623278177,94.0891847891113,-1.82584855227772,-0.0390845732225797,-1.04699036249332,0.0481718869609162,0.348849879394857,1.57041626971893,-0.0707900774907561,0.000464399420559155,0.0848856778369163,-1.91743271156201,0.380414909966185,0.000545922596413493,0.0653165204738277,-1,-1,-1,1,1,1
0.018,-1.96142510015631,0.126202204888345,11.9056026429009,311.023589335497,-6.05928798691419,-6.69947503377224,0.494407115080452,25.1180051364223,329.20877081664,-6.40121703783026,-8.9994104934459,0.12696363199664,5.13480312908267,391.06866569133,-7.73731118925301,-1.97708055537028,76.4156415602066,-1.54324081788797,1.34167828547048,-213.581724699896,4.26544772810772,-0.622484460166251,98.5130617530067,-1.91290448617797,-0.0411648720709923,-1.04697046100185,0.0513537602186243,0.348833831942938,1.57038729254326,-0.0741034913500055,0.000499064138251151,0.0884424104510464,-1.91727789178186,0.39369474837517,0.000572192412382076,0.0660262448158247,-1,-1,-1,1,1,1
0.0184,-2.04566418603508,0.130965835342654,11.9106752844793,320.061491426621,-6.23790912920978,-6.74929770343022,0.504530416200456,25.4955233355593,332.897292079703,-6.47067591563283,-9.0527608517544,0.129020774203445,5.15055687003716,396.365473620334,-7.84201443479261,-1.98495194044454,73.1710076426428,-1.47859713672915,1.39785833033592,-209.884380935335,4.19149278813069,-0.648980819363346,103.040254471657,-2.00212027011644,-0.0433244676612046,-1.04694926508682,0.0546439114788647,0.348816936656217,1.57035698262349,-0.0774525791939776,0.000535155476129201,0.0920178091878388,-1.91711774972298,0.407024603872487,0.00059874029627639,0.0667080173670202,-1,-1,-1,1,1,1
0.0188,-2.13209705058648,0.13572938138127,11.9053401505269,329.146126157643,-6.41755019983116,-6.79984964596123,0.514801056432828,25.8545854918333,336.642874254829,-6.54130030045845,-9.10736411844171,0.131083899371447,5.16484192628784,401.689457951356,-7.94728231424323,-1.99170724326445,69.8515320086341,-1.41241016278015,1.45236820964896,-206.043743611471,4.11461121204786,-0.676709928937369,107.66369495864,-2.09335085912918,-0.0455652989729386,-1.04692673152044,0.0580418850750099,0.348799161430304,1.57032532634673,-0.0808340346363932,0.000572680366590143,0.0956091758864469,-1.91695226627661,0.420399981775327,0.000625555699403937,0.0673650255724802,-1,-1,-1,1,1,1
0.0192,-2.22071873295303,0.140488776740637,11.890026155689,338.26802772618,-6.59801734842399,-6.85114278127575,0.525211589826425,26.194920938864,340.443112796657,-6.61304220329162,-9.16321828413555,0.133152488474834,5.17794983609292,407.037902932963,-8.05305733672167,-1.99733272397878,66.463261582381,-1.34480205836659,1.50517706202592,-202.067292383722,4.03495557402034,-0.705692398596833,112.376567264381,-2.18645651124531,-0.0478891895129986,-1.04690281728359,0.0615471430758289,0.348780473350496,1.57029231148367,-0.0842447378012271,0.00061164460266793,0.0992138989753023,-1.91678142421475,0.433816631959634,0.000652629416905215,0.0680003415892306,-1,-1,-1,1,1,1
0.0196,-2.31152139082403,0.145240122307687,11.8651535684785,347.418037568645,-6.77912289947709,-6.90318815400676,0.535754469829079,26.5162854725697,344.295532060146,-6.68585213524919,-9.22032057840194,0.135226131262535,5.19014626341745,412.408425195324,-8.15928884681828,-2.00181662323286,63.0121068820623,-1.27589228009642,1.55625654614158,-197.962169431003,3.95267154909965,-0.735946521495263,117.172131704001,-2.28130125796593,-0.0502978449132293,-1.04687747958713,0.0651590770593021,0.348760838809881,1.57025792699159,-0.0876817624554511,0.000652052966974358,0.10282944751783,-1.9166052079323,0.447270514740499,0.000679953430573833,0.0686169372151475,-1,-1,-1,1,1,1
0.02,-2.4044945066099,0.149979677885859,11.8311338498733,356.587298927129,-6.96068526205959,-6.95599594273522,0.546422063344367,26.8184619432031,348.197595940437,-6.75967933047486,-9.27866760436119,0.13730451249031,5.20167170357872,417.798946205176,-8.26593247992867,-2.00514904598391,59.5038423167309,-1.20579758029421,1.60558064273322,-193.735207231587,3.86789847909012,-0.767488415212673,122.043786666108,-2.37775140870712,-0.0527928481494398,-1.04685067589409,0.0688770143529444,0.348740223579044,1.57022216289807,-0.0911423857287166,0.000693909292726705,0.106453369032633,-1.91642360331786,0.460757783046778,0.000707520834770743,0.0692176868802717,-1,-1,-1,1,1,1
0.0204,-2.49962491019472,0.154703863681555,11.7883691993906,365.767265424198,-7.14252911350436,-7.00957542732092,0.557206657706845,27.101261841788,352.146712040739,-6.83447183199741,-9.33825540100688,0.1393874062259,5.21274098659359,423.207684359756,-8.37295001425927,-2.00732196606003,55.9441018534629,-1.1346318977237,1.65312562900974,-189.392934842959,3.78076947953515,-0.800332019701122,126.985209607345,-2.47567693180952,-0.0553756509939236,-1.04682236394711,0.0727002194154642,0.348718592831747,1.570185010259,-0.0946241031673796,0.000737216462755276,0.110083291429377,-1.91623659773603,0.474274778993878,0.00073532583606457,0.0698053634724648,-1,-1,-1,1,1,1
0.0208,-2.59689684038287,0.159409259679914,11.737252212193,374.949705804112,-7.32448550612616,-7.06393496628032,0.568100469661634,27.3645265788797,356.140236997576,-6.91017660175776,-9.39907951609133,0.141474668403969,5.22354314140044,428.633141853105,-8.48030911556792,-2.00832920499541,52.3383759045578,-1.06250629780502,1.69887002082874,-184.941588413238,3.69141165712597,-0.834489125473771,131.990280283824,-2.57495246346132,-0.0580475667744312,-1.04679250179406,0.0766278961021817,0.348695911182619,1.57014646109603,-0.0981246414851845,0.000781976421704494,0.113716924459346,-1.91604417998886,0.487818028204379,0.000763363737309187,0.0703826402342251,-1,-1,-1,1,1,1
0.0212,-2.69629206230492,0.164092602347339,11.6781656200401,384.126704549484,-7.50639189256781,-7.11908198344172,0.579095658089874,27.6081285440114,360.175483921213,-6.98673967457971,-9.46113510173736,0.143566226198355,5.23424169627991,434.074083211991,-8.58798291283571,-2.00816637626476,48.6920079529023,-0.989528923540047,1.74279446760478,-180.387127053429,3.5999464526518,-0.869969440968182,137.052938121133,-2.67545615754427,-0.0608097638316739,-1.04676104781526,0.0806591914035918,0.348672142745037,1.57010650830001,-0.101641970106832,0.000828190206166055,0.117352060291451,-1.91584634024659,0.501384230043829,0.000791630901349746,0.0709520951433355,-1,-1,-1,1,1,1
0.0216,-2.797790017328,0.168750779122931,11.611482211646,393.290657124192,-7.68809204057802,-7.1750229696046,0.590184337813524,27.8319715554264,364.249730109927,-7.06410631775969,-9.52441700782025,0.145662066614751,5.24497545859969,439.529509570648,-8.69594948358882,-2.00683080471997,45.0101931912031,-0.91580496301665,1.78488162346859,-175.735251608777,3.5064900212201,-0.906780686614219,142.167270160575,-2.77706805850944,-0.063663261919235,-1.04672796074462,0.0847931999159792,0.348647251197769,1.57006514551923,-0.105174307481802,0.000875857987317297,0.120986572347218,-1.91564306996325,0.514970245304465,0.000820124701196734,0.0715162111941189,-1,-1,-1,1,1,1
0.022,-2.90136794571656,0.173380823892696,11.5375648131439,402.434265063814,-7.86943594088198,-7.23176348493458,0.601358591793014,28.0359910887448,368.36022314153,-7.14222115642641,-9.58891985199483,0.147762227021591,5.25585930534087,444.99863600062,-8.80419139782783,-2.00432146072881,41.2979799740509,-0.84143664539738,1.82511604804722,-170.991421837313,3.41115355262144,-0.944928672112294,147.32770853731,-2.87967212311349,-0.0666089299678985,-1.04669319968687,0.0890289674442928,0.348621199844068,1.57002236706024,-0.108720124635475,0.000924979105784909,0.124618414112515,-1.91543436181162,0.528573086248619,0.000848843479104478,0.0720773743341311,-1,-1,-1,1,1,1
0.0224,-3.00700098800497,0.177979913685674,11.4567662454866,411.550532790443,-8.05027974867605,-7.28930815563531,0.612610483119832,28.220154626418,372.504186366964,-7.22102828600273,-9.65463807959217,0.14986678644565,5.26698486792349,450.480870465108,-8.91269529438054,-2.00063890878327,37.5602698565073,-0.766523253195704,1.86348412947321,-166.160870352555,3.3140435674769,-0.984417356872065,152.528844529455,-2.98315781740679,-0.0696474833523521,-1.04665672413628,0.0933654938991431,0.348593951668403,1.56997816779304,-0.112278149174167,0.00097555209912864,0.128245619348,-1.91522020963238,0.542189909387445,0.000877786514279661,0.0726378792337277,-1,-1,-1,1,1,1
0.0228,-3.11466229427294,0.182545365036703,11.3694292979281,420.632763785441,-8.23048571216302,-7.34766067185287,0.623932068033818,28.3844619185562,376.678824823661,-7.30047139325584,-9.72156602364958,0.151975856358508,5.27842133132131,455.975791131807,-9.02145142342614,-1.99578525089378,33.8018140151597,-0.6911610904967,1.89997400263896,-161.248613902649,3.21526218693626,-1.0252489129954,157.765186343532,-3.08741674833937,-0.0727794815071621,-1.04661849399607,0.0978017363828095,0.348565469398396,1.56993254304777,-0.115847368482517,0.00102757473204866,0.13186630224358,-1.91500060838029,0.555818007824272,0.000906953989196961,0.0731999354199153,-1,-1,-1,1,1,1
0.0232,-3.2243231424802,0.18707462965225,11.2758867530593,429.674554889112,-8.40992206228055,-7.40682379136588,0.635315409293491,28.5289449250785,380.881331222704,-7.38049387888263,-9.78969795953411,0.154089571448825,5.29021643457067,461.483122595848,-9.13045316505742,-1.989764062026,30.0272120216989,-0.615443427810956,1.93457546222558,-156.259466795759,3.11490737949186,-1.06742379628834,163.031482138841,-3.19234111024552,-0.0760053270816252,-1.04657846959535,0.102336612605683,0.348535715569836,1.56988548850658,-0.11942703015602,0.00108104403057593,0.135478655942065,-1.91477555406693,0.569454801759529,0.000936346951876556,0.0737656613237729,-1,-1,-1,1,1,1
0.0236,-3.33595305017613,0.191565290163212,11.1764614637594,438.66978992236,-8.58846288715108,-7.46679934606871,0.646752589022623,28.6536675486588,385.108891435898,-7.4610389696477,-9.85902814774765,0.15620808120426,5.30239754560657,467.002713122617,-9.23969656661633,-1.98258032795548,26.2409159895234,-0.539460530954666,1.96727988478744,-151.198057765501,3.01307325435252,-1.11094081822457,168.322985436687,-3.29782882847682,-0.0793252662029797,-1.04653661170346,0.106969003978077,0.348504652589847,1.56983700009903,-0.123016640236317,0.00113595631489519,0.139080951152443,-1.91454504370944,0.58309783002303,0.000965967277845823,0.0743370810106549,-1,-1,-1,1,1,1
0.024,-3.44951987629025,0.196015056307284,11.0714664647041,447.6126336288,-8.7659880120642,-7.52758824818409,0.658235721181563,28.7587253217518,389.358689608612,-7.54204982267175,-9.92955086713299,0.158331542202433,5.31497272409116,472.534513171566,-9.34917990500783,-1.97424038840926,22.4472312072935,-0.463299726733008,1.99808016173977,-146.068842142914,2.90985036101242,-1.15579721085545,173.634922863124,-3.40378441806074,-0.0827393890273814,-1.04649288154361,0.111697758124134,0.348472242798178,1.5697870739012,-0.126615960573574,0.00119230722940408,0.142671536527141,-1.91430907528633,0.596744744463896,0.000995817635782759,0.0749161379109451,-1,-1,-1,1,1,1
0.0244,-3.5649899209178,0.200421761185766,10.9612050781047,456.497525574935,-8.94238287828652,-7.58919049721693,0.669756964090309,28.8442449756641,393.627913256375,-7.62346962937381,-10.0012604426959,0.16046011067444,5.32793182751971,478.078554289033,-9.45890325589371,-1.96475188015769,18.6503105539536,-0.387045351478281,2.02697063517495,-140.876107734438,2.80532586916816,-1.20198868498516,178.962241649226,-3.51011135457581,-0.0862476308600482,-1.04644724080622,0.116521691440094,0.348438448528931,1.5697357060349,-0.13022500509929,0.00125009177277401,0.146248838305671,-1.91406764769507,0.610393303749038,0.00102590145658756,0.0755047003451482,-1,-1,-1,1,1,1
0.0248,-3.68232802616732,0.204783357354987,10.8459710088961,465.319173508825,-9.1175384105101,-7.65160518938461,0.681308532911594,28.9103837974782,397.913758351248,-7.70524171927538,-10.0741512679495,0.162593935349096,5.34124770474625,483.634928243528,-9.56886806693071,-1.95412367824284,14.8541556488156,-0.310778680715709,2.05394703432859,-135.623986674146,2.69958372375628,-1.24950949225305,184.300420380328,-3.61671266658209,-0.0898497743033364,-1.04639965166116,0.121439591970667,0.348403232172682,1.56968289256687,-0.13384403435046,0.0013093043289139,0.149811357633312,-1.91382076071021,0.62404136466465,0.001056222900513,0.076104544698269,-1,-1,-1,1,1,1
0.0252,-3.80149767425336,0.209097912913113,10.7260484924221,474.072546374756,-9.29135087671293,-7.71483052917818,0.692882711775215,28.9573288809089,402.213434208693,-7.7873096597806,-10.1482178198937,0.164733150837326,5.35487742039849,489.203767024392,-9.67907674749861,-1.94236583816294,11.0626254806826,-0.234578037676143,2.0790064165446,-130.31647345299,2.59270495152808,-1.29835249431987,189.645612182205,-3.72350140445194,-0.0935454519613387,-1.04635007676838,0.12645022188009,0.348366556237397,1.5696286294109,-0.137473548730408,0.00136993869737363,0.153357669343242,-1.91356841494431,0.637686875626567,0.00108678682079043,0.0767173559196267,-1,-1,-1,1,1,1
0.0256,-3.92246108048922,0.213363607755519,10.6017124957946,482.752867358776,-9.46372174812823,-7.77886384197742,0.704471865483498,28.9852963371992,406.524168139258,-7.86961735115908,-10.2234546667789,0.166877871611494,5.36876346886469,494.78522400755,-9.78953228135907,-1.92948953967394,7.27943424541147,-0.158518893865388,2.10214711346137,-124.957431822874,2.48476794028841,-1.3485092247158,194.993471729511,-3.83039693957273,-0.0973341493855579,-1.04629847928776,0.131552319334853,0.348328383407593,1.56957291223371,-0.141114281001445,0.00143198812285598,0.156886423345415,-1.91331061181237,0.651327873783609,0.00111759873105071,0.0773447549304859,-1,-1,-1,1,1,1
0.026,-4.04517928279533,0.217578729949478,10.4732288735984,491.355606987284,-9.63455755998402,-7.84370158763923,0.716068450892799,28.9945303336672,410.843209960007,-7.95210911866438,-10.2998564701471,0.16902818646515,5.38283501929279,500.379456118573,-9.90023785909647,-1.91550703089795,3.50814225892185,-0.0826737327219534,2.1233686802161,-119.550594529969,2.37584848106028,-1.39996993960581,200.339280419022,-3.93731140163683,-0.101215208874075,-1.04624482288822,0.136744600755991,0.348288676602183,1.56951573636421,-0.144767187465336,0.00149544532452079,0.160396343065351,-1.91304735349824,0.664962479033549,0.00114866477839911,0.0779882943564563,-1,-1,-1,1,1,1
0.0264,-4.1696122292182,0.221741672124105,10.3408544899636,499.876476139222,-9.80376977023828,-7.90933937554528,0.727665027938889,28.9853019637593,415.167836393422,-8.03472980244877,-10.3774179817732,0.171184153423307,5.3970091952579,505.986606908162,-10.0111965285846,-1.90043157347285,-0.247835681018504,-0.007112004268766,2.14267184782992,-114.099578947537,2.2660198857282,-1.45272367760025,205.679499916949,-4.04415880494421,-0.105187834104669,-1.0461890717561,0.14202576339921,0.348247399030961,1.56945709670589,-0.148433437836156,0.00156030252471339,0.163886221070517,-1.91277864292297,0.678588885058277,0.00117999171196933,0.0786494265732357,-1,-1,-1,1,1,1
0.0268,-4.29571886298546,0.225850927893187,10.2048374332624,508.311418988135,-9.97127461663932,-7.97577198107172,0.739254270224622,28.9579081532876,419.495355304915,-8.1174248443315,-10.4561340355902,0.173345795138291,5.41119232214323,511.606790650428,-10.1224108656508,-1.88427738909834,-3.98521818914321,0.0680996316647075,2.16005847909546,-108.60790555164,2.15535336360513,-1.50675832825429,211.011153198638,-4.15086970173906,-0.109251094635313,-1.04613119060246,0.147394487048671,0.348204514249339,1.5693969876532,-0.152114404853116,0.00162655147693137,0.167354919371409,-1.91250448371558,0.692205356218389,0.00121158684715223,0.0793295224170229,-1,-1,-1,1,1,1
0.0272,-4.42345720417544,0.22990508837892,10.065417272513,516.656605966601,-10.1369929739871,-8.04299336331743,0.75082897510854,28.9126705344565,423.823109740154,-8.20014037054109,-10.5359995343456,0.175513094830235,5.42528115217747,517.240077667604,-10.2338826691978,-1.867059605893,-7.70086706422669,0.142897232835908,2.1755315266082,-103.078995011867,2.04391822079454,-1.56206068548501,216.329958078061,-4.25737667263061,-0.113403930603154,-1.04607114466968,0.152849435261469,0.348159986210999,1.56933540301265,-0.155811653330892,0.00169418349382423,0.170801371935536,-1.91222488018516,0.705810227454004,0.00124345803751448,0.0800299121280149,-1,-1,-1,1,1,1
0.0276,-4.55278442814601,0.233902838845151,9.92282520417025,524.908426821843,-10.3008502130306,-8.11099668378407,0.762382073302645,28.8499340788589,428.14848178179,-8.28282327075515,-10.6170094319381,0.177685992723784,5.43916412627517,522.886480824719,-10.345612679882,-1.84879420488516,-11.3917991332988,0.217219856301122,2.1890949927869,-97.5161627484872,1.93178171275017,-1.61861648873564,221.631476494415,-4.36359584882902,-0.117645158612058,-1.04600889973756,0.158389257579515,0.348113779318415,1.56927233592853,-0.159526927716678,0.00176318947506998,0.174224580645127,-1.91193983729426,0.719401896821523,0.00127561365295968,0.0807518567797801,-1,-1,-1,1,1,1
0.028,-4.68365694123445,0.237842955389375,9.77728417054463,533.063483746126,-10.4627760607094,-8.17977432608327,0.773906637928122,28.770065620578,432.468896235614,-8.36542127378513,-10.6991587119049,0.179864382973569,5.45272263371699,528.545943178136,-10.4576003219512,-1.82949796945593,-15.0551648578156,0.291009518927342,2.20075389425844,-91.9226442819345,1.81900919011243,-1.6764104853399,226.91360716642,-4.46945247395598,-0.121973478184164,-1.04594442212849,0.164012591949672,0.348065858471041,1.5692077788137,-0.16326213881866,0.00183355993370902,0.177623608963143,-1.91164936063519,0.732978815660985,0.00130806254723151,0.0814964984593306,-1,-1,-1,1,1,1
0.0284,-4.81603045576114,0.24172430161014,9.62900916592472,541.118584386581,-10.6227044578374,-8.24931791726976,0.785395893226494,28.6734525662971,436.781824212667,-8.44788302136824,-10.7824423617035,0.182048111010835,5.46583219916745,534.21832652971,-10.5698434629069,-1.80918843530557,-18.6882324990618,0.364210706384347,2.21051422849698,-86.301614753201,1.70566465975064,-1.73542650349472,232.174188849508,-4.57490041084112,-0.12638747735029,-1.04587767871206,0.169718065393899,0.348016189112234,1.56914172328384,-0.167019351046456,0.0019052850221808,0.180997585915664,-1.91135345640763,0.746539491181144,0.00134081402009933,0.0822649205564018,-1,-1,-1,1,1,1
0.0288,-4.94986005972741,0.24554582549472,9.47820752467564,549.070735168857,-10.7805734230625,-8.31961834946318,0.796843222435127,28.560501583733,441.08478638446,-8.53015813525798,-10.8668553445235,0.184236971461773,5.47836360714295,539.903401603733,-10.6823382062853,-1.78788383985872,-22.288417725213,0.436770486110923,2.21838294075392,-80.6561647738703,1.59181075714662,-1.79564748698833,237.408307415297,-4.67988053761266,-0.130885638405969,-1.04580863690916,0.175504294663841,0.347964737272252,1.56907416009927,-0.170800769563709,0.00197835455856472,0.184345709839796,-1.91105213139661,0.760082489165777,0.0013738777989536,0.0830582018157093,-1,-1,-1,1,1,1
0.0292,-5.08510027763656,0.249306556670299,9.32507895537053,556.917135328443,-10.9363249310775,-8.39066580032173,0.808242174403533,28.4316370148346,445.375355763371,-8.61219727450513,-10.9523925709637,0.186430706695618,5.4901840005594,545.600840235078,-10.7950787260411,-1.76560307688816,-25.8532891502796,0.508639009379988,2.22436789563166,-74.989298278512,1.47750833642519,-1.85705552310203,242.612323195123,-4.7843093605863,-0.135466345063665,-1.04573726469519,0.181369888934043,0.347911469604931,1.56900507911722,-0.174608726523381,0.00205275805007446,0.187667238262265,-1.91074539295349,0.773606420781615,0.00140726402396431,0.0838773236389298,-1,-1,-1,1,1,1
0.0296,-5.22170514011568,0.253005603197245,9.16981572056159,564.655170000154,-11.0899047715521,-8.46244975750604,0.819586470894724,28.2872992213978,449.651160824189,-8.6939522000339,-11.0390488645295,0.188629005423838,5.50115807996933,551.310206978965,-10.9080570877775,-1.7423656484654,-29.3805274692272,0.579769104898662,2.22847784907348,-69.303974236681,1.36281692301562,-1.9196319213199,247.785528680769,-4.8881302136192,-0.140127889888236,-1.04566353060307,0.187313451576911,0.347856353428631,1.56893446923979,-0.178445665857699,0.00212848471797028,0.190961483490157,-1.91043324897713,0.787109936100637,0.0014409832074837,0.0847231448516246,-1,-1,-1,1,1,1
0.03,-5.35962824931554,0.25664214852479,9.01260301382312,572.282403562551,-11.2412624132247,-8.53495904359031,0.830870013075381,28.1279432455852,453.909888318419,-8.77537583309764,-11.1268189252393,0.190831501833007,5.51114914361503,557.030952250384,-11.0212631010392,-1.71819161776995,-32.8679251624874,0.650115792612099,2.23072242176097,-63.6031093239972,1.24779522538836,-1.98335727559263,252.925806735406,-4.99131193972686,-0.144868480292076,-1.04558740372584,0.193333579909347,0.347799356763394,1.56886231836932,-0.18231412966659,0.00220552352197081,0.194227820318924,-1.91011570789592,0.800591732231567,0.00147504620184393,0.0855965019374949,-1,-1,-1,1,1,1
0.0304,-5.49882283767614,0.260215448741825,8.85361918646863,579.796573494819,-11.3903508783575,-8.60818184043956,0.842086886957244,27.9540373220765,458.149285680838,-8.85642230527856,-11.2156972930844,0.193037775270408,5.52002007922052,562.762407245495,-11.1346842084325,-1.69310156229748,-36.3134211504429,0.719636632990358,2.23111207260738,-57.8895468702857,1.13250084071084,-2.04821148495605,258.028490088823,-5.09379942043694,-0.149686245310372,-1.04550885371867,0.199428866091683,0.347740448362959,1.56878861337295,-0.186216744224667,0.00228386318437372,0.197465686240764,-1.90979277865007,0.814050552995355,0.00150946418828853,0.0864982261034295,-1,-1,-1,1,1,1
0.0308,-5.63924179859428,0.263724836217249,8.69303516869345,587.195599500547,-11.5371269305159,-8.68210565864574,0.853231386043207,27.7660620579483,462.367169185219,-8.93704712336264,-11.3056782895692,0.195247345291135,5.52763451052068,568.503768377846,-11.2483051658207,-1.66711657081994,-39.7151029330044,0.788292319674221,2.22965814940882,-52.1660622920997,1.01698984664773,-2.11417373341262,263.091069519167,-5.19552110178014,-0.154579237761508,-1.04542785085274,0.205597899552011,0.347679597816202,1.56871333995274,-0.190156210024065,0.00236349219416948,0.200674574999232,-1.90946447072078,0.827485178470522,0.00154424868437376,0.0874290340956369,-1,-1,-1,1,1,1
0.0312,-5.78083780510323,0.267169703009907,8.53101603654765,594.47754432211,-11.6815502704425,-8.75671748591709,0.864297978189121,27.5645065995491,466.561413590465,-9.01720696458921,-11.3967560165538,0.197459682978913,5.53385762151575,574.254118602638,-11.3621084581502,-1.64025810863422,-43.071143503887,0.856045611430055,2.22637270738405,-46.4354103518458,0.901317570365981,-2.18122269228217,268.113005533873,-5.29643691952131,-0.159545455398187,-1.04534436590469,0.211839268414329,0.347616775423706,1.56863648283136,-0.194135273470063,0.00244439887101357,0.203854024947972,-1.90913079401834,0.840894416637093,0.00157941144565547,0.0883895555107277,-1,-1,-1,1,1,1
0.0316,-5.92356333324537,0.270549503160255,8.36772088330208,601.640619475357,-11.823583654109,-8.83200376998172,0.875281320447768,27.349868299048,470.729957537519,-9.09685978607453,-11.4889243114196,0.1996742082268,5.53855684279298,580.012418255765,-11.4760741100562,-1.61254801290032,-46.3798240406328,0.922861287238921,2.22126854322506,-40.7003080044525,0.785538718853855,-2.24933651328639,273.09204415443,-5.39651664175727,-0.164582841358639,-1.04525837019258,0.218151558833273,0.347551952264985,1.56855802567048,-0.198156720602348,0.00252657136930714,0.20700362881972,-1.90879175890167,0.854277113322771,0.00161496446733226,0.0893804098745395,-1,-1,-1,1,1,1
0.032,-6.06737068969771,0.273863755196241,8.20330249988234,608.683191489111,-11.963193021121,-8.90795040093076,0.886176275587365,27.1226519837216,474.870809582098,-9.17596494706613,-11.5821766945781,0.201890286928644,5.54160271875351,585.777495286071,-11.5901794836174,-1.58400848444753,-49.6395599466743,0.988706633998706,2.21435923147266,-34.9634144633037,0.669707012932278,-2.31849280683839,278.025003462758,-5.49571283911376,-0.169689286385255,-1.04516983561636,0.224533356006357,0.34748510027363,1.56847795098159,-0.202223368037342,0.00260999768426851,0.210123034027858,-1.90844737619909,0.867632150912462,0.00165091999312213,0.0904021805965174,-1,-1,-1,1,1,1
0.0324,-6.21221206529948,0.277112039106242,8.03790754822583,615.60377495709,-12.1003473523104,-8.98454274324414,0.896977913626389,26.8833681880707,478.982049296415,-9.25448323280322,-11.6765063296885,0.204107232759988,5.54286975931817,591.548045770192,-11.7043992809756,-1.55466204326246,-52.8488846772145,1.05355144496295,2.20565909901535,-29.2273456677325,0.553875175766569,-2.38866869304748,282.910063427016,-5.59397671481749,-0.174862637233006,-1.04507873465419,0.230983245821693,0.347416192252456,1.56839624012296,-0.206338047480733,0.00269466567457364,0.213211935891886,-1.90809765719138,0.880958441059609,0.00168729048916406,0.0914553682596361,-1,-1,-1,1,1,1
0.0328,-6.35803958740445,0.280293993018842,7.87167687673527,622.401024860303,-12.2350185123119,-9.06176567129536,0.907681511571729,26.632531538109,483.061827747177,-9.33237686590772,-11.7719059858851,0.206324309602241,5.54223716658459,597.32263620743,-11.818705583076,-1.52453148390586,-56.0064335134599,1.11736769488983,2.1951831968335,-23.4946879553575,0.438095210093284,-2.45984086289256,287.746109582912,-5.6912740399695,-0.180100704493593,-1.04498504035522,0.237499815415536,0.347345201880863,1.56831287330904,-0.210503591174908,0.00278056308485347,0.216270076866414,-1.90774261359324,0.894254924836486,0.00172408861297252,0.0925404113287437,-1,-1,-1,1,1,1
0.0332,-6.50480536620795,0.283409303889944,7.70474646236588,629.073714289497,-12.3671807921395,-9.13960365452703,0.918282528473872,26.3706590717251,487.108359305877,-9.40960934307026,-11.86836805507,0.208540739515843,5.5395887910998,603.099721304356,-11.9330682037391,-1.49363980875306,-59.1109350616725,1.18012917615274,2.18294719297696,-17.7679966574846,0.322418554444427,-2.53198566444092,292.531392516916,-5.78757446031196,-0.185401272684789,-1.04488872626689,0.244081653233914,0.34727210361555,1.56822782975642,-0.2147228209706,0.00286767757647844,0.21929724171229,-1.90738225748795,0.907520571096326,0.00176132717278364,0.0936577220234229,-1,-1,-1,1,1,1
0.0336,-6.65246152778321,0.286457719201726,7.53724619556414,635.620762929476,-12.4968114945133,-9.21804066834238,0.928776657092301,26.0982696424915,491.11994004402,-9.48614580655735,-11.9658844134374,0.210755693028107,5.53481497805544,608.877614966982,-12.0474540957457,-1.46201025352817,-62.1612417575224,1.2418120985975,2.16896752924195,-12.0497819099832,0.206895813539818,-2.60507903377109,297.263767429783,-5.88284287049898,-0.190762099027926,-1.04478976657358,0.25072735018815,0.347196872917414,1.568141087411,-0.218998534034703,0.00295599672088446,0.22229326681413,-1.90701660141966,0.920754382199824,0.0017990191558657,0.0948076688783534,-1,-1,-1,1,1,1
0.034,-6.80096026565851,0.289439040106086,7.36930048998085,642.041220720425,-12.6238905983837,-9.29706026233617,0.939159808620435,25.8158819916335,495.094943002164,-9.56195295073499,-12.0644464100863,0.212968295702538,5.5278128642042,614.654503832689,-12.1618276177991,-1.4296662265428,-65.1563149278577,1.30239492640272,2.15326134709482,-6.34251563985815,0.0915767717600459,-2.67909656922199,301.941786232506,-5.97704293978119,-0.196180923956259,-1.04468813605212,0.257435500689358,0.347119486194692,1.5680526230477,-0.223333488480811,0.0030455080285571,0.225258032321544,-1.90664565834745,0.933955388088792,0.00183717769259777,0.0959905581800261,-1,-1,-1,1,1,1
0.0344,-6.95025388247657,0.292353114388727,7.20102896775255,648.334251026445,-12.7484004132635,-9.37664562907218,0.949428094074705,25.5240131745725,499.031812193949,-9.63699890284765,-12.164044869327,0.21517763515451,5.51848640562299,620.428462841536,-12.2761508443725,-1.39663125394481,-68.0952038288915,1.36185799582022,2.13584640955899,-0.648643344207854,-0.0234894047904368,-2.75401360966962,306.564588254001,-6.07014807085024,-0.201655480179604,-1.04458381002031,0.264204703028756,0.347039920730208,1.56796241238889,-0.227730392426335,0.00313619897460811,0.228191456705649,-1.90626944159734,0.947122643501041,0.00187581601893023,0.0972066446227072,-1,-1,-1,1,1,1
0.0348,-7.10029482302759,0.295199834657912,7.03254665959176,654.499126377198,-12.8703254918193,-9.45677962899886,0.959577823273025,25.2231774938254,502.929062646781,-9.71125322505602,-12.2646700614712,0.217382763807159,5.50674672510261,626.197460035277,-12.3903836582145,-1.36292895063247,-70.9770470073948,1.42018339516,2.11674108654704,5.02941964132742,-0.138254101921251,-2.82980526553936,311.130765891178,-6.16213601784733,-0.20718349791333,-1.04447676433514,0.271033559495421,0.346958154682574,1.56787043012673,-0.23219189430636,0.00322805701350544,0.231093497563673,-1.90588796485228,0.960255230357111,0.00191494746054738,0.0984561574881475,-1,-1,-1,1,1,1
0.0352,-7.25103570567717,0.297979138272837,6.8639639801993,660.535228390073,-12.9896526283223,-9.53744480137478,0.9696055097492,24.9138854682615,506.78528249459,-9.78468695769126,-12.3663116618961,0.219582700343841,5.49251260197308,631.959358014191,-12.5044837753775,-1.3285829984007,-73.8010805226969,1.47735510600409,2.09596436097044,10.6892966092177,-0.252669403067216,-2.90644643016095,315.638578609948,-6.25297818318191,-0.21276270945596,-1.04436697540828,0.27792067702511,0.346874167112565,1.56777664991473,-0.236720572813809,0.00332106959088064,0.233964150871068,-1.90550124215467,0.97335225765393,0.00195458542619908,0.0997392935544203,-1,-1,-1,1,1,1
0.0356,-7.4024293547602,0.300691006280444,6.69538677575333,666.442045307014,-13.1063708080739,-9.61862338402966,0.979507871811682,24.596642700334,510.599133741585,-9.85727263578241,-12.468958717471,0.221776432184949,5.47571086490823,637.71191813358,-12.6184068258245,-1.29361712014698,-76.566631071875,1.53335901811324,2.07353582296172,16.3286450085703,-0.366688142469364,-2.98391180625916,320.087073030255,-6.34264626453793,-0.218390854561689,-1.04425442021175,0.284864668080937,0.346787937993096,1.56768104438215,-0.241318926771041,0.00341522415689319,0.236803447690779,-1.90510928790163,0.986412858909786,0.00199474339382721,0.101056193909329,-1,-1,-1,1,1,1
0.036,-7.55442883264896,0.30333546143717,6.52691651931218,672.219167319999,-13.2204711113984,-9.70029734107878,0.989281829740434,24.2719488147129,514.369351674652,-9.92898427840127,-12.5725996215191,0.223962918916461,5.45627663083312,643.452807362952,-12.7321064882052,-1.25805505114984,-79.2731051158509,1.58818271882072,2.04947565269161,21.9451494947508,-0.480263771176964,-3.06217594479077,324.475735436678,-6.43112229580079,-0.224065685779989,-1.0441390762739,0.291864150961848,0.346699448202571,1.56758358517129,-0.245989365962618,0.00351050818063818,0.23961145327544,-1.90471211683356,0.999436192951453,0.00203543489090757,0.102406955703539,-1,-1,-1,1,1,1
0.0364,-7.70698749359329,0.305912569320211,6.35865020313109,677.86628943183,-13.3319467724851,-9.78244837273136,0.998924518053002,23.9402958702439,518.094749784492,-9.99979748968229,-12.6772220361167,0.226141094149879,5.4341541611601,649.17959928138,-12.8455345025778,-1.22192050754506,-81.919998132036,1.64181552037788,2.02380464648493,27.5365309533241,-0.593350385099997,-3.14121326611988,328.803370056752,-6.51839042289546,-0.229784975141285,-1.04402092171868,0.298917750401327,0.346608679586429,1.56748424290667,-0.250734194468785,0.00360690916791523,0.242388270079138,-1.90430974404755,1.01242144849947,0.00207667348159758,0.103791655035563,-1,-1,-1,1,1,1
0.0368,-7.8600589718979,0.308422430478432,6.19068111263696,683.383192351237,-13.4407927868028,-9.86505797962217,1.00843325171129,23.6021684227615,521.774207836182,-10.069689218152,-12.7828129745525,0.228309872865626,5.40929571684156,654.88979520312,-12.9586411016079,-1.18523716133317,-84.5068844378791,1.69424828692092,1.9965441119418,33.100547445636,-0.705902775801372,-3.22099810170175,333.068728674439,-6.60442845719261,-0.23554651653238,-1.04389993517794,0.306024097308582,0.346515614810254,1.56738298738372,-0.25555561734602,0.00370441466990296,0.24513402950364,-1.90390218493518,1.02536783845361,0.0021184727498055,0.105210337702299,-1,-1,-1,1,1,1
0.0372,-8.01359720521696,0.310865179439069,6.02309888937073,688.769740148405,-13.5470058629154,-9.94810748105582,1.01780552467642,23.2580427549502,525.406671641468,-10.1386377529371,-12.8893587823924,0.230468154092271,5.38166169033799,660.580829912153,-13.0713751241926,-1.1480286209979,-87.0334082450839,1.74547337579753,1.96771585967213,38.6349884406469,-0.81787642792468,-3.30150471784561,337.271237128708,-6.68921701902598,-0.241348129521746,-1.04377609579304,0.313181829345022,0.346420237357363,1.56727978759885,-0.260455734147525,0.00380301229303176,0.247848889429466,-1.90348945517648,1.03827459850669,0.00216084628697869,0.106663005566537,-1,-1,-1,1,1,1
0.0376,-8.16755648509746,0.313240987044431,5.85598928643558,694.025886071159,-13.6505845420082,-10.0315780148137,1.02703902545288,22.9083854637518,528.99115907472,-10.2066228466661,-12.9968450571957,0.232614821962749,5.35122145820601,666.250070964458,-13.1836839946924,-1.11031840767715,-89.4992858968966,1.79548463864229,1.93734224350881,44.1376762545301,-0.929227503557605,-3.38270733225641,341.410424519346,-6.77274348382992,-0.247187664939214,-1.04364938326511,0.320389591663068,0.346322531603712,1.56717461170338,-0.265436523409968,0.00390268971330407,0.250533037175153,-1.90307157076193,1.05114099129901,0.00220380768113706,0.108149628508515,-1,-1,-1,1,1,1
0.038,-8.3218914802558,0.315550058588174,5.68943435516231,699.151668067746,-13.7515291058838,-10.1154505638282,1.0361316314599,22.5536527587619,532.52675836971,-10.2736256819274,-13.1052566397371,0.234748749542532,5.31795332215955,671.894827764824,-13.2955139047977,-1.07212993173381,-91.9043067845489,1.84427736619813,1.90544613939893,49.6064712258691,-1.03991287592386,-3.46458013800799,345.485506888973,-6.85499561722031,-0.253063008708091,-1.04351977784762,0.327646037113926,0.346222482797433,1.56706742706107,-0.270499837336711,0.0040034346877773,0.253186688439252,-1.90264854797871,1.06396630735822,0.00224737050499715,0.109670154319055,-1,-1,-1,1,1,1
0.0384,-8.47655721939319,0.317792628932025,5.52351293493886,704.147196865351,-13.8498413319641,-10.1997059937245,1.04508138575004,22.1942908710614,536.012619777304,-10.3396287026006,-13.2145776814271,0.236868803211035,5.281843573414,677.512365185393,-13.4068100932413,-1.03348648405907,-94.248324469175,1.89184813873966,1.87205087676535,55.0392701061809,-1.1498901262655,-3.54709732580933,349.495740322872,-6.93595936658562,-0.25897208172224,-1.04338726028666,0.334949825900297,0.346120076955985,1.56695820037562,-0.275647409720648,0.00410523505622035,0.255810082256017,-1.90222040337024,1.07674986160039,0.00229154830761342,0.111224504524408,-1,-1,-1,1,1,1
0.0388,-8.63150918320001,0.319968966930523,5.35830013882187,709.012666954347,-13.9455247190025,-10.2843250521039,1.05388652507773,21.830733479493,539.447966415596,-10.4046158354291,-13.3247915012297,0.238973844771852,5.2428879902035,683.099903097622,-13.5175168248441,-0.994411192995445,-96.5312631686575,1.93819500671182,1.83718031164685,60.4340112929879,-1.25911769134144,-3.63023310710467,353.440719166714,-7.01562252267079,-0.264912850031102,-1.0432518119142,0.342299627429022,0.346015301001352,1.56684689761281,-0.280880828147751,0.00420807876706644,0.258403483542214,-1.9017871537759,1.08949099770929,0.00233635459790361,0.11281256484933,-1,-1,-1,1,1,1
0.0392,-8.78670331312803,0.322079372536791,5.19386764786037,713.748349570367,-14.0385843428482,-10.369288399899,1.06254546706546,21.4634015102262,542.832089855967,-10.4685724012972,-13.4358806093579,0.241062735843071,5.20109134940858,688.654628423943,-13.6275776354377,-0.954927007097159,-98.7531097330263,1.98331731422943,1.80085878758687,65.7886730515423,-1.36755481350238,-3.713961741539,357.320138522121,-7.09397703139405,-0.27088332683122,-1.04311341462239,0.349694120280886,0.345908142706052,1.56673348409375,-0.286201534560384,0.00431195388489114,0.26096718087493,-1.90134881630708,1.1021890880801,0.00238180283196868,0.114434193798582,-1,-1,-1,1,1,1
0.0396,-8.94209600189078,0.324124173062361,5.03028410130332,718.35458356763,-14.129026668878,-10.4545766429707,1.07105679154487,21.0927034832929,546.164343452934,-10.5314849804098,-13.5478267615345,0.243134341916129,5.15646660189995,694.173707669317,-13.7369355890737,-0.915056686433983,-100.91390809235,2.02721554126229,1.76311108124967,71.1012744327469,-1.47516151699357,-3.79825755650618,361.133514771006,-7.17101547014988,-0.276881572284155,-1.04297205081961,0.357131991844387,0.345798590611127,1.56661792460689,-0.291610831779459,0.00441684859273835,0.263501483647872,-1.90090540831471,1.11484353282912,0.00242790640536485,0.116089231673095,-1,-1,-1,1,1,1
0.04,-9.0976441022592,0.326103721339245,4.86761526497706,722.831770962786,-14.2168594604071,-10.5401703542791,1.07941923181301,20.7190353635292,549.444139339634,-10.5933413518814,-13.6606109763261,0.245187535674559,5.10903449290784,699.654296169887,-13.8455334662297,-0.874822789565029,-103.013756388436,2.06989126154039,1.72396237568632,76.3698769848162,-1.58189865757607,-3.88309496326944,364.880405123634,-7.24672909464494,-0.282905694937293,-1.04282770341579,0.364611938511867,0.345686633989596,1.56650018347834,-0.297109884004454,0.00452275119794831,0.266006719713626,-1.90045694737266,1.12745375900882,0.00247467864565644,0.117777496956503,-1,-1,-1,1,1,1
0.0404,-9.25330495327399,0.328018395571476,4.70592401790394,727.180376637736,-14.3020917725676,-10.6260500880275,1.08763167490942,20.3427799590028,552.670948769318,-10.6541305012891,-13.7742135180467,0.247221199699814,5.05882359039872,705.093544446353,-13.9533138909474,-0.834247656218909,-105.052803832901,2.11134712249624,1.68343825880531,81.5925846723566,-1.68772796088981,-3.96844847405114,368.560665584983,-7.32111106448383,-0.288953854612106,-1.04268035583421,0.372132666240223,0.345572262851394,1.56638022460466,-0.302699711701444,0.00462965014135385,0.268483234379897,-1.90000345127541,1.14001922112194,0.00252213280315392,0.119498781481755,-1,-1,-1,1,1,1
0.0408,-9.40903640278411,0.329868598817414,4.54527039575068,731.400927138487,-14.3847339276168,-10.7121963956999,1.09569315973044,19.9643064779376,555.844301648368,-10.713842611798,-13.8886138890992,0.249234229346311,5.00587018915723,710.488605390867,-14.0602194755667,-0.79335339113312,-107.031247967333,2.15158677115638,1.64156471577052,86.7675446173787,-1.79261201877288,-4.05429272008765,372.174200737024,-7.39415821791551,-0.295024264703357,-1.0425299920175,0.379692890868826,0.345455467938371,1.56625801149607,-0.308381188211824,0.00473753400562127,0.270931390162723,-1.89954493803224,1.15253940263388,0.00257028204145879,0.121252857174993,-1,-1,-1,1,1,1
0.0412,-9.56479682482549,0.331654757785933,4.38571170472761,735.494007788826,-14.464797455619,-10.7985898464795,1.1036028712041,19.5839702798706,558.963784612721,-10.7724690257013,-14.0037908382038,0.251225536102689,4.95021800757193,715.836643381338,-14.1661930057061,-0.752161848517658,-108.949334359829,2.19061480054658,1.59836810988127,91.8929511500441,-1.8965143257575,-4.14060246836687,375.720674078159,-7.46586746843873,-0.301115193858012,-1.04237659642392,0.387291338343199,0.345336240701403,1.56613350734063,-0.314155038873457,0.00484639152280749,0.273351565941023,-1.89908142585464,1.16501381708532,0.00261913942917475,0.123039483165539,-1,-1,-1,1,1,1
0.0416,-9.7205451302926,0.333377321485378,4.22730263128604,739.460259431101,-14.5422950274672,-10.8852110460204,1.11136013315376,19.2021128008887,562.02903856364,-10.8300021948121,-14.1197223785343,0.253194050557373,4.89191780349622,721.134842806681,-14.2711776141943,-0.710694620409607,-110.80735516234,2.22843674444005,1.55387515996476,96.9670485436247,-1.99939935722297,-4.22735263427146,379.199835183505,-7.53623312834749,-0.307224966917942,-1.04222015401861,0.394926745038131,0.345214573270764,1.56600667506977,-0.320021842104857,0.00495621157972579,0.275744154744675,-1.89861293314194,1.1774420073576,0.00266871793395323,0.124858399146009,-1,-1,-1,1,1,1
0.042,-9.87624077699754,0.335036760199574,4.07009531982482,743.300375974943,-14.6172404045091,-10.97204065172,1.11896440263562,18.8190615110804,565.039756711275,-10.8864356410719,-14.236385803688,0.255138724860633,4.83102704057464,726.380415225852,-14.3751169272613,-0.668973027334954,-112.605642017084,2.2650590030377,1.50811292243952,101.988127731415,-2.10123256846445,-4.31451829642296,382.611899173074,-7.60525286774558,-0.313351965590826,-1.04206065026794,0.402597858071357,0.34509045843273,1.56587747741349,-0.325982030517616,0.00506698322229273,0.278109561872919,-1.89813947846977,1.18982354504158,0.00271903041528121,0.126709319059564,-1,-1,-1,1,1,1
0.0424,-10.0318437833616,0.336633564627578,3.91413946453673,747.01510235697,-14.6896483966328,-11.0590593881287,1.12641526511366,18.4351298663736,567.995682935987,-10.9417639236517,-14.3537577006576,0.257058535295113,4.76760956480403,731.570606714981,-14.4779552143182,-0.627018107500114,-114.344562491612,2.30048871645705,1.46110877528213,106.954526469315,-2.20198034598299,-4.40207471266338,385.956961074241,-7.67292964448108,-0.319494629087836,-1.04189807113738,0.410303435371009,0.344963889610266,1.56574587695531,-0.332035891667986,0.00517869566076513,0.280448205112687,-1.89766108057949,1.20215803238621,0.00277008961652108,0.12859194578278,-1,-1,-1,1,1,1
0.0428,-10.1873147415651,0.338168244931553,3.75948239880066,750.6052322653,-14.759534815527,-11.1462480630326,1.13371242898218,18.0506172965627,570.896609898275,-10.9959826009017,-14.4718139667676,0.258952484907697,4.70173523870107,736.702705556328,-14.5796375450021,-0.584850605560661,-116.024524188809,2.33473376434764,1.41289039915796,111.864637009625,-2.30161008357137,-4.48999732934315,389.234599339223,-7.73926279532639,-0.32565145464071,-1.04173240308821,0.418042245848769,0.344834860840733,1.56561183619139,-0.338183569374961,0.00529133827511998,0.282760514298362,-1.89717775836579,1.21444510353476,0.00282190816040313,0.130505979292004,-1,-1,-1,1,1,1
0.0432,-10.3426148280747,0.339641329674706,3.60616914857981,754.071605599519,-14.8269164225022,-11.2335875833107,1.14085571923006,17.6658092356092,573.742376806766,-11.0490881852578,-14.5905298330799,0.260819606016483,4.63347953080131,741.774049883462,-14.6801099459051,-0.542490963075208,-117.64597203536,2.36780281345869,1.36348575592185,116.716907277781,-2.40009030400032,-4.57826179092386,392.444833353099,-7.80424763031561,-0.331820997881587,-1.04156363307163,0.425813069984068,0.344703366749412,1.5654753175929,-0.344425065954176,0.00540490061946129,0.28504692804449,-1.89668953086297,1.22668442235269,0.0028744985444917,0.132451095884446,-1,-1,-1,1,1,1
0.0436,-10.4977058114507,0.341053364994457,3.45424249869545,757.415106517712,-14.8918108883793,-11.3210589669678,1.14784507232297,17.2809772485828,576.532867596909,-11.101078106419,-14.7098798859867,0.262658962080761,4.56292315099546,746.782033576638,-14.7793195217224,-0.49995931250147,-119.209377355558,2.39970516776949,1.3129230716844,121.509833393348,-2.49739057519545,-4.66684395589292,395.588272708975,-7.86788734209753,-0.33800187266079,-1.04139174852398,0.433614700030081,0.344569402527927,1.56533628365603,-0.350760244820454,0.00551937242471166,0.287307892665888,-1.89619641723397,1.23887568243827,0.00292787313341014,0.134426948151339,-1,-1,-1,1,1,1
0.044,-10.6525500615848,0.342404913761927,3.3037430997864,760.636661447373,-14.95423675266,-11.408643355973,1.15468053089777,16.8963792379259,579.268009035461,-11.1519506730217,-14.8298380908331,0.264469649689446,4.49015163971467,751.724112574539,-14.877214584987,-0.457275470022497,-120.715238557423,2.43045064351377,1.26123081819886,126.241963524447,-2.59348145621795,-4.75571990788355,398.664985503098,-7.93018940583173,-0.344192750505301,-1.04121673736256,0.44144593986329,0.34443296391197,1.56519469695582,-0.357188833628077,0.00563474360190205,0.289543863546721,-1.89569843675838,1.2510186101525,0.00298204415346984,0.13643319085518,-1,-1,-1,1,1,1
0.0444,-10.8071105587634,0.343696554691341,3.15470952982129,763.737236963365,-15.0142133799688,-11.4963220294694,1.16136223805438,16.5122596215146,581.947768663923,-11.2017050309656,-14.9503778190489,0.26625080055347,4.41525494123486,756.597811353711,-14.9737447895282,-0.414458927777372,-122.164087402879,2.46004965427611,1.20843769175219,130.911907151826,-2.68833464591471,-4.84486595860283,401.674609923649,-7.99115379282042,-0.350392360244362,-1.04103858798081,0.449305605313695,0.344294047157182,1.5650505202029,-0.363710427641842,0.00575100424571946,0.291755303695547,-1.8951956088189,1.26311296434567,0.00303702369147588,0.138469476810701,-1,-1,-1,1,1,1
0.0448,-10.9613509015115,0.344928881491473,3.00717832045248,766.717837786852,-15.0717609189739,-11.5840764157685,1.16789043184216,16.1288495094886,584.572152797009,-11.2503411227979,-15.0714718767926,0.268001583249273,4.33832699223495,761.400728805525,-15.0688612518522,-0.371528847957586,-123.556481861294,2.48851321695516,1.1545725929907,135.518331292702,-2.78192305031361,-4.93425865747304,404.61747547356,-8.05077925390727,-0.356599487623478,-1.04085728924323,0.457192524769258,0.344152649015669,1.56490371629742,-0.370324493288953,0.00586814463710885,0.293942680484744,-1.89468795288836,1.27515853378545,0.00309282369014937,0.14053543354593,-1,-1,-1,1,1,1
0.0452,-11.1152353132424,0.346102502073143,2.8611840326742,769.579504934759,-15.1269002644157,-11.6718881030002,1.17426544004894,15.7463670050432,587.141204611836,-11.2978596489278,-15.193092534507,0.269721204691844,4.25946529674623,766.130543431286,-15.1625166587371,-0.328504058626195,-124.892996853076,2.5158527749238,1.09966460789626,140.059954398597,-2.8742206693137,-5.02387480633092,407.494277714321,-8.10907328172952,-0.362812974302332,-1.04067283048042,0.46510553923955,0.344008766713632,1.56475424837894,-0.377030372415199,0.00598615524501125,0.296106465616146,-1.89417548851754,1.28715513823867,0.00314945594099907,0.14263067359609,-1,-1,-1,1,1,1
0.0456,-11.2687286482003,0.34721803780468,2.71675934695684,772.323313969468,-15.1796530212149,-11.7597388488763,1.1804876752355,15.365017557449,589.655002307498,-11.3442620302194,-15.3152115570664,0.271408911415478,4.17877050301397,770.785018055588,-15.2546653651083,-0.285403049477219,-126.1742283021,2.54208013484889,1.04374298838328,144.535552750772,-2.9652025884517,-5.11369146484198,410.305064348066,-8.16604433862588,-0.369031716584341,-1.04048520148411,0.473043502234499,0.343862397929947,1.56460207987371,-0.383827286847637,0.00610502672813837,0.298247136346394,-1.89365823532285,1.29910263094572,0.00320693208188329,0.144754816663882,-1,-1,-1,1,1,1
0.046,-11.4217963968981,0.348276122794351,2.57393509728083,774.950373308329,-15.2300414698046,-11.8476105898417,1.18655762992246,14.9849942520689,592.113657309601,-11.3895503714275,-15.4378002346564,0.273063990709712,4.09634600894844,775.362004179326,-15.3452634846946,-0.242243967743613,-127.400796855499,2.5672075528072,0.986837132614105,148.943966404746,-3.0548451104032,-5.20368595136171,413.049661321847,-8.2216940818098,-0.375254664433954,-1.04029439250232,0.481005280148185,0.343713540775336,1.56444717453998,-0.390714342738028,0.00622474993667309,0.300365173677776,-1.89313621297372,1.31100089742629,0.00326526359687073,0.146907478959284,-1,-1,-1,1,1,1
0.0464,-11.5744046921554,0.34927740302907,2.43274029888643,777.461822216919,-15.2780885249757,-11.935485451566,1.19247587084706,14.6064781747935,594.517312118091,-11.4337274173416,-15.5608294216113,0.274685771836631,4.01229748695732,779.859446874153,-15.4342689922606,-0.19904461457041,-128.573340562739,2.59124772376578,0.928976561642172,153.284094915983,-3.14312580062505,-5.29383585166853,415.728662481209,-8.27602406536246,-0.381480820216226,-1.0401003942332,0.488989752830176,0.34356219376739,1.56428949652149,-0.397690536061438,0.00634531591365126,0.302461059449816,-1.89260944117777,1.32284985307181,0.00332446181219509,0.149088252891731,-1,-1,-1,1,1,1
0.0468,-11.7265203126063,0.350222535781831,2.29320221598417,779.858829448375,-15.3238177079916,-12.0233457555413,1.19824303504986,14.2296387857294,596.866138822586,-11.4767965225232,-15.684269565525,0.276273626675923,3.92673252963605,784.275387721087,-15.5216417853707,-0.155822443880374,-129.692506347462,2.61421358877253,0.870190903322395,157.554890935866,-3.23002333867401,-5.38411903114088,418.342824829941,-8.32904560478397,-0.387709237240918,-1.03990319782054,0.496995813500596,0.343408355813413,1.56412901038293,-0.404754757195705,0.00646671589521012,0.304535277166293,-1.89207793967064,1.3346494447488,0.00338453789037594,0.151296723454445,-1,-1,-1,1,1,1
0.0472,-11.8781106865894,0.351112188929264,2.15534644049897,782.142591653151,-15.3672531140144,-12.1111740265982,1.20385982533937,13.8546343697742,599.16033736794,-11.5187616159036,-15.8080907420696,0.277826970404289,3.83976023445564,788.607968084527,-15.6073437533942,-0.112594560091552,-130.758956904258,2.63611831958722,0.810509872130831,161.755368736308,-3.31551754406583,-5.47451363603645,420.892114039623,-8.38076847444579,-0.393939017992903,-1.03970279484841,0.505022368651452,0.343252026190505,1.56396568115085,-0.411905796421846,0.00658894131135618,0.306588313173573,-1.89154172820312,1.34639965288748,0.00344550282989792,0.153532488163119,-1,-1,-1,1,1,1
0.0476,-12.0291438957973,0.351947040248966,2.01919690889123,784.314331742186,-15.4084193785702,-12.1989530003141,1.20932700565237,13.4816124269973,601.400133770022,-11.5596271642941,-15.9322626923244,0.27934526207438,3.75149080092273,792.855432208166,-15.6913388431071,-0.0693777159758785,-131.77337370504,2.65697543361015,0.749963247714563,165.884609018962,-3.39958952624468,-5.56499809247491,423.376486829314,-8.43119416827909,-0.400169312658276,-1.03949917733552,0.513068338552118,0.343093204525113,1.56379947435489,-0.419142349390158,0.00671198378663954,0.308620654200599,-1.89100082652767,1.35810048921998,0.00350736746606822,0.155795138424386,-1,-1,-1,1,1,1
0.048,-12.1795886782009,0.352727776752725,1.88477591885044,786.375297360279,-15.4473416462725,-12.2866656294855,1.21464539675228,13.1107100734275,603.585778451727,-11.5993981383401,-16.0567548595431,0.280828004995326,3.66203514981249,797.016129731886,-15.7735931124645,-0.026188312131337,-132.73644662037,2.67679873215849,0.688580855168094,169.941750646373,-3.48222165955569,-5.65555111537523,425.796768280795,-8.48032765521757,-0.40639931757273,-1.03929233772953,0.521132657705893,0.342931890773965,1.56363035606528,-0.426463022591557,0.00683583514002615,0.310632785044208,-1.89045525438593,1.36975199454585,0.00357014246683813,0.158084242603951,-1,-1,-1,1,1,1
0.0484,-12.329414430338,0.353455094054225,1.75210420712937,788.326759446052,-15.4840455413455,-12.3742950898,1.21981587222651,12.7420545466552,605.717544677528,-11.6380799804904,-16.1815364255622,0.282274746931104,3.57150453621005,801.088517692304,-15.8540747738067,0.0169576028550359,-133.648868823414,2.69560212279249,0.626392546045329,173.925987170703,-3.56339744263636,-5.74615171808051,428.153736227962,-8.52818278410672,-0.412628273146592,-1.03908226890151,0.52921427468391,0.342768085206245,1.56345829292677,-0.433866339271184,0.00696048738443082,0.312625190032521,-1.88990503149679,1.38135424086089,0.00363383832827703,0.16039936851658,-1,-1,-1,1,1,1
0.0488,-12.4785912598806,0.354129696336988,1.62120089958972,790.170012423811,-15.5185571717824,-12.461824802768,1.22483935820372,12.3757630101535,607.795728588585,-11.6756786059805,-16.3065763326231,0.283685083558943,3.48001015679328,805.071170569865,-15.9327543988282,0.0600443598418822,-134.511345748016,2.71339965503681,0.563428177785022,177.836580780682,-3.64310164135845,-5.83677923334307,430.447319131916,-8.57476927092493,-0.418855464930886,-1.03886896417197,0.537312153170218,0.342601788408166,1.56328325223877,-0.441350739730862,0.00708593274137484,0.314598353874707,-1.88935017754044,1.39290733516689,0.00369846536273753,0.162740099186341,-1,-1,-1,1,1,1
0.0492,-12.6270898961717,0.354752294625861,1.49208371882099,791.906369748658,-15.5509030377757,-12.5492384092288,1.22971682277164,12.011944278493,609.820644737177,-11.7122003107258,-16.4318433533579,0.285058652241819,3.38766280607433,808.962766554449,-16.0096046457521,0.103056620531087,-135.324593887609,2.73020560792852,0.49971759202431,181.672855060003,-3.72132025277057,-5.92741327129812,432.677730114432,-8.62009046927453,-0.425080216087148,-1.03865241724735,0.545425270582668,0.342433001225078,1.56310520190299,-0.448914597798407,0.00721216361386053,0.316552758857316,-1.88879071215016,1.40441141197803,0.00376403372330583,0.165106007434305,-1,-1,-1,1,1,1
0.0496,-12.7748816815933,0.355323606183731,1.36476902902548,793.537162493791,-15.5811100027693,-12.6365197695231,1.23444927242034,11.6506993323413,611.79262463562,-11.7476517414721,-16.557306124876,0.286395131188782,3.29457260520075,812.762086634525,-16.0846002433243,0.145979371187248,-136.089331293208,2.74603438575177,0.435290599100605,185.434185867132,-3.79804040577057,-6.01803372329358,434.845805258144,-8.66415474127909,-0.431301885212081,-1.03843262220925,0.553552618076714,0.342261724744356,1.56292411043724,-0.45655622670824,0.00733917258265557,0.318488883932301,-1.88822665490323,1.41586663186247,0.0038305534024479,0.167496650995843,-1,-1,-1,1,1,1
0.05,-12.9219386409927,0.355844354786665,1.23927174384151,795.063740369342,-15.6092053146369,-12.7236529909401,1.23903775394244,11.292120846415,613.712017679572,-11.7820399150262,-16.682933161318,0.287694243765758,3.20084867613389,816.468026461117,-16.1577182317126,0.188797958065007,-136.806278069419,2.76090043269192,0.370176960515713,189.120008061901,-3.87325040516536,-6.10862079726974,436.952146964691,-8.70697480264334,-0.437519868578818,-1.03820957355223,0.56169320188499,0.342087960311664,1.56273994706329,-0.464273876865873,0.00746695242545894,0.320407205978176,-1.88765802530587,1.42727318634691,0.00389803421230723,0.169911591935091,-1,-1,-1,1,1,1
0.0504,-13.0682334771578,0.356315270084803,1.11560537609863,796.487470239327,-15.6352165753378,-12.8106224296285,1.24348335080513,10.9362937556896,615.579189654755,-11.8153721874935,-16.808692893819,0.2889557577159,3.10659882216253,820.079595791951,-16.2289379540306,0.231498083745175,-137.476160581276,2.77481827089977,0.304406369045973,192.729819809544,-3.94693977500764,-6.19915501400949,438.996996317797,-8.74856042546157,-0.443733597735591,-1.03798326617469,0.569846043351253,0.341911709513944,1.56255268172683,-0.472065742427301,0.00759549611453927,0.322308199545627,-1.88708484278109,1.43863129738756,0.00396648578711172,0.172350398409246,-1,-1,-1,1,1,1
