modelica/MAP-LIB_ReferenceResults/Modelica/Mechanics/MultiBody/Examples/Systems/RobotR3/fullRobot/fullRobot.csv
"time","axis1.controller.PI.x","axis1.gear.spring.phi_rel","axis1.gear.spring.w_rel","axis1.motor.C.v","axis1.motor.La.i","axis2.controller.PI.x","axis2.gear.spring.phi_rel","axis2.gear.spring.w_rel","axis2.motor.C.v","axis2.motor.La.i","axis3.controller.PI.x","axis3.gear.spring.phi_rel","axis3.gear.spring.w_rel","axis3.motor.C.v","axis3.motor.La.i","axis4.controller.PI.x","axis4.motor.C.v","axis4.motor.La.i","axis5.controller.PI.x","axis5.motor.C.v","axis5.motor.La.i","axis6.controller.PI.x","axis6.motor.C.v","axis6.motor.La.i","mechanics.b2.body.w_a[1]","mechanics.r1.phi","mechanics.r1.w","mechanics.r2.phi","mechanics.r3.phi","mechanics.r3.w","mechanics.r4.phi","mechanics.r4.w","mechanics.r5.phi","mechanics.r5.w","mechanics.r6.phi","mechanics.r6.w","axis1.gear.bearingFriction.mode","axis2.gear.bearingFriction.mode","axis3.gear.bearingFriction.mode","axis4.gear.bearingFriction.mode","axis5.gear.bearingFriction.mode","axis6.gear.bearingFriction.mode"
0,-1.1651297647909292e-16,1.5737380636990038e-18,0,2.9128244119773231e-15,-5.8256488239546462e-17,-5.1469369766693251,0.27415086170667075,0,94.404566703399013,-1.8880913340679804,-7.726060447507483,0.073678180544994837,0,183.94173861956358,-3.6788347723912715,-1.2008487863935242,30.021219659838106,-0.60042439319676211,-1.4485586307863916,36.213965769659787,-0.72427931539319579,1.9925158957926658e-16,-4.9812897394816641e-15,9.9625794789633276e-17,0,-1.0471975511965976,0,0.3490658503988659,1.5707963267948966,0,0,0,-1.9198621771937625,0,0,0,0,0,0,0,0,0
0.00040000000000000002,-0.0024208141555051559,1.572883190063436e-18,-2.7467920514639276e-18,9.5820760394682249,-0.092645615819362911,-5.1396021634343141,0.27415086170667075,-1.4536760496316978e-17,110.34197806463852,-2.0613088788545797,-7.7245542810925309,0.073678180544994837,6.6210926483493161e-18,190.29099122244793,-3.747842533042999,-1.2017047171127915,34.420733115093896,-0.65012183141596191,-1.4452109906399218,19.006979811326282,-0.52990711258033407,-0.00085593071926764433,8.4422603721597671,-0.075097735736306681,-6.9222668104009492e-20,-1.0471975511965976,2.6159924292168063e-20,0.3490658503988659,1.5707963267948966,1.1035154487818784e-19,-6.6833821170820584e-24,0,-1.9198621771937625,0,-1.259178406691131e-23,0,0,0,0,0,0,0
0.00062882978688241298,-0.0059851222332562995,1.5723096160111031e-18,-2.3651318179177213e-18,19.456021583853254,-0.24787186009681464,-5.1386752372251436,0.27415086170667075,-1.1483923217785954e-17,125.19489694943746,-2.3185321054182628,-7.7249899168083749,0.073678180544994837,5.7989309592279694e-18,196.20807135399727,-3.8503156478696003,-1.2029649546117109,38.059818037988116,-0.7170478303147424,-1.4402820617552603,4.7741143351182185,-0.26815209466510415,-0.0021161682181867602,11.726234778172193,-0.15707969790071419,-5.468534772889121e-20,-1.0471975511965976,2.2525064925046661e-20,0.3490658503988659,1.5707963267948966,9.6648850057949385e-20,-6.681651856782725e-24,0,-1.9198621771937625,0,-1.2598503151685527e-23,0,0,0,0,0,0,0
0.00062882978688241298,-0.0059851222332562995,1.5723096160111031e-18,-2.3651318179177213e-18,19.456021583853254,-0.24787186009681464,-5.1386752372251436,0.27415086170667075,-1.1483923217785954e-17,125.19489694943746,-2.3185321054182628,-7.7249899168083749,0.073678180544994837,5.7989309592279694e-18,196.20807135399727,-3.8503156478696003,-1.2029649546117109,38.059818037988116,-0.7170478303147424,-1.4402820617552603,4.7741143351182185,-0.26815209466510415,-0.0021161682181867602,11.726234778172193,-0.15707969790071419,-5.468534772889121e-20,-1.0471975511965976,2.2525064925046661e-20,0.3490658503988659,1.5707963267948966,9.6648850057949385e-20,-6.681651856782725e-24,0,-1.9198621771937625,0,-1.2598503151685527e-23,0,0,0,0,0,0,0
0.00062884328680124218,-0.0059853793515301998,1.572309585261021e-18,-2.1610112422486133e-18,19.456618673217264,-0.2478823630486513,-5.1386752528011161,0.27415086170667075,9.9999980684190183e-11,125.19576208603792,-2.3185486214499123,-7.7249899703900198,0.073678180544994837,9.0069566645287935e-18,196.20841600151684,-3.8503222275029798,-1.2029650455213863,38.060020478767392,-0.71705192782331895,-1.4402817061974185,4.7733225667370194,-0.26813606885378249,-0.0021162591278621754,11.726348816805732,-0.15708387567207235,-9.1983212939967347e-20,-1.0471975511965976,2.0581059442483722e-20,0.3490658503988659,1.5707963267948966,1.5011594514629639e-19,-6.681651856782725e-24,0,-1.9198621771937625,0,-1.2598369684861067e-23,0,0,0,0,0,0,0
0.00062884328680124218,-0.0059853793515301998,1.572309585261021e-18,-2.1610112422486133e-18,19.456618673217264,-0.2478823630486513,-5.1386752528011161,0.27415086170667075,9.9999980684190183e-11,125.19576208603792,-2.3185486214499123,-7.7249899703900198,0.073678180544994837,9.0069566645287935e-18,196.20841600151684,-3.8503222275029798,-1.2029650455213863,38.060020478767392,-0.71705192782331895,-1.4402817061974185,4.7733225667370194,-0.26813606885378249,-0.0021162591278621754,11.726348816805732,-0.15708387567207235,-9.1983212939967347e-20,-1.0471975511965976,2.0581059442483722e-20,0.3490658503988659,1.5707963267948966,1.5011594514629639e-19,-6.681651856782725e-24,0,-1.9198621771937625,0,-1.2598369684861067e-23,0,0,-1,0,0,0,0
0.00074861279164747496,-0.0084841409613200091,3.3618124405902817e-12,1.1259785158659908e-07,24.714290886747396,-0.34435261768900427,-5.1391335974840526,0.27415117685223656,0.0078958822339489556,132.68116326195752,-2.4664354811263833,-7.7255948885709014,0.073678180597790494,1.7682165265399412e-06,199.20448583954189,-3.9092883270894783,-1.2038485362334193,39.7955271964152,-0.7529871713093943,-1.4368262758570238,-2.0144370400630391,-0.12758933877491321,-0.002999749839894969,12.658207367228783,-0.19039879715121455,-2.0566127818232888e-08,-1.0471975511966298,-1.0723604913009441e-09,0.34906585039825194,1.5707963267957765,2.9470275442332361e-08,-6.0101848995608203e-24,0,-1.9198621771937625,0,-1.8281981198608903e-23,0,0,-1,0,0,0,0
0.00074861279164747496,-0.0084841409613200091,3.3618124405902817e-12,1.1259785158659908e-07,24.714290886747396,-0.34435261768900427,-5.1391335974840526,0.27415117685223656,0.0078958822339489556,132.68116326195752,-2.4664354811263833,-7.7255948885709014,0.073678180597790494,1.7682165265399412e-06,199.20448583954189,-3.9092883270894783,-1.2038485362334193,39.7955271964152,-0.7529871713093943,-1.4368262758570238,-2.0144370400630391,-0.12758933877491321,-0.002999749839894969,12.658207367228783,-0.19039879715121455,-2.0566127818232888e-08,-1.0471975511966298,-1.0723604913009441e-09,0.34906585039825194,1.5707963267957765,2.9470275442332361e-08,-6.0101848995608203e-24,0,-1.9198621771937625,0,-1.8281981198608903e-23,0,0,-1,0,0,0,0
0.00074862924628379957,-0.0084845141634740367,3.3636662844875962e-12,1.1274463395538635e-07,24.715004927823138,-0.34436620648670557,-5.1391337035812352,0.27415117698217828,0.0078980540819141489,132.68215996529764,-2.4664558058237653,-7.7255949894802747,0.073678180597819595,1.7689511320555409e-06,199.20488864058089,-3.909296450561595,-1.203848668187038,39.795758195246798,-0.75299202702938928,-1.4368257597717593,-2.0153405021599289,-0.12757034751448809,-0.0029998817935137194,12.658337925124542,-0.19040292409425005,-2.0574672648598024e-08,-1.0471975511966298,-1.0728060376118287e-09,0.34906585039825166,1.5707963267957767,2.9482518867592351e-08,-6.0101848995608203e-24,0,-1.9198621771937625,0,-1.8281942360587157e-23,0,0,-1,0,0,0,0
0.00074862924628379957,-0.0084845141634740367,3.3636662844875962e-12,1.1274463395538635e-07,24.715004927823138,-0.34436620648670557,-5.1391337035812352,0.27415117698217828,0.0078980540819141489,132.68215996529764,-2.4664558058237653,-7.7255949894802747,0.073678180597819595,1.7689511320555409e-06,199.20488864058089,-3.909296450561595,-1.203848668187038,39.795758195246798,-0.75299202702938928,-1.4368257597717593,-2.0153405021599289,-0.12757034751448809,-0.0029998817935137194,12.658337925124542,-0.19040292409425005,-2.0574672648598024e-08,-1.0471975511966298,-1.0728060376118287e-09,0.34906585039825166,1.5707963267957767,2.9482518867592351e-08,-6.0101848995608203e-24,0,-1.9198621771937625,0,-1.8281942360587157e-23,0,-1,-1,0,0,0,0
0.00080000000000000004,-0.0096893653629097631,1.6935635810484719e-08,0.00097857923632865937,26.927758393756164,-0.38703984029658478,-5.1395210437469467,0.27415178195310941,0.016126422042256602,135.74385262630139,-2.5296140112856005,-7.7259338739086321,0.073678180766923049,5.2128204496898722e-06,200.4509053120598,-3.9346013841369891,-1.2042747888153027,40.509079457835789,-0.76801813424295085,-1.4351591546478792,-4.8052192180636553,-0.068801572634782121,-0.0034260024217785384,13.090673604107709,-0.20286414773512723,-6.0634192212778482e-08,-1.0471975511967306,-3.0344441093113387e-09,0.34906585039628468,1.5707963267985949,8.688034082795759e-08,-5.7757804215247967e-24,0,-1.9198621771937625,0,-2.0123950058490217e-23,0,-1,-1,0,0,0,0
0.0012000000000000001,-0.021589221430191149,1.1350070572765725e-05,0.074925903548310996,42.217499044644356,-0.70939575929735155,-5.1460911079435494,0.27418438176489596,0.17306157421376006,156.09163171412018,-2.9729807490162008,-7.7302049866893556,0.073678209231319278,0.00020299858593584639,209.66176653692364,-4.1238072095168734,-1.2085624233768035,45.880303019958028,-0.87834637905369495,-1.4183897394740115,-25.812671372141637,0.36270445151390363,-0.0077136369832789689,18.668860229208537,-0.30202842422407883,-2.3608677611745701e-06,-1.0471975511986171,2.7768838404602201e-08,0.34906585006523294,1.5707963272730019,3.3833097655979532e-06,-7.6705086974208884e-24,0,-1.9198621771937625,0,-3.2621571016847757e-23,0,-1,-1,0,0,0,0
0.0015454971779054363,-0.034987876629019012,6.0940285046280934e-05,0.22383429632025889,52.443524342756213,-0.93971261193352151,-5.1561960095477151,0.27428438868446697,0.42110297063128543,170.04571667237451,-3.2776165951164513,-7.7362259328128715,0.073678374541462907,0.00085460811747884997,217.54366302388976,-4.2814909673983976,-1.2136509282191921,50.634342895877886,-0.97255554600886907,-1.3984880316460024,-44.40624955351759,0.73116697116081097,-0.012802141825667602,23.620450803554721,-0.40222822705888822,-9.9397914680358745e-06,-1.0471975511172404,6.0419535918485041e-07,0.34906584814263092,1.5707963300281707,1.4243468624648e-05,-7.6506634999463467e-24,0,-1.9198621771937625,0,-3.2594838945375786e-23,0,-1,-1,0,0,0,0
0.0015454971779054363,-0.034987876629019012,6.0940285046280934e-05,0.22383429632025889,52.443524342756213,-0.93971261193352151,-5.1561960095477151,0.27428438868446697,0.42110297063128543,170.04571667237451,-3.2776165951164513,-7.7362259328128715,0.073678374541462907,0.00085460811747884997,217.54366302388976,-4.2814909673983976,-1.2136509282191921,50.634342895877886,-0.97255554600886907,-1.3984880316460024,-44.40624955351759,0.73116697116081097,-0.012802141825667602,23.620450803554721,-0.40222822705888822,-9.9397914680358745e-06,-1.0471975511172404,6.0419535918485041e-07,0.34906584814263092,1.5707963300281707,1.4243468624648e-05,-7.6506634999463467e-24,0,-1.9198621771937625,0,-3.2594838945375786e-23,0,-1,-1,0,0,0,0
0.0015455190735169471,-0.034988805716354023,6.0945186164307243e-05,0.22384587072309481,52.444104691105402,-0.93972565093062188,-5.1561967645662383,0.27428439790498077,0.42112148913597386,170.04653225001314,-3.2776341287501838,-7.7362263829607842,0.073678374560175772,0.00085467017113612163,217.54416774611721,-4.2815009939104556,-1.2136512914328441,50.634647552720295,-0.97256158707271911,-1.3984866110770526,-44.40744110027903,0.73119059843275802,-0.012802505039319553,23.62073405714407,-0.40223436749624075,-9.9405121561283437e-06,-1.0471975511172271,6.0426810645438819e-07,0.34906584814241326,1.5707963300284826,1.4244501185601998e-05,-7.6506634999463467e-24,0,-1.9198621771937625,0,-3.2594832117835802e-23,0,-1,-1,0,0,0,0
0.0015455190735169471,-0.034988805716354023,6.0945186164307243e-05,0.22384587072309481,52.444104691105402,-0.93972565093062188,-5.1561967645662383,0.27428439790498077,0.42112148913597386,170.04653225001314,-3.2776341287501838,-7.7362263829607842,0.073678374560175772,0.00085467017113612163,217.54416774611721,-4.2815009939104556,-1.2136512914328441,50.634647552720295,-0.97256158707271911,-1.3984866110770526,-44.40744110027903,0.73119059843275802,-0.012802505039319553,23.62073405714407,-0.40223436749624075,-9.9405121561283437e-06,-1.0471975511172271,6.0426810645438819e-07,0.34906584814241326,1.5707963300284826,1.4244501185601998e-05,-7.6506634999463467e-24,0,-1.9198621771937625,0,-3.2594832117835802e-23,0,-1,-1,-1,0,0,0
0.0016000000000000001,-0.037329783474991392,7.3939726937324529e-05,0.25340893610941551,53.866791628959142,-0.97162639947212082,-5.1581174988892995,0.27430861570524934,0.46821439729480968,172.05302174809702,-3.3206899022444065,-7.7373731461921347,0.073678437171199027,0.0016257932805657286,218.80061649235449,-4.3064776025409879,-1.2145710423394942,51.393367044628249,-0.98761604146766768,-1.3948893630865991,-47.374877335296887,0.79007024228855849,-0.013722255945969489,24.324449896359798,-0.41739156579885306,-1.1843101842121099e-05,-1.0471975510789981,8.0509337655192967e-07,0.34906584754990067,1.5707963308775028,1.6968910826662334e-05,-7.7081927894545989e-24,0,-1.9198621771937625,0,-3.2581802856615733e-23,0,-1,-1,-1,0,0,0
0.001962649189388742,-0.054300545738215383,0.0002061974114043907,0.48579732592956354,62.4384291314175,-1.1605103370274286,-5.1729092795098435,0.2745415677786327,0.8299617113154053,184.32067017220655,-3.5818056962353539,-7.7462827291450838,0.073683980371762173,0.037847774748775063,226.77511071583882,-4.469990698461169,-1.221508895962804,56.463706550155976,-1.088598223100915,-1.3677546466932102,-67.205538512472529,1.1850227748986031,-0.020660109569279047,29.294768203963926,-0.51640172100287229,-3.0423167651919769e-05,-1.0471975503789259,3.5183738988558231e-06,0.34906584020612302,1.5707963413303874,4.2908071143859389e-05,-7.5892943984936745e-24,0,-1.9198621771937625,0,-3.7645778129829081e-23,0,-1,-1,-1,0,0,0
0.001962649189388742,-0.054300545738215383,0.0002061974114043907,0.48579732592956354,62.4384291314175,-1.1605103370274286,-5.1729092795098435,0.2745415677786327,0.8299617113154053,184.32067017220655,-3.5818056962353539,-7.7462827291450838,0.073683980371762173,0.037847774748775063,226.77511071583882,-4.469990698461169,-1.221508895962804,56.463706550155976,-1.088598223100915,-1.3677546466932102,-67.205538512472529,1.1850227748986031,-0.020660109569279047,29.294768203963926,-0.51640172100287229,-3.0423167651919769e-05,-1.0471975503789259,3.5183738988558231e-06,0.34906584020612302,1.5707963413303874,4.2908071143859389e-05,-7.5892943984936745e-24,0,-1.9198621771937625,0,-3.7645778129829081e-23,0,-1,-1,-1,0,0,0
0.0019626492282375139,-0.054300547676682895,0.00020619743027705924,0.4857973538334841,62.438429979040734,-1.1605103554294678,-5.1729092812689643,0.27454156781087574,0.82996175298581187,184.32067138903724,-3.5818057220605701,-7.7462827302105994,0.073683980373232524,0.037847780748868617,226.77511150669454,-4.4699907152164142,-1.2215088967820322,56.46370709477214,-1.0885982339648528,-1.3677546434891175,-67.205540642525278,1.1850228173886699,-0.02066011038850734,29.294768766110472,-0.51640173179104654,-3.0423176322513658e-05,-1.0471975503789259,3.5183746409990131e-06,0.3490658402061218,1.5707963413303891,4.290806301491979e-05,-7.5892943984936745e-24,0,-1.9198621771937625,1.0000252607650861e-10,-3.7645778129829081e-23,0,-1,-1,-1,0,0,0
0.0019626492282375139,-0.054300547676682895,0.00020619743027705924,0.4857973538334841,62.438429979040734,-1.1605103554294678,-5.1729092812689643,0.27454156781087574,0.82996175298581187,184.32067138903724,-3.5818057220605701,-7.7462827302105994,0.073683980373232524,0.037847780748868617,226.77511150669454,-4.4699907152164142,-1.2215088967820322,56.46370709477214,-1.0885982339648528,-1.3677546434891175,-67.205540642525278,1.1850228173886699,-0.02066011038850734,29.294768766110472,-0.51640173179104654,-3.0423176322513658e-05,-1.0471975503789259,3.5183746409990131e-06,0.3490658402061218,1.5707963413303891,4.290806301491979e-05,-7.5892943984936745e-24,0,-1.9198621771937625,1.0000252607650861e-10,-3.7645778129829081e-23,0,-1,-1,-1,0,1,0
0.002,-0.056175408663389888,0.0002248472042690449,0.51290148240575528,63.24720010769731,-1.1780488647330749,-5.174616732937408,0.27457332037788817,0.8703594399186434,185.48120406128888,-3.606435707127599,-7.7473174333999433,0.073685505042547672,0.04385298221624695,227.52797468746397,-4.4859820503280643,-1.2223040670694232,56.987490238344051,-1.0990467490936062,-1.364647583794065,-69.233358849421236,1.2258506085224186,-0.021455280675897928,29.836301296358023,-0.52680597734667334,-3.9082565554751213e-05,-1.0471975502337336,4.2645075371509439e-06,0.34906583890961601,1.5707963427810396,3.4658186717337188e-05,-7.5879106637535229e-24,0,-1.9198621753380507,0.00010047005597781009,-3.7738681384107076e-23,0,-1,-1,-1,0,1,0
0.0024000000000000002,-0.077556302078966577,0.00049259192292792854,0.8351394491602453,71.186317907187657,-1.34876986338677,-5.1947921390797553,0.27501348636974859,1.3418154718710158,196.78048661460537,-3.8462707174695812,-7.7595975708336189,0.073719794367492139,0.13555950095904096,234.70209322915261,-4.6406081861128312,-1.2317649189774151,62.623043559419372,-1.2114193927849888,-1.3281667395345047,-88.63622181582852,1.6352809244856306,-0.0309161325838898,35.567012377590565,-0.64028903961986539,-0.00017145656418792089,-1.0471975463062524,1.6864862912020254e-05,0.34906579917441638,1.570796331540298,-0.00010661387446083322,-7.7224931675759463e-24,0,-1.9198618462718922,0.0017004277760381903,-3.6648298364636863e-23,0,-1,-1,-1,0,1,0
0.0028,-0.10101992435277271,0.00089961319926869698,1.2073329733762306,77.932379412736793,-1.4929189115268924,-5.2179843557452994,0.27565492772260836,1.874475941314482,206.2390339393815,-4.0465055693753422,-7.7737905044179767,0.073799574906564233,0.26949586198739645,240.60933864460605,-4.7671756715474425,-1.2429570194574402,68.313928530652916,-1.3248350370057991,-1.2862129723138362,-105.85727272933164,1.9924466938152277,-0.042108233063914965,41.249899721497776,-0.7536945753273806,-0.00037166744736214598,-1.0471975353586886,3.9860901614142369e-05,0.34906569271832777,1.5707962456288027,-0.00033718901454715948,-7.6958588914695422e-24,0,-1.9198606990642184,0.0041724611391334675,-3.5574215344325332e-23,0,-1,-1,-1,0,1,0
0.0032000000000000002,-0.12620531664782769,0.0014636404103741964,1.618436290633114,83.68501326867424,-1.6150378461646169,-5.2436513616344449,0.27651951692248816,2.4555848905071977,214.19849414467117,-4.2139230991872259,-7.789561005155953,0.073939706115597553,0.43586158083430304,245.6265566779804,-4.873308696258893,-1.2558837900174571,74.059320779385459,-1.4393486293033204,-1.2393004549082667,-121.89218564662545,2.3220560185466557,-0.055035003623931607,47.041177465871584,-0.86857188294025311,-0.00063541593167098674,-1.0471975125964181,7.6528736764453547e-05,0.34906549337233694,1.5707960505056924,-0.00065249715213795407,-7.6572588626727877e-24,0,-1.9198584026354344,0.0074376402399463143,-5.4673233556092849e-23,0,-1,-1,-1,0,1,0
0.0036000000000000003,-0.15283096374968641,0.0021982508545061608,2.0587535835100415,88.672604368610351,-1.7196410481675064,-5.2713498763230211,0.27762442125658426,3.074454511191393,220.9394377276449,-4.3546586327225043,-7.8066444709031737,0.07415153096063079,0.62676669875954094,249.93568405920789,-4.9637828171074174,-1.2705486520974567,79.858649774217142,-1.5549422738657568,-1.1879062050524449,-136.58054512925219,2.6252613385051538,-0.069699865703931163,52.860653406549311,-0.98443027989932885,-0.00095973234811488287,-1.0471974718198145,0.00013057393915505904,0.34906517630763551,1.5707957123803349,-0.0010521941743856357,-7.7016983707355474e-24,0,-1.9198546499987899,0.011444838117834418,-5.7360754545388634e-23,0,-1,-1,-1,0,1,0
0.0040000000000000001,-0.18068343143732718,0.0031134315212118162,2.5200263507986369,93.096386541673411,-1.8110498303927536,-5.3007181548638735,0.27898295384687138,3.722425594999752,226.68610695714307,-4.4736363108673194,-7.8248336718436047,0.074443500295720347,0.83556097470495716,253.68770788860158,-5.0418445638547169,-1.2869550271374559,85.712222978097557,-1.6716191510626275,-1.1324755479054545,-150.0123121862797,2.9025303571801735,-0.086106240743930459,58.745709179212753,-1.1013814161133118,-0.0013413396009115599,-1.0471974052927813,0.00020595930693154788,0.3490647179483834,1.5707951974665799,-0.0015365538744149582,-7.6902180298959745e-24,0,-1.9198491547689354,0.016142179793559971,-5.1989803279059416e-23,0,-1,-1,-1,0,1,0
0.00436114061982063,-0.20675282841313708,0.0041006443334339806,2.9486840894476192,96.741421239415985,-1.8852573464964308,-5.3284219605044596,0.28043588605029107,4.3265324524271467,231.17649945750028,-4.5657504911442253,-7.8420728209339758,0.074780973762756706,1.0347197115722979,256.71222709573402,-5.1040985507890388,-1.3032663451716047,91.043786593004995,-1.777893749905548,-1.0793076248326807,-161.14335019816582,3.1323334155152818,-0.10241755877807894,64.101665061640219,-1.2079172761758046,-0.0017324190532426091,-1.0471973153617655,0.00029580352061731735,0.34906416421130526,1.5707945524116786,-0.0020475237969467372,-7.6870039547138681e-24,0,-1.9198424748027052,0.02093598638476268,-5.3616235245679074e-23,0,-1,-1,-1,0,1,0
0.00436114061982063,-0.20675282841313708,0.0041006443334339806,2.9486840894476192,96.741421239415985,-1.8852573464964308,-5.3284219605044596,0.28043588605029107,4.3265324524271467,231.17649945750028,-4.5657504911442253,-7.8420728209339758,0.074780973762756706,1.0347197115722979,256.71222709573402,-5.1040985507890388,-1.3032663451716047,91.043786593004995,-1.777893749905548,-1.0793076248326807,-161.14335019816582,3.1323334155152818,-0.10241755877807894,64.101665061640219,-1.2079172761758046,-0.0017324190532426091,-1.0471973153617655,0.00029580352061731735,0.34906416421130526,1.5707945524116786,-0.0020475237969467372,-7.6870039547138681e-24,0,-1.9198424748027052,0.02093598638476268,-5.3616235245679074e-23,0,-1,-1,-1,0,1,0
0.0043611407158515155,-0.20675283545329368,0.0041006446165990744,2.9486842035148317,96.741422174296588,-1.8852573653932605,-5.328421968003739,0.28043588646577228,4.3265326151304837,231.17650057478033,-4.5657505139524543,-7.8420728256122416,0.07478097386212193,1.0347197658279856,256.71222786254737,-5.1040985664867327,-1.303266349698283,91.043788016607451,-1.7778937782827844,-1.0793076103279617,-161.14335303726736,3.1323334741446227,-0.102417563304758,64.101666491727869,-1.2079173046170468,-0.0017324191625174381,-1.0471973153617371,0.00029580355738320196,0.34906416421113889,1.5707945524114819,-0.0020475239372736132,3.0670321869721699e-19,1.0000227021481844e-10,-1.9198424748006948,0.020935987721190537,-5.3616235245679074e-23,0,-1,-1,-1,0,1,0
0.0043611407158515155,-0.20675283545329368,0.0041006446165990744,2.9486842035148317,96.741422174296588,-1.8852573653932605,-5.328421968003739,0.28043588646577228,4.3265326151304837,231.17650057478033,-4.5657505139524543,-7.8420728256122416,0.07478097386212193,1.0347197658279856,256.71222786254737,-5.1040985664867327,-1.303266349698283,91.043788016607451,-1.7778937782827844,-1.0793076103279617,-161.14335303726736,3.1323334741446227,-0.102417563304758,64.101666491727869,-1.2079173046170468,-0.0017324191625174381,-1.0471973153617371,0.00029580355738320196,0.34906416421113889,1.5707945524114819,-0.0020475239372736132,3.0670321869721699e-19,1.0000227021481844e-10,-1.9198424748006948,0.020935987721190537,-5.3616235245679074e-23,0,-1,-1,-1,1,1,0
0.0044000000000000003,-0.20960620802021959,0.0042161256052335935,2.9948693596436189,97.118433331023752,-1.8928721594568503,-5.3314619911718779,0.28060529279747387,4.3924497950158417,231.62550880001308,-4.574911734317479,-7.8439698303490539,0.074821609486948493,1.0567142306707151,257.02106664975565,-5.1104172341602769,-1.3051047455128697,91.608886261395057,-1.7893606837557245,-1.0734227901272613,-162.28750481760682,3.1559533293917492,-0.10425755025286752,64.680631989424072,-1.219431234973881,-0.0017768746612780754,-1.0471973035742235,0.00031093649387373856,0.3490640960279533,1.5707944717376889,-0.002104662588551777,8.0354418610992297e-10,4.1648833391859271e-05,-1.9198416506952245,0.021479553588273942,-5.3611493057750333e-23,0,-1,-1,-1,1,1,0
0.0046674555264893426,-0.22948628041390925,0.0050597469997383142,3.3139156960664553,99.650831061194154,-1.9437208074968888,-5.3526656369920884,0.28184113044782955,4.8500721187317355,234.55637697489027,-4.634457085131098,-7.8572331294692281,0.075124661915822177,1.2099677292020214,259.07427909335797,-5.1522327086846191,-1.3181066549454798,94.953615906883428,-1.8627522092791253,-1.0321057500826483,-169.90963917437918,3.3131123258677557,-0.11736934549918926,68.680247491247414,-1.2989595344146656,-0.0020955294665325665,-1.0471972051540837,0.00042904733945092001,0.34906357866340276,1.5707938543908153,-0.0025174338909159945,5.627353686116815e-08,0.00039059641197881364,-1.9198353914025064,0.025368821727093354,-5.3626293879168159e-23,0,-1,-1,-1,1,1,0
0.0046674555264893426,-0.22948628041390925,0.0050597469997383142,3.3139156960664553,99.650831061194154,-1.9437208074968888,-5.3526656369920884,0.28184113044782955,4.8500721187317355,234.55637697489027,-4.634457085131098,-7.8572331294692281,0.075124661915822177,1.2099677292020214,259.07427909335797,-5.1522327086846191,-1.3181066549454798,94.953615906883428,-1.8627522092791253,-1.0321057500826483,-169.90963917437918,3.3131123258677557,-0.11736934549918926,68.680247491247414,-1.2989595344146656,-0.0020955294665325665,-1.0471972051540837,0.00042904733945092001,0.34906357866340276,1.5707938543908153,-0.0025174338909159945,5.627353686116815e-08,0.00039059641197881364,-1.9198353914025064,0.025368821727093354,-5.3626293879168159e-23,0,-1,-1,-1,1,1,0
0.0046674555360128323,-0.22948628112914149,0.0050597470312983934,3.3139157076181758,99.650831149657179,-1.9437208092640421,-5.3526656377554129,0.28184113049401921,4.8500721353950809,234.55637707456128,-4.634457087148137,-7.8572331299477547,0.075124661927345321,1.2099677346327895,259.07427916441407,-5.1522327101258245,-1.3181066554189196,94.953616012727295,-1.8627522116547468,-1.0321057485868605,-169.90963943792008,3.3131123313010744,-0.11736934597999898,68.680247634101661,-1.2989595372553615,-0.0020955294770489998,-1.0471972051540797,0.00042904734252742998,0.34906357866338278,1.5707938543907913,-0.0025174339074949315,5.6273540581087595e-08,0.00039059643553158817,-1.9198353914022648,0.025368821881029562,3.3407816189450965e-19,1.0000000023746129e-10,-1,-1,-1,1,1,0
0.0046674555360128323,-0.22948628112914149,0.0050597470312983934,3.3139157076181758,99.650831149657179,-1.9437208092640421,-5.3526656377554129,0.28184113049401921,4.8500721353950809,234.55637707456128,-4.634457087148137,-7.8572331299477547,0.075124661927345321,1.2099677346327895,259.07427916441407,-5.1522327101258245,-1.3181066554189196,94.953616012727295,-1.8627522116547468,-1.0321057485868605,-169.90963943792008,3.3131123313010744,-0.11736934597999898,68.680247634101661,-1.2989595372553615,-0.0020955294770489998,-1.0471972051540797,0.00042904734252742998,0.34906357866338278,1.5707938543907913,-0.0025174339074949315,5.6273540581087595e-08,0.00039059643553158817,-1.9198353914022648,0.025368821881029562,3.3407816189450965e-19,1.0000000023746129e-10,-1,-1,-1,1,1,1
0.0048000000000000004,-0.23949007709378742,0.0055096522786218542,3.4748894479882653,100.87224762947879,-1.9680599885263472,-5.3633431782946372,0.28249938729927709,5.0828139024087768,235.91355111840201,-4.6618681953202934,-7.8639346953149794,0.075290055884825652,1.2857810708851867,260.05074613165505,-5.1719987491309061,-1.3247473849702864,96.25812633398597,-1.8937199628395855,-1.0111412522914818,-173.41181209041827,3.3870729141935967,-0.123969443164753,67.677268439772959,-1.3290438028686187,-0.0022438620166788719,-1.0471971453576701,0.00047394835212255325,0.3490632911264438,1.5707935052046276,-0.0027531841065883823,1.3052787138368035e-07,0.00073525859125945527,-1.9198318852869167,0.027547897546583596,9.481427091579817e-08,0.001448038205974661,-1,-1,-1,1,1,1
0.0052000000000000006,-0.27026509378955149,0.0069968764681779165,3.9609764035986812,104.46936271160112,-2.0390654569143263,-5.3961702451737468,0.28467416393030809,5.792481070015369,239.67983534477759,-4.7373173705592411,-7.8846436294950575,0.075850481277662002,1.5168360387844064,262.87092093098789,-5.2286448598142279,-1.3453617695873781,99.165380266763307,-1.9620943964799447,-0.94620053014090355,-182.60861752939903,3.5835988592016639,-0.14269016066281273,54.605788416841349,-1.2012419540652532,-0.0027217585042134604,-1.0471969237984633,0.00064392005863560719,0.34906229970916619,1.5707922534691208,-0.003517490618736943,6.5358818577244111e-07,0.0018989585517622184,-1.9198194953772079,0.034475124098087645,1.573605712332754e-06,0.0058577526506243599,-1,-1,-1,1,1,1
0.0055999999999999999,-0.3018937271391533,0.0086779640753203938,4.4436926011831996,108.00291214979804,-2.1079384803043832,-5.4297901989881003,0.28713424038327978,6.5088889505342538,243.03208610990916,-4.8036012607946361,-7.9060393801494468,0.076503723206817642,1.749323656090312,265.55905365888003,-5.2820429689025552,-1.366767361738606,102.0209737684886,-2.0193543415531159,-0.8789596538315283,-191.09406258866952,3.7573790509438965,-0.15989962026470766,55.381470451982175,-1.1232591577870428,-0.003249333526834161,-1.047196621833596,0.00087560022587210144,0.34906110696651393,1.5707906816678368,-0.0043546348244231639,1.6619877782531454e-06,0.0031650503516443673,-1.9198042513676237,0.041817634601885825,4.6974814177343616e-06,0.0097301630638532317,-1,-1,-1,1,1,1
0.0060000000000000001,-0.3343650841421586,0.010551032479811012,4.9203578224316677,111.54935563572853,-2.1763738280834479,-5.4640819839297219,0.28988191367722072,7.2299692173670973,246.05898593057734,-4.86265147846398,-7.928087367923216,0.077249707604980566,1.9801267407602638,268.17933874639766,-5.3335896243836913,-1.3888667250141176,104.63384925115587,-2.0737552878342926,-0.8096859244083392,-198.87154009950001,3.9178755776894594,-0.17581485395797275,50.143081306795949,-1.0595189454058032,-0.003819073965214899,-1.0471962155994912,0.0011659801142980604,0.34905969470793896,1.5707887587169,-0.005273888304454649,3.2056476613169299e-06,0.004575654732303017,-1.9197859819369079,0.049598796731796527,9.3554136193040338e-06,0.013529979878142594,-1,-1,-1,1,1,1
0.0064000000000000003,-0.36768982949311863,0.012613015192774107,5.3878254989520631,115.17078795482378,-2.2457550898366621,-5.4989508878786193,0.29291840144261955,7.9525350968525181,248.83402141307522,-4.9160655132007447,-7.9507714008657047,0.078087318949615875,2.2071288075235933,270.78395065598443,-5.3844283260565211,-1.4115544517961198,106.90761630502388,-2.1213364543594726,-0.73863954735486648,-205.88177491129949,4.0627836295434374,-0.19056446286726997,48.159666468206922,-0.99075015776667441,-0.004431807745557079,-1.0471956802244311,0.0015220773623882376,0.34905804592698686,1.5707864515414649,-0.0062761365614073337,5.3384058922572517e-06,0.0061083234522996384,-1.9197645205867031,0.057771418064739379,1.5481162480008651e-05,0.017057764669837182,-1,-1,-1,1,1,1
0.0068000000000000005,-0.40189589250266056,0.014859784954391242,5.8439731888087705,118.91717069677699,-2.31720091957951,-5.5343239566528073,0.29624388870983698,8.674676924804503,251.41802545021184,-4.9651664558980526,-7.9740900473358307,0.079014646560657528,2.4284241911871689,273.41480982039639,-5.4354818827296043,-1.4347344695088218,108.90352388072019,-2.1631866600151475,-0.66605986468960521,-212.20658364291546,4.1935908447414461,-0.20433152621639628,45.622117214597019,-0.9443920118380339,-0.0050847929381265863,-1.0471949889381758,0.0019459042228471839,0.34905614392074269,1.5707837261305011,-0.0073657617768644089,8.1092851399617195e-06,0.0077669375952915693,-1.9197397143069073,0.06632115920291326,2.2981157932475226e-05,0.020416901115708895,-1,-1,-1,1,1,1
0.0072000000000000007,-0.43702482393280667,0.017286427706738296,6.2868988891965563,122.82817839344997,-2.3916054724279467,-5.5701461882905203,0.2998578354809413,9.394539799374682,253.86129051734613,-5.0110485714669855,-7.998053554344688,0.080029104972499057,2.6425752135598763,276.10516287240091,-5.4874863157808749,-1.4583096326143674,110.60976588342187,-2.1992208558998301,-0.59217586688531765,-217.86824180853108,4.3108600091087865,-0.21724668881604872,43.718902936791814,-0.89737983216013606,-0.0057771091646968611,-1.0471941139317795,0.0024413919993844951,0.34905397283883832,1.5707805469529716,-0.0085453029738053431,1.1567750583227017e-05,0.0095446277657652775,-1.9197114169226528,0.075222199623250594,3.1788462128312872e-05,0.023586038437380205,-1,-1,-1,1,1,1
0.0076,-0.4731287098572251,0.019887344663028956,6.7151353940515381,126.93474228823516,-2.469672306232837,-5.6063773692538561,0.30375902342633704,10.110675799504396,256.2053428969279,-5.0546158622774406,-8.0226812410432373,0.081127600060422023,2.8484373530799103,278.88091038284409,-5.5410192987863098,-1.4821882115486793,112.04245906913893,-2.2296971511383692,-0.51720094609274581,-222.91026601936289,4.415434140491044,-0.22945851704656872,42.268679191009106,-0.8640872042997263,-0.006507631016527138,-1.0471930258487012,0.0030117340200608465,0.349051517144706,1.5707768775373117,-0.0098174300934636225,1.5760436273484558e-05,0.011437956295865175,-1.9196794923882541,0.084454204984413375,4.1827232153492825e-05,0.026581978384193818,-1,-1,-1,1,1,1
0.0080000000000000002,-0.51026755976442273,0.022656421294381029,7.1275214698025611,131.26037008373558,-2.5519430443884166,-5.642989445741013,0.30794571548717375,10.821865114036616,258.48442653661715,-5.0966141462009089,-8.0479993002773185,0.082306633594983469,3.0451474965487106,281.76173995544798,-5.5965245780989248,-1.5062801880257146,113.20302170276798,-2.2546907227266919,-0.44133721425609029,-227.35997276719235,4.5079202899525512,-0.24109458864160599,41.082440627515339,-0.83566267521961335,-0.0072755847844774768,-1.0471916941417827,0.0036600817716773166,0.34904876174327715,1.5707726803687896,-0.011184351292049172,2.073301961229378e-05,0.013443119899826585,-1.9196438120440562,0.093997674148277505,5.3032365640963514e-05,0.029415945006703012,-1,-1,-1,1,1,1
0.0084000000000000012,-0.54850710297166194,0.025587127194138561,7.5231553547578285,135.82228855589989,-2.6388221068622979,-5.6799643402057098,0.31241571626144959,11.527065031470855,260.72673254913133,-5.1376578351510922,-8.0740389502521221,0.083562414273062588,3.2320860064920192,284.7621061340547,-5.6543328553592218,-1.5304991853322156,114.10204512172071,-2.2743732895039561,-0.36477444204516485,-231.25146536693717,4.5889780192993017,-0.25228227939609704,40.358222016472432,-0.81612099422902307,-0.0080805488529986091,-1.0471900869686503,0.0043895339009400467,0.34904569174337585,1.5707679171899562,-0.012647755444623963,2.6529249362647321e-05,0.015555670254237472,-1.919604255270853,0.10383352402570638,6.5338991839924187e-05,0.03209246887154811,-1,-1,-1,1,1,1
0.0088000000000000005,-0.58791693396892308,0.02867262293297405,7.9013755216092854,140.63242107137918,-2.7305979442794097,-5.7172921365077052,0.31716645181344155,12.225400500117823,262.95541729492078,-5.1782520405840451,-8.1008348893488566,0.084890942585549828,3.4088318944658891,287.89207984363543,-5.7146799686795742,-1.5547616117707701,114.74532259183461,-2.2888874900789014,-0.28769155931607121,-234.61241139926665,4.659200729400907,-0.26314000917553604,39.914861138290803,-0.80313619171857675,-0.0089222961082206891,-1.0471881713218025,0.0052029305810305298,0.3490422924013345,1.5707625491205031,-0.014208970431258473,3.3191381757968561e-05,0.017771891912564813,-1.9195607085274173,0.11394461078088386,7.8686888738771797e-05,0.034622859082552811,-1,-1,-1,1,1,1
0.0091999999999999998,-0.62856895698239557,0.03190584157329196,8.2617062046567185,145.69822574581582,-2.8274612360081051,-5.7549695719912162,0.32219501788434862,12.91609855752831,265.18945066909538,-5.2188109951566997,-8.1284240105702228,0.086288087852736298,3.575143052883504,291.15807606624725,-5.7777224785886929,-1.5789869921824888,115.14093955188878,-2.2983795589981391,-0.21025698671705512,-237.47087935963634,4.7191488999853464,-0.27378120035371117,39.842682123274784,-0.79719500953216327,-0.0098009384577131698,-1.0471859130614565,0.0061030394295237917,0.34903854898801229,1.5707565368653065,-0.01586878459077791,4.0760016128356174e-05,0.02008753246288077,-1.9195130651273291,0.12431416303228077,9.3018475687971702e-05,0.037012404302226201,-1,-1,-1,1,1,1
0.0096000000000000009,-0.67053608649013097,0.035279561385399887,8.6038424918456542,151.02341276638234,-2.929520475170039,-5.7929987839279846,0.3274982220239151,13.598483719177402,267.44431844099239,-5.2596733184400399,-8.1568443400132935,0.087749652311060078,3.730923123366904,294.56348274409936,-5.8435511215609921,-1.603097875277826,115.29622394612443,-2.3030035000184532,-0.13262931805770781,-239.85261221505451,4.7693569537428484,-0.28431355619747889,40.069649912547035,-0.79777535513363851,-0.010716809417695152,-1.047183276987856,0.0070924128765658279,0.34903444668809208,1.5707498408953058,-0.01762756296689803,4.92741450311482e-05,0.022498690107274889,-1.9194612247948497,0.13492674500500959,0.00010827917286888725,0.039269506628897791,-1,-1,-1,1,1,1
0.01,-0.71389116670540909,0.0387864667031734,8.9276163698149844,156.60855910520931,-3.0368153177152561,-5.8313862673001875,0.33307261442321845,14.27194244960296,269.73260617730091,-5.3011146992459057,-8.1861341673026882,0.089271425850259628,3.8762028899148961,298.10920060965344,-5.912202376699077,-1.627019827601335,115.21876387323606,-2.3029078528977078,-0.05495787545319953,-241.78210322243947,4.8103233799166576,-0.29483938430638462,40.611153763540536,-0.80462015435723933,-0.01167051763553471,-1.0471802269060175,0.0081734680611453853,0.3490299704964423,1.570742421634135,-0.019485183336683493,5.8771160467741881e-05,0.025001298247110362,-1.919405093302047,0.14576758300696796,0.00012441723170728708,0.041400310934222286,-1,-1,-1,1,1,1
0.010400000000000001,-0.75870607703317505,0.042419199353093073,9.2329796991063624,162.45163456528155,-3.1493280111780235,-5.8701420079798785,0.33891451070437467,14.935913074120835,272.06448298644807,-5.3433584107698247,-8.2163313400903135,0.09084923235004054,4.0111181020463436,301.79410772169092,-5.983668412841201,-1.6506814480375238,114.9161953898967,-2.2982466645199273,0.022616796513146489,-243.28250501345002,4.8425232636107411,-0.30545606023785271,41.441568535351848,-0.81750960515048143,-0.012662899013031071,-1.0471767256901801,0.009348441050588803,0.34902510511839296,1.5707342396427584,-0.021441085160905898,6.9286849765740494e-05,0.027591403456110861,-1.9193445821450676,0.15682282769348327,0.00014138349554408629,0.043411618431542259,-1,-1,-1,1,1,1
0.010800000000000001,-0.80505098979164946,0.046170402485065529,9.519983656965481,168.54844476327855,-3.2669930171784993,-5.9092787703320413,0.34502000830587021,15.589868702373652,274.44809628175045,-5.3865838880071797,-8.247472695016322,0.092478968698159386,4.1358933422739028,305.61545264160924,-6.0579055142606855,-1.6740143424517628,114.39611999080665,-2.2891717410123715,0.099962456760935875,-244.37565149664792,4.8664030513725436,-0.31625598416873418,42.554167234656362,-0.83614687719996761,-0.013695019744137182,-1.0471727353489322,0.010619407621253968,0.34901983487664212,1.5707252557966833,-0.023494267605425747,8.0855411291674096e-05,0.030265039657465211,-1.9192796082344352,0.16807935004479937,0.00015913141659350431,0.045309526496713569,-1,-1,-1,1,1,1
0.0112,-0.85299380600799024,0.050032756545412033,9.7887625137945431,174.89304295769909,-3.3897059736112087,-5.9488114635446632,0.35138500139951501,16.233307944063149,276.88993008894738,-5.4309345147405743,-8.2795936355089914,0.094156635528350782,4.250825082488368,309.56921550888421,-6.134841837184684,-1.696953079152522,113.66621189166308,-2.2758369485463419,0.17695461553349789,-245.08226947070474,4.8823868931141838,-0.32732701313025575,43.934604052859164,-0.86032489373713761,-0.014768149549796841,-1.0471682171021113,0.011988276725998758,0.34901414363034533,1.5707154314494518,-0.025643325562006485,9.3509481096558494e-05,0.033018291458190102,-1.919210093533569,0.17952475140623009,0.00017761683134750723,0.047100094559374354,-1,-1,-1,1,1,1
0.011600000000000001,-0.90259965880508486,0.053999009821895372,10.039520641762945,181.47803214327419,-3.5173302543474061,-5.9887566759732005,0.35800518697117406,16.865746639123671,279.39505643033243,-5.4765230881348206,-8.3127277823635524,0.09587836421309491,4.3562695300741181,313.65037945507623,-6.2143832257315204,-1.7194351906281526,112.73409809409944,-2.2583952520171104,0.25347619844844221,-245.4219379982554,4.890875340104075,-0.33875245773165646,45.572035919568656,-0.88977651099619781,-0.015883751136897897,-1.0471631314369922,0.013456794988229734,0.34900801469225096,1.5707047285934344,-0.027886466201005388,0.00010728013434300538,0.035847272752272848,-1.9191359648388226,0.19114729688588442,0.00019679795856427753,0.048789074902624241,-1,-1,-1,1,1,1
0.012,-0.9539304884984755,0.058062005542887554,10.2725212479469,188.29483973275393,-3.6497029354407329,-6.029132261498642,0.36487606846673915,17.48671224536492,281.96735679087368,-5.5234366341851935,-8.3469066925816655,0.097640440410056317,4.4526309631977981,317.8531772905049,-6.2964185018840206,-1.7414011887171803,111.60744056739821,-2.2370001701623643,0.32941722598745932,-245.41323600716836,4.892248171781536,-0.35061128170162115,47.455664370550501,-0.92430028890791804,-0.017043462930846076,-1.0471574381663988,0.015026545939053561,0.34900143074679335,1.5706931100207591,-0.030221535117474607,0.0001221968801420505,0.038748140626271521,-1.9190571535691272,0.20293589086111999,0.00021663529467080034,0.050382031642390669,-1,-1,-1,1,1,1
0.012400000000000001,-1.0070447705203178,0.062214702803695572,10.488075228424309,195.33397825974993,-3.7866404754686087,-6.0699569652207934,0.37199296171522717,18.095739458077599,284.60973112012761,-5.5717409496426935,-8.3821596984468627,0.099439319835587764,4.5403504300924711,322.17131880585583,-6.380824364871386,-1.7627944981769608,110.29384756959017,-2.2118045454366162,0.40467434635463317,-245.07374699544721,4.8868650520369643,-0.36297824349777169,49.573918022341502,-0.96365686834210462,-0.018249078501662533,-1.04715109650246,0.016698955293567908,0.3489943737887547,1.5706805394564556,-0.032646052025583093,0.00013828769894910496,0.041717099425824883,-1.9189735954603375,0.21488003099363873,0.00023709153675336117,0.051884352773268624,-1,-1,-1,1,1,1
0.012800000000000001,-1.0619972910246145,0.06645019379168568,10.686532592648298,202.5852449361029,-3.9279430588209183,-6.1112501382918314,0.37935099682343487,18.692367518075681,287.32425074395371,-5.6214839261604004,-8.4185137937692698,0.10127164120124821,4.6198968162821972,326.59816640859981,-6.4674691743004979,-1.7835614334663916,108.80091986686661,-2.1829608163835319,0.47915050250685826,-244.42016876616151,4.8750671557622001,-0.37592406327400424,51.917282716208071,-1.0076434351727586,-0.019502529008580509,-1.0471440651172161,0.018475295190591937,0.34898682506404632,1.5706669816830741,-0.035157241866439592,0.00015557905721511967,0.044750399595530822,-1.9188852303469086,0.22696976855456191,0.00025813149407593819,0.0533012117776984,-1,-1,-1,1,1,1
0.0132,-1.1188391566373952,0.070761711168333102,10.868273872916284,210.0379154748025,-4.0733988481958914,-6.1530314831094755,0.38694512776084439,19.276138768629142,290.11231656254529,-5.6726989843175248,-8.4559936792708772,0.10313422703763676,4.6917580453661154,331.12689165615149,-6.5562163660593225,-1.8036510382416426,107.13620905324211,-2.1506207704735485,0.55275434624793984,-243.46837226562221,4.8571789556184104,-0.38951570782443484,54.474651704069082,-1.0560496997961599,-0.020805858871723197,-1.0471363022232494,0.020356693760426585,0.34897876505487124,1.5706524025979269,-0.037752080120351875,0.00017409599365300209,0.047844346152050923,-1.918792001779082,0.23919566205702444,0.00027972193709927543,0.05463765770025563,-1,-1,-1,1,1,1
0.013600000000000001,-1.1776174092368457,0.075142649558914448,11.03370618436972,217.6808458946754,-4.2227861543430674,-6.1953208838659739,0.39477012012896268,19.846598112180779,292.97471192815874,-5.7254062303037285,-8.4946215714066255,0.10502410381437481,4.7564358252996932,335.75058201078383,-6.6469267021861729,-1.8230152554737689,105.3072133131062,-2.1149350790130965,0.62540037300402374,-242.23339494045317,4.8335077300138263,-0.40381622301449321,57.236405790003104,-1.1086676864664728,-0.022161217446580731,-1.0471277655951143,0.022344129595785415,0.34897017338038594,1.570636769390118,-0.04042730567210872,0.00019386203240707019,0.050995299334870806,-1.9186938571092191,0.25154877900057587,0.00030183168322651997,0.055898542652559655,-1,-1,-1,1,1,1
0.014,-1.238375096697514,0.079586569484286385,11.183256322448546,225.5026242469867,-4.3758767714214857,-6.2381382121363149,0.40282055914992621,20.40329303586654,295.91172332151905,-5.7796150743950614,-8.5344173081174119,0.10693849891385403,4.8144384107557965,340.46235898915677,-6.739460864888029,-1.8416087798475884,103.32138088762962,-2.0760534223731146,0.6970083947123723,-240.72953149623896,4.8043454844638536,-0.41888501713651527,60.193178267836039,-1.1653070586955907,-0.023570835100329507,-1.0471184126462367,0.024438441743464639,0.34896102878876661,1.570620050583919,-0.043179466640542875,0.00021489926254456327,0.054199678774048417,-1.9185907471472321,0.26402065049804879,0.00032443144709599518,0.057088566693653593,-1,-1,-1,1,1,1
0.014400000000000001,-1.3011512900888711,0.08408720207750775,11.317366009739981,233.49167591056909,-4.5324382844812883,-6.2815031873165355,0.41109085296307613,20.945774296719303,298.9232180843868,-5.8353259182832486,-8.5753984232187719,0.10887483972629249,4.8662752931075826,345.2554614948333,-6.8336812815595751,-1.8593889827462147,101.18608629479627,-2.034124193882751,0.76750320955088436,-238.97036888412572,4.7699698529901777,-0.43477800349223328,63.335027776317929,-1.2257736931774921,-0.025037004530888703,-1.0471082004862453,0.026640335857978138,0.34895130913984235,1.5706022160899016,-0.046004956080494236,0.00023722837923325179,0.057453967113275842,-1.9184826259443568,0.27660324251052837,0.00034749376423887703,0.058212299806942404,-1,-1,-1,1,1,1
0.014800000000000001,-1.3659808444939672,0.088638464640687128,11.436488586334045,241.63634571413183,-4.6922358259901733,-6.3254352417512205,0.41957522359701743,21.473597213792907,302.0086829370714,-5.8925309967975545,-8.6175800821542676,0.11083076515418844,4.9124524436104045,350.12332557147693,-6.9294538211502701,-1.8763160262847776,98.908624928304675,-1.9892941664463055,0.8368146329539693,-236.96879167910353,4.7306439985150162,-0.45154750359114498,66.653121283473624,-1.2898786469777601,-0.026562066592397637,-1.0470970859571582,0.028950381903751966,0.3489409913295865,1.570583237345506,-0.048900037314861929,0.00026086862650857428,0.060754713011061029,-1.9183694508117541,0.2892889529104386,0.00037099303957380898,0.059274142534195329,-1,-1,-1,1,1,1
0.0152,-1.432894625632283,0.093234455917702519,11.541084690884567,249.92498494111115,-4.855034013565187,-6.3699534197839407,0.42826771805762132,21.986323162052852,305.16729906413275,-5.9512160027646859,-8.6609752940721645,0.11280411317086805,4.9534679132370956,355.05963789298539,-7.0266490150251633,-1.8923526796358399,96.496213373402469,-1.9417085897630675,0.90487698876946121,-234.7370608655215,4.6866183203400551,-0.46924254054987236,70.138531813461896,-1.3574448649083799,-0.028148388479523292,-1.0470850257021203,0.031369025729846949,0.34893005131951177,1.5705630872897094,-0.051860887413901553,0.00028583789504268661,0.064098533314577474,-1.9182511819881936,0.30207056913261676,0.00039490539272798509,0.060278367053857647,-1,-1,-1,1,1,1
0.015600000000000001,-1.5019195296736307,0.097869459684194915,11.631619439479216,258.34601252754095,-5.0205982878766013,-6.4150762892704902,0.43716220985799648,22.483521402518996,308.39798147244477,-6.0113609406026267,-8.7055950045115882,0.11479291827815319,4.9898082943557265,360.05838023769627,-7.1251430405011957,-1.9074642881009849,93.955969484936915,-1.8915108622097452,0.97162891116493344,-232.28683192431461,4.6381309010851535,-0.48790890550707033,73.782219805955052,-1.4282908206301888,-0.029798347094989616,-1.0470719762126701,0.033896593310348166,0.34891846412305144,1.5705417404012922,-0.05488362923458371,0.00031215274018127072,0.067482115598989895,-1.9181277825098881,0.3149412499203762,0.00041920862146892094,0.06122911747519675,-1,-1,-1,1,1,1
0.016,-1.5730783406090099,0.10253795604907105,11.70855999129029,266.88797375788391,-5.1886961672560847,-6.460821836617165,0.44625239355362067,22.964771601240418,311.69940212414161,-6.0729406309628322,-8.751448114132188,0.1167954163039279,5.0219448769502595,365.11388001718302,-7.2248188070671198,-1.9216188581505484,91.294911085064967,-1.8388423223202341,1.037013342643591,-229.62916728860375,4.5854075894447606,-0.50758909303935695,77.576101142165058,-1.5022448274885514,-0.031514312088571847,-1.0470578938713078,0.036533290102962607,0.34890620375437514,1.5705191727971812,-0.057964362708473299,0.00033982834000193944,0.07090222208036176,-1.9179992182075092,0.32789452172954764,0.00044388223323653912,0.06213038573891623,-1,-1,-1,1,1,1
0.016400000000000001,-1.6463899566412139,0.10723461512224768,11.772373236774799,275.53958245154229,-5.3590982017659146,-6.5072074180431603,0.45553179562541091,23.429665737672405,315.07003051857936,-6.1359255855348147,-8.7985416852089813,0.11881003062193754,5.0503313554393632,370.22082427107892,-7.3255663201202053,-1.9347869097098347,88.5199499289172,-1.7838422765267765,1.1009771626013511,-226.77458673738775,4.5286631789493734,-0.52832251766857485,81.51177504460631,-1.5791412622135699,-0.033298628848298609,-1.0470427350037219,0.039279210237013751,0.34889324326922377,1.570495362178711,-0.061099198955183787,0.00036887857384987853,0.074355691619941003,-1.917865457463563,0.34092424911961672,0.00046890733081553579,0.062986048225664948,-1,-1,-1,1,1,1
0.016800000000000002,-1.7218704072728634,0.11195425037235669,11.823524483766134,284.28970666406519,-5.5315778264945168,-6.5542498717994357,0.46499381950788277,23.877806684665579,318.50820203970733,-6.2002834670598679,-8.8468814910527325,0.12083532075069942,5.0754064673525159,375.3741838003462,-7.4272812335923364,-1.9469408220619653,85.637909510394195,-1.7266483065295071,1.1634700778584199,-223.73321798141652,4.4681044564961665,-0.55014633022129666,85.581021004871587,-1.6588139513586788,-0.035153613063530188,-1.047026455925592,0.04213436767087983,0.34887955500825441,1.5704702874373142,-0.064284279793105012,0.00039931636177219839,0.077839421290940916,-1.9177264704920405,0.35402453783294568,0.0004942661879720336,0.063799885776762294,-1,-1,-1,1,1,1
0.0172,-1.7995315025716492,0.11669188838171388,11.862475814481956,293.1274607950408,-5.7059131418238866,-6.6019652372031965,0.47463168871639411,24.308814751479588,322.01206421972955,-6.2659779511426281,-8.8964714605349258,0.12287004446999659,5.0975856187394246,380.56935741178404,-7.5298677511804284,-1.9580557154738245,82.655482890382558,-1.6673954059910863,1.224445905020574,-220.51462349373375,4.4039266298126982,-0.57309436031090188,89.776002673759706,-1.7411013721483364,-0.03708152801613665,-1.0470090129611977,0.045098659692764227,0.34886511025666234,1.5704439292260679,-0.067515808657020976,0.00043115321074011095,0.081350395586362895,-1.9175822301681604,0.36718984354181472,0.00051994279543248422,0.064575537046709125,-1,-1,-1,1,1,1
0.017600000000000001,-1.8793814629529306,0.12144274198430481,11.889684652856511,302.04221045573371,-5.8818871180334042,-6.6503687932055673,0.48443847625558628,24.722328223710438,325.57962461500722,-6.3329697494758594,-8.9473140666191568,0.12491312370912129,5.1172615003373494,385.80213000180714,-7.6332378511442727,-1.9681090563693515,79.579243666436525,-1.6062161850383201,1.2838618534035033,-217.12790273538027,4.3363154125879451,-0.59719762327831472,94.089184789117397,-1.8258485522778356,-0.039084573222581423,-1.0469903624933206,0.048171886960920764,0.34884987939485712,1.570416269718925,-0.070790077490757511,0.00046439942055918681,0.084885677836918055,-1.9174327115620065,0.38041490996619104,0.00054592259641345151,0.065316520473826953,-1,-1,-1,1,1,1
0.018000000000000002,-1.9614251001564829,0.12620220488835041,11.905602642901178,311.02358933551295,-6.059287986914482,-6.6994750337722655,0.49440711508045815,25.118005136421964,329.20877081664003,-6.4012170378302775,-8.9994104934459553,0.1269636319966401,5.1348031290825977,391.06866569132615,-7.7373111892529751,-1.9770805553702653,76.415641560201749,-1.5432408178878774,1.3416782854704317,-213.58172469989626,4.2654477281076897,-0.62248446016639025,98.513061753012508,-1.9129044861780937,-0.041164872070994056,-1.0469704610018518,0.051353760218629044,0.3488338319429376,1.5703872925432574,-0.074103491350006975,0.00049906413825118396,0.088442410451048087,-1.9172778917818598,0.39369474837517571,0.00057219241238203348,0.066026244815823934,-1,-1,-1,1,1,1
0.0184,-2.045664186035256,0.13096583534266007,11.910675284479565,320.06149142663531,-6.2379091292100854,-6.7492977034302424,0.50453041620046224,25.495523335558943,332.89729207970225,-6.4706759156328211,-9.0527608517544529,0.12902077420344568,5.150556870037085,396.36547362033161,-7.8420144347925431,-1.9849519404445182,73.171007642638145,-1.478597136729052,1.3978583303358771,-209.88438093533554,4.1914927881306951,-0.64898081936348762,103.04025447166202,-2.0021202701165497,-0.043324467661206414,-1.0469492650868191,0.0546439114788696,0.34881693665621699,1.5703569826234922,-0.077452579193978938,0.00053515547612923483,0.092017809187840291,-1.9171177497229848,0.40702460387249284,0.00059874029627634607,0.06670801736701959,-1,-1,-1,1,1,1
0.018800000000000001,-2.1320970505866561,0.1357293813812756,11.905340150527216,329.14612615765691,-6.4175501998314326,-6.7998496459612543,0.51480105643283403,25.854585491832932,336.64287425482979,-6.5413003004584569,-9.1073641184417689,0.1310838993714476,5.1648419262877585,401.68945795135789,-7.9472823142432318,-1.9917072432644269,69.851532008629334,-1.4124101627800583,1.4523682096489103,-206.04374361146947,4.1146112120478557,-0.67670992893751236,107.66369495864502,-2.0933508591292878,-0.04556529897294051,-1.046926731520438,0.058041885075014975,0.34879916143030426,1.5703253263467343,-0.080834034636394422,0.00057268036659017792,0.095609175886448489,-1.916952266276607,0.42039998177533311,0.00062555569940389208,0.067365025572479711,-1,-1,-1,1,1,1
0.019200000000000002,-2.2207187329532161,0.1404887767406435,11.890026155689304,338.26802772619726,-6.5980173484242934,-6.8511427812757733,0.52521158982643035,26.194920938863593,340.44311279665993,-6.613042203291668,-9.1632182841356062,0.13315248847483466,5.1779498360928535,407.03790293296316,-8.0530573367216913,-1.9973327239787591,66.463261582376262,-1.3448020583664988,1.5051770620258755,-202.06729238372301,4.034955574020338,-0.70569239859697652,112.37656726438691,-2.1864565112454195,-0.047889189513000655,-1.0469028172835952,0.06154714307583415,0.34878047335049661,1.5702923114836709,-0.084244737801228181,0.00061164460266796583,0.099213898975303819,-1.9167814242147476,0.43381663195964004,0.0006526294169051706,0.068000341589230157,-1,-1,-1,1,1,1
0.019599999999999999,-2.3115213908242134,0.14524012230769318,11.865153568478888,347.41803756866301,-6.7791228994774384,-6.9031881540067879,0.53575446982908459,26.516285472569219,344.29553206014998,-6.6858521352492728,-9.2203205784019868,0.13522613126253508,5.1901462634173825,412.40842519532129,-8.1592888468182529,-2.0018166232328389,63.012106882057289,-1.2758922800963206,1.5562565461415341,-197.96216943100688,3.9526715490997049,-0.73594652149540685,117.1721317040053,-2.2813012579660317,-0.050297844913231408,-1.0468774795871283,0.065159077059307458,0.34876083880988068,1.5702579269915882,-0.087681762455452103,0.00065205296697439376,0.10282944751783143,-1.9166052079322968,0.44727051474050461,0.00067995343057378861,0.068616937215147236,-1,-1,-1,1,1,1
0.02,-2.4044945066100896,0.14997967788586497,11.831133849873728,356.5872989271499,-6.9606852620599788,-6.9559959427352425,0.54642206334437271,26.818461943202689,348.19759594043808,-6.7596793304749214,-9.2786676043612442,0.13730451249031,5.2016717035786515,417.79894620517621,-8.2659324799286384,-2.0051490459838881,59.503842316725716,-1.2057975802941059,1.6055806427331798,-193.73520723159206,3.8678984790902144,-0.76748841521281752,122.04378666611208,-2.3777514087072116,-0.052792848149442004,-1.0468506758940901,0.06887701435294992,0.34874022357904377,1.5702221628980739,-0.091142385728717495,0.00069390929272674143,0.10645336903263451,-1.916423603317859,0.46075778304678455,0.00070752083477069842,0.069217686880271592,-1,-1,-1,1,1,1
0.020400000000000001,-2.4996249101949162,0.15470386368156111,11.788369199391038,365.76726542421807,-7.1425291135047662,-7.0095754273209447,0.55720665770685018,27.101261841787572,352.1467120407392,-6.8344718319974129,-9.3382554010069345,0.13938740622590035,5.2127409865935279,423.20768435975913,-8.3729500142593096,-2.0073219660600023,55.944101853457568,-1.1346318977235983,1.6531256290096927,-189.39293484296022,3.7807694795351998,-0.80033201970126633,126.98520960734906,-2.4756769318096028,-0.055375650993925878,-1.0468223639471095,0.072700219415469863,0.34871859283174755,1.5701850102589991,-0.094624103167380333,0.00073721646275531287,0.11008329142937867,-1.9162365977360316,0.47427477899388443,0.00073532583606452533,0.069805363472464771,-1,-1,-1,1,1,1
0.020800000000000003,-2.5968968403830739,0.15940925967992042,11.737252212193463,374.94970580412627,-7.3244855061264955,-7.0639349662803452,0.56810046966163941,27.364526578879168,356.14023699757905,-6.9101766017577821,-9.399079516091378,0.14147466840396897,5.2235431414004045,428.63314185310503,-8.4803091155679677,-2.0083292049953783,52.338375904552493,-1.0625062978049127,1.6988700208286958,-184.94158841324236,3.6914116571260043,-0.83448912547391563,131.99028028382864,-2.5749524634614138,-0.058047566774433561,-1.0467925017940665,0.07662789610218744,0.34869591118261939,1.5701464610960287,-0.098124641485185154,0.00078197642170453195,0.11371692445934806,-1.9160441799888595,0.48781802820438569,0.00076336373730914167,0.070382640234225094,-1,-1,-1,1,1,1
0.0212,-2.696292062305119,0.16409260234734591,11.678165620040534,384.12670454949574,-7.5063918925680522,-7.119081983441748,0.57909565808987906,27.608128544010935,360.17548392121608,-6.9867396745797787,-9.4611351017374155,0.1435662261983553,5.2342416962798834,434.07408321198989,-8.5879829128356846,-2.0081663762647324,48.69200795289683,-0.98952892353993915,1.7427944676047342,-180.38712705343355,3.5999464526518832,-0.86996944096832729,137.05293812113715,-2.6754561575443634,-0.060809763831676349,-1.046761047815262,0.080659191403597702,0.34867214274503683,1.5701065083000121,-0.10164197010683222,0.00082819020616609323,0.11735206029145262,-1.9158463402465873,0.5013842300438357,0.00079163090134970135,0.070952095143335489,-1,-1,-1,1,1,1
0.021600000000000001,-2.7977900173282033,0.16875077912293832,11.611482211646422,393.29065712420555,-7.6880920405782627,-7.1750229696046217,0.59018433781352864,27.831971555425952,364.24973010992284,-7.0641063177596806,-9.5244170078202988,0.14566206661475073,5.2449754585996642,439.52950957064814,-8.6959494835887874,-2.006830804719943,45.010193191197374,-0.91580496301653758,1.7848816234685512,-175.7352516087704,3.5064900212200825,-0.90678068661436428,142.16727016057814,-2.7770680585095122,-0.06366326191923749,-1.0467279607446229,0.084793199915985287,0.3486472511977689,1.5700651455192292,-0.10517430748180222,0.00087585798731733657,0.1209865723472198,-1.9156430699632543,0.514970245304472,0.00082012470119668945,0.071516211194118925,-1,-1,-1,1,1,1
0.022000000000000002,-2.9013679457167636,0.1733808238927031,11.537564813144304,402.43426506382662,-7.8694359408822425,-7.2317634849346,0.60135859179301909,28.035991088744243,368.36022314152541,-7.142221156426297,-9.5889198519948788,0.14776222702159078,5.2558593053408424,444.99863600062088,-8.8041913978278465,-2.0043214607287796,41.297979974045028,-0.84143664539726282,1.82511604804718,-170.99142183731092,3.4111535526213363,-0.94492867211243958,147.3277085373152,-2.8796721231135693,-0.066608929967901062,-1.0466931996868742,0.08902896744429907,0.3486211998440682,1.5700223670602429,-0.10872012463547581,0.00092497910578494876,0.12461841411251674,-1.9154343618116183,0.52857308624862587,0.00084884347910443262,0.072077374334130889,-1,-1,-1,1,1,1
0.0224,-3.0070009880051778,0.1779799136856815,11.456766245486969,411.55053279045325,-8.0502797486762816,-7.2893081556353314,0.61261048311983612,28.220154626417393,372.50418636696492,-7.2210282860026851,-9.6546380795922264,0.1498667864456503,5.2669848679234779,450.48087046510625,-8.9126952943805513,-2.0006389087832339,37.560269856501378,-0.7665232531955849,1.8634841294731701,-166.1608703525593,3.314043567476912,-0.98441735687221044,152.52884452946211,-2.9831578174069002,-0.069647483352354711,-1.0466567241362821,0.093365493899149596,0.34859395166840301,1.5699781677930404,-0.1122781491741677,0.00097555209912868115,0.12824561934800224,-1.9152202096323823,0.54218990938745171,0.00087778651427961626,0.072637879233727456,-1,-1,-1,1,1,1
0.022800000000000001,-3.1146622942731526,0.18254536503671084,11.369429297928468,420.6327637854555,-8.2304857121632544,-7.3476606718528981,0.6239320680338224,28.384461918555576,376.67882482366053,-7.3004713932558722,-9.7215660236496308,0.15197585635850788,5.2784213313212813,455.97579113180132,-9.0214514234260434,-1.9957852508937417,33.801814015153582,-0.69116109049657992,1.8999740026389158,-161.24861390264817,3.2152621869363345,-1.0252489129955504,157.76518634353576,-3.0874167483394821,-0.072779481507164706,-1.0466184939960743,0.097801736382816196,0.3485654693983955,1.5699325430477651,-0.11584736848251757,0.0010275747320487058,0.13186630224358234,-1.9150006083802922,0.55581800782427881,0.00090695398919691595,0.073199935419915069,-1,-1,-1,1,1,1
0.023200000000000002,-3.2243231424804173,0.18707462965225788,11.275886753059618,429.67455488912816,-8.4099220622808506,-7.406823791365901,0.63531540929349473,28.528944925077891,380.88133122269863,-7.3804938788825813,-9.7896979595341627,0.1540895714488251,5.2902164345706213,461.48312259584679,-9.1304531650573288,-1.9897640620259585,30.027212021692787,-0.61544342781083372,1.9345754622255418,-156.25946679575574,3.1149073794918167,-1.0674237962884829,163.03148213884353,-3.1923411102455908,-0.076005327081627938,-1.0465784695953551,0.10233661260568966,0.3485357155698362,1.5698854885065761,-0.11942703015601983,0.0010810440305759705,0.13547865594206684,-1.9147755540669305,0.56945480175953544,0.00093634695187651089,0.073765661323772699,-1,-1,-1,1,1,1
0.023599999999999999,-3.3359530501763461,0.1915652901632196,11.176461463759702,438.66978992237239,-8.5884628871513851,-7.4667993460687301,0.64675258902262667,28.653667548658131,385.10889143589435,-7.4610389696475687,-9.8590281477476989,0.15620808120425991,5.3023975456065031,467.00271312262129,-9.2396965666163737,-1.9825803279554417,26.240915989517028,-0.53946053095454005,1.9672798847874007,-151.1980577655047,3.0130732543524816,-1.110940818224716,168.32298543669467,-3.297828828476904,-0.079325266202982483,-1.0465366117034627,0.1069690039780837,0.34850465258984703,1.5698370000990252,-0.12301664023631695,0.0011359563148952286,0.13908095115244476,-1.9145450437094407,0.5830978300230365,0.00096596727784577761,0.074337081010654629,-1,-1,-1,1,1,1
0.024,-3.4495198762904655,0.19601505630729188,11.071466464704319,447.61263362881044,-8.7659880120644242,-7.5275882481841174,0.65823572118156615,28.758725321751132,389.35868960861541,-7.5420498226717418,-9.9295508671330346,0.1583315422024329,5.3149727240911151,472.53451317156527,-9.3491799050078956,-1.9742403884092234,22.447231207286887,-0.46329972673287728,1.9980801617397268,-146.06884214291966,2.9098503610125199,-1.1557972108555989,173.63492286313169,-3.4037844180608805,-0.082739389027384175,-1.0464928815436076,0.1116977581241415,0.34847224279817834,1.5697870739011994,-0.12661596057357383,0.0011923072294041197,0.14267153652714276,-1.9143090752863274,0.59674474446390247,0.00099581763578271377,0.074916137910944772,-1,-1,-1,1,1,1
0.024400000000000002,-3.5649899209180211,0.20042176118577443,10.961205078104959,456.49752557494816,-8.9423828782867236,-7.5891904972169568,0.66975696409031216,28.844244975663354,393.62791325637909,-7.6234696293739326,-10.001260442695932,0.16046011067443983,5.3279318275196728,478.07855428902434,-9.4589032558936079,-1.9647518801576489,18.650310553947023,-0.38704535147814856,2.0269706351749073,-140.87610773444007,2.8053258691682776,-1.2019886849853081,178.96224164922569,-3.5101113545759164,-0.086247630860051022,-1.0464472408062238,0.11652169144010187,0.34843844852893119,1.569735706034898,-0.13022500509929005,0.001250091772774057,0.14624883830567284,-1.9140676476950755,0.61039330374904543,0.0010259014565875185,0.075504700345148154,-1,-1,-1,1,1,1
0.024800000000000003,-3.682328026167546,0.20478335735499531,10.845971008896264,465.3191735088397,-9.1175384105103845,-7.6516051893846369,0.68130853291159665,28.910383797477472,397.91375835124768,-7.7052417192754392,-10.074151267949594,0.16259393534909594,5.3412477047461797,483.6349282435246,-9.5688680669305484,-1.9541236782427924,14.854155648809076,-0.31077868071557796,2.0539470343285591,-135.62398667414772,2.6995837237563025,-1.2495094922531942,184.30042038033,-3.6167126665821034,-0.08984977430333925,-1.0463996516611602,0.12143959197067444,0.34840323217268176,1.5696828925668727,-0.13384403435046044,0.0013093043289139491,0.14981135763331366,-1.9138207607102129,0.62404136466465776,0.0010562229005129568,0.076104544698269022,-1,-1,-1,1,1,1
0.0252,-3.801497674253584,0.20909791291312155,10.726048492422201,474.07254637476751,-9.2913508767132171,-7.7148305291782027,0.69288271177521787,28.957328880908179,402.21343420869101,-7.7873096597805409,-10.148217819893771,0.16473315083732581,5.3548774203983891,489.20376702439705,-9.6790767474986303,-1.9423658381628952,11.062625480675697,-0.2345780376760086,2.0790064165445674,-130.31647345299393,2.5927049515281069,-1.2983524943200171,189.64561218221698,-3.7235014044520316,-0.093545451961341564,-1.046350076768384,0.1264502218800975,0.34836655623739654,1.5696286294108965,-0.13747354873040754,0.0013699386973736721,0.15335766934324443,-1.9135684149443093,0.63768687562657422,0.001086786820790387,0.076717355919626501,-1,-1,-1,1,1,1
0.025600000000000001,-3.9224610804894526,0.21336360775552685,10.601712495794695,482.75286735878268,-9.4637217481283979,-7.7788638419774383,0.70447186548350016,28.985296337198434,406.52416813926061,-7.869617351159075,-10.223454666778904,0.16687787161149367,5.3687634688646035,494.7852240075535,-9.7895322813592021,-1.9294895396738907,7.2794342454042926,-0.15851889386524615,2.1021471134613368,-124.95743182287853,2.4847679402885055,-1.3485092247159449,194.99347172951585,-3.8303969395729256,-0.097334149385560745,-1.0462984792877579,0.13155231933486125,0.34832838340759331,1.5695729122337114,-0.14111428100144535,0.0014319881228560282,0.15688642334541725,-1.9133106118123757,0.65132787378361645,0.0011175987310506617,0.077344754930485829,-1,-1,-1,1,1,1
0.026000000000000002,-4.0451792827955559,0.21757872994948599,10.473228873598412,491.35560698729427,-9.6345575599841666,-7.8437015876392486,0.7160684508928008,28.994530333666436,410.84320996000889,-7.9521091186644526,-10.299856470147104,0.16902818646515022,5.3828350192927426,500.37945611857106,-9.9002378590964852,-1.9155070308979041,3.5081422589146714,-0.082673732721808668,2.1233686802160636,-119.55059452996572,2.375848481060304,-1.3999699396059631,200.33928041901348,-3.937311401636864,-0.10121520887407814,-1.0462448228882244,0.1367446007559994,0.34828867660218327,1.5695157363642096,-0.14476718746533623,0.0014954453245208399,0.16039634306535314,-1.9130473534982391,0.66496247903355632,0.0011486647783990657,0.077988294356456406,-1,-1,-1,1,1,1
0.0264,-4.1696122292184308,0.2217416721241128,10.340854489963567,499.87647613923701,-9.8037697702385422,-7.9093393755452999,0.72766502793889032,28.98530196375858,415.16783639341742,-8.0347298024487586,-10.377417981773217,0.17118415342330645,5.3970091952578647,505.98660690816115,-10.011196528584541,-1.9004315734728023,-0.2478356810255356,-0.0071120042686250249,2.1426718478298827,-114.09957894753002,2.2660198857280678,-1.4527236776003938,205.67949991695451,-4.0441588049441721,-0.1051878341046722,-1.0461890717561066,0.14202576339921869,0.3482473990309608,1.5694570967058852,-0.14843343783615626,0.0015603025247134337,0.16388622107051873,-1.9127786429229707,0.67858888505828485,0.0011799917119692811,0.078649426573235384,-1,-1,-1,1,1,1
0.026800000000000001,-4.2957188629856944,0.22585092789319544,10.204837433262291,508.3114189881523,-9.9712746166396684,-7.9757719810717429,0.73925427022462353,28.957908153286851,419.49535530491249,-8.1174248443313939,-10.456134035590201,0.17334579513829057,5.4111923221431955,511.606790650432,-10.122410865650874,-1.8842773890982913,-3.9852181891503435,0.068099631664848601,2.1600584790954245,-108.6079055516401,2.1553533636050282,-1.506758328254443,211.01115319865991,-4.1508697017392482,-0.10925109463531579,-1.0461311906024606,0.1473944870486793,0.34820451424933896,1.5693969876531995,-0.15211440485311586,0.0016265514769314214,0.16735491937141153,-1.9125044837155865,0.69220535621839563,0.0012115868471521865,0.079329522417022069,-1,-1,-1,1,1,1
0.027200000000000002,-4.4234572041756781,0.22990508837892837,10.065417272512944,516.6566059666153,-10.136992973987466,-8.0429933633174517,0.75082897510854096,28.912670534455735,423.82310974015695,-8.2001403705410816,-10.535999534345654,0.17551309483023464,5.4252811521774476,517.2400776676036,-10.23388266919785,-1.8670596058929478,-7.7008670642341572,0.14289723283605554,2.1755315266081694,-103.07899501187276,2.0439182207946285,-1.5620606854851553,216.32995807806287,-4.2573766726309126,-0.11340393060315734,-1.046071144669686,0.15284943526147743,0.34815998621099831,1.5693354030126485,-0.15581165333089186,0.0016941834938242763,0.17080137193553868,-1.9122248801851613,0.70581022745401079,0.0012434580375144388,0.08002991212801451,-1,-1,-1,1,1,1
0.027600000000000003,-4.5527844281462482,0.23390283884515881,9.9228252041701737,524.90842682185576,-10.300850213030847,-8.1109966837840979,0.76238207330264618,28.849934078858134,428.14848178179057,-8.2828232707552285,-10.617009431938184,0.17768599272378399,5.43916412627516,522.88648082471173,-10.345612679881929,-1.848794204885104,-11.391799133306394,0.21721985630127333,2.1890949927868637,-97.51616274849161,1.9317817127503094,-1.6186164887357892,221.6314764943962,-4.3635958488289655,-0.11764515861206074,-1.0460088997375656,0.15838925757952438,0.34811377931841453,1.5692723359285343,-0.15952692771667792,0.0017631894750700357,0.17422458064512902,-1.9119398372942653,0.71940189682153088,0.0012756136529596331,0.080751856779780265,-1,-1,-1,1,1,1
0.028000000000000001,-4.6836569412346973,0.23784295538938302,9.7772841705445028,533.06348374613867,-10.462776060709587,-8.1797743260832867,0.7739066379281222,28.770065620577267,432.46889623560725,-8.3654212737850688,-10.699158711904971,0.17986438297356913,5.4527226337169497,528.54594317813019,-10.457600321951007,-1.8294979694558722,-15.055164857822923,0.29100951892749011,2.2007538942584119,-91.922644281934467,1.8190091901124461,-1.6764104853400483,226.913607166437,-4.4694524739558403,-0.12197347818416719,-1.0459444221284901,0.16401259194968129,0.34806585847104049,1.5692077788137024,-0.16326213881865961,0.0018335599337090751,0.17762360896314558,-1.9116493606351928,0.73297881566099254,0.0013080625472314657,0.081496498459330047,-1,-1,-1,1,1,1
0.028400000000000002,-4.8160304557613802,0.24172430161014802,9.6290091659245398,541.11858438659385,-10.622704457837619,-8.2493179172697833,0.78539589322649417,28.673452566296348,436.78182421266428,-8.4478830213680975,-10.782442361703547,0.18204811101083485,5.4658321991673695,534.21832652971182,-10.569843462906862,-1.8091884353055097,-18.688232499069414,0.36421070638449549,2.210514228496947,-86.301614753199942,1.7056646597505809,-1.7354265034948742,232.17418884954287,-4.5749004108414688,-0.12638747735029315,-1.0458776787120601,0.1697180653939088,0.34801618911223392,1.5691417232838363,-0.16701935104645577,0.0019052850221808501,0.18099758591566614,-1.9113534564076333,0.74653949118115159,0.001340814020099288,0.082264920556401014,-1,-1,-1,1,1,1
0.028800000000000003,-4.9498600597276585,0.24554582549472839,9.4782075246754296,549.07073516886999,-10.780573423062798,-8.3196183494631999,0.7968432224351274,28.560501583732183,441.08478638446115,-8.530158135257949,-10.866855344523513,0.18423697146177301,5.4783636071428665,539.90340160373432,-10.682338206285412,-1.7878838398586552,-22.288417725221105,0.43677048611108132,2.2183829407538891,-80.65616477386844,1.5918107571465798,-1.7956474869884778,237.40830741528654,-4.6798805376130099,-0.130885638405972,-1.0458086369091655,0.17550429466385048,0.34796473727225147,1.569074160099267,-0.17080076956370918,0.0019783545585647729,0.18434570983979862,-1.9110521313966082,0.76008248916578458,0.001373877798953553,0.083058201815709498,-1,-1,-1,1,1,1
0.0292,-5.0851002776368048,0.24930655667030721,9.3250789553702891,556.91713532845608,-10.936324931077744,-8.390665800321754,0.80824217440353252,28.43163701483385,445.37535576337319,-8.6121972745051885,-10.952392570963786,0.1864307066956177,5.4901840005593323,545.60084023507454,-10.795078726041103,-1.7656030768880924,-25.853289150287846,0.50863900938015305,2.2243678956316262,-74.989298278507121,1.4775083364251287,-1.8570555231021806,242.61232319509901,-4.7843093605861302,-0.13546634506366778,-1.0457372646951899,0.18136988893405231,0.3479114696049308,1.5690050791172163,-0.17460872652338039,0.0020527580500745105,0.18766723826226731,-1.9107453929534897,0.77360642078162201,0.0014072640239642582,0.083877323638930024,-1,-1,-1,1,1,1
0.029600000000000001,-5.2217051401159287,0.2530056031972524,9.1698157205613224,564.65517000016678,-11.089904771552302,-8.462449757506068,0.81958647089472325,28.287299221397053,449.65116082418677,-8.6939522000339142,-11.039048864529581,0.18862900542383729,5.5011580799692688,551.31020697896304,-10.908057087777404,-1.7423656484653303,-29.380527469235165,0.57976910489882427,2.2284778490734487,-69.303974236675529,1.362816923015514,-1.9196319213200499,247.78552868079493,-4.8881302136191023,-0.14012788988823852,-1.0456635306030744,0.18731345157692064,0.34785635342863069,1.5689344692397846,-0.1784456658576985,0.0021284847179703337,0.19096148349015912,-1.910433248977127,0.78710993610064384,0.0014409832074836499,0.084723144851623591,-1,-1,-1,1,1,1
0.030000000000000002,-5.359628249315791,0.25664214852479822,9.0126030138228206,572.2824035625647,-11.241262413225003,-8.5349590435903302,0.83087001307538011,28.127943245584518,453.90988831841821,-8.7753758330976073,-11.126818925239379,0.19083150183300673,5.5111491436149631,557.03095225038351,-11.021263101039191,-1.7181916177698762,-32.867925162495318,0.65011579261225783,2.2307224217609383,-63.603109323994573,1.24779522538828,-1.9833572755927811,252.92580673543918,-4.9913119397272983,-0.14486848029207852,-1.0455874037258428,0.19333357990935721,0.34779935676339419,1.5688623183693213,-0.18231412966658961,0.0022055235219708702,0.19422782031892655,-1.9101157078959214,0.80059173223157398,0.0014750462018438824,0.085596501937493769,-1,-1,-1,1,1,1
0.0304,-5.4988228376763999,0.2602154487418325,8.8536191864683111,579.79657349483386,-11.3903508783578,-8.6081818404395793,0.8420868869572431,27.954037322075795,458.14928568084031,-8.8564223052785689,-11.215697293084393,0.19303777527040802,5.5200200792204486,562.76240724549552,-11.134684208432516,-1.693101562297405,-36.313421150450885,0.71963663299051706,2.231112072607341,-57.889546870284391,1.1325008407108039,-2.048211484956203,258.02849008880355,-5.0937994204372234,-0.14968624531037442,-1.0455088537186765,0.19942886609169277,0.34774044836295864,1.5687886133729481,-0.18621674422466664,0.0022838631843737716,0.19746568624076657,-1.9097927786500684,0.81405055299536189,0.0015094641882884815,0.086498226103429623,-1,-1,-1,1,1,1
0.030800000000000001,-5.6392417985945391,0.26372483621725706,8.6930351686930987,587.19559950055975,-11.537126930516184,-8.6821056586457566,0.85323138604320614,27.76606205794765,462.36716918522075,-8.9370471233626851,-11.305678289569224,0.19524734529113408,5.5276345105206097,568.5037683778429,-11.248305165820716,-1.6671165708198703,-39.71510293301283,0.78829231967438673,2.2296581494087855,-52.166062292095702,1.0169898466476777,-2.1141737334127777,263.0910695191489,-5.1955211017799598,-0.15457923776151017,-1.0454278508527464,0.2055978995520214,0.34767959781620156,1.5687133399527424,-0.19015621002406508,0.0023634921941695355,0.20067457499923483,-1.9094644707207777,0.82748517847052805,0.0015442486843737159,0.087429034095636821,-1,-1,-1,1,1,1
0.031200000000000002,-5.7808378051034932,0.26716970300991438,8.5310160365472729,594.47754432211957,-11.681550270442679,-8.7567174859171146,0.86429797818911958,27.564506599548487,466.56141359046393,-9.0172069645892243,-11.396756016553816,0.19745968297891237,5.5338576215156676,574.25411860263364,-11.362108458150148,-1.6402581086341483,-43.071143503895236,0.85604561143022129,2.2263727073840132,-46.435410351845995,0.9013175703659565,-2.181222692282323,268.11300553389538,-5.2964369195212919,-0.15954545539818987,-1.0453443659046888,0.21183926841433945,0.34761677542370567,1.5686364828313601,-0.19413527347006249,0.0024443988710136323,0.20385402494797436,-1.9091307940183375,0.84089441663709952,0.0015794114456554231,0.088389555510726692,-1,-1,-1,1,1,1
0.031600000000000003,-5.9235633332456326,0.27054950316026183,8.3677208833016614,601.64061947536561,-11.823583654109134,-8.8320037699817426,0.87528132044776585,27.349868299047376,470.72995753751667,-9.0968597860744982,-11.488924311419606,0.19967420822679896,5.538556842792886,580.01241825576244,-11.47607411005616,-1.6125480129002434,-46.379824040640848,0.92286128723908456,2.2212685432250208,-40.700308004452587,0.78553871885385529,-2.2493365132865497,273.09204415445095,-5.3965166417575752,-0.16458284135864132,-1.0452583701925846,0.21815155883328355,0.34755195226498442,1.5685580256704823,-0.19815672060234785,0.0025265713693071986,0.20700362881972184,-1.908791758901671,0.85427711332277723,0.0016149644673322137,0.089380409874538713,-1,-1,-1,1,1,1
0.032000000000000001,-6.0673706896979711,0.27386375519624834,8.2033024998818878,608.68319148912428,-11.963193021121185,-8.9079504009307851,0.88617627558736312,27.122651983720921,474.87080958209702,-9.1759649470660989,-11.582176694578145,0.20189028692864369,5.5416027187534089,585.77749528607171,-11.590179483617369,-1.5840084844474529,-49.639559946682347,0.98870663399886716,2.2143592314726193,-34.963414463298015,0.66970701293221313,-2.3184928068385466,278.0250034627519,-5.4957128391139607,-0.16968928638525796,-1.0451698356163612,0.2245333560063679,0.34748510027362983,1.5684779509815905,-0.20222336803734231,0.0026099976842685769,0.21012303402785992,-1.9084473761990943,0.86763215091246804,0.0016509199931220807,0.090402180596517237,-1,-1,-1,1,1,1
0.032399999999999998,-6.2122120652997523,0.27711203910624937,8.0379075482253359,615.60377495710418,-12.10034735231066,-8.9845427432441607,0.89697791362638768,26.883368188070129,478.98204929641605,-9.2544832328032296,-11.676506329688486,0.20410723275998779,5.5428697593181049,591.54804577019286,-11.704399280975622,-1.5546620432623794,-52.84888467722287,1.053551444963118,2.2056590990153144,-29.227345667727473,0.55387517576645995,-2.3886686930476344,282.91006342701354,-5.5939767148175159,-0.17486263723300893,-1.0450787346541928,0.23098324582170401,0.34741619225245596,1.5683962401229594,-0.20633804748073309,0.0026946656745737048,0.21321193589188864,-1.908097657191381,0.88095844105961518,0.001687290489164012,0.091455368259635655,-1,-1,-1,1,1,1
0.032800000000000003,-6.358039587404722,0.2802939930188485,7.8716768767347602,622.40102486031481,-12.235018512312148,-9.0617656712953814,0.90768151157172694,26.632531538108427,483.06182774717365,-9.3323768659076851,-11.771905985885123,0.20632430960224038,5.5422371665845365,597.32263620743106,-11.818705583076012,-1.5245314839057766,-56.006433513468082,1.1173676948899918,2.1951831968334661,-23.49468795535617,0.43809521009322122,-2.4598408628927162,287.74610958292402,-5.6912740399695645,-0.1801007044935953,-1.0449850403552243,0.23749981541554796,0.34734520188086293,1.5683128733090386,-0.21050359117490836,0.0027805630848535367,0.21627007686641622,-1.90774261359324,0.89425492483649216,0.0017240886129724715,0.092540411328742994,-1,-1,-1,1,1,1
0.0332,-6.5048053662082257,0.28340930388995017,7.7047464623653683,629.07371428950955,-12.367180792139735,-9.1396036545270558,0.91828252847386993,26.370659071724454,487.10835930587115,-9.4096093430701551,-11.868368055070016,0.20854073951584273,5.5395887910997512,603.09972130435438,-11.933068203739051,-1.4936398087529694,-59.110935061680472,1.1801291761529009,2.1829471929769193,-17.76799665748814,0.32241855444446166,-2.5319856644410836,292.53139251692778,-5.7875744603121575,-0.18540127268479115,-1.0448887262668924,0.24408165323392553,0.34727210361555,1.5682278297564216,-0.21472282097060025,0.0028676775764785085,0.21929724171229228,-1.907382257487948,0.90752057109633288,0.0017613271727835976,0.093657722023422443,-1,-1,-1,1,1,1
0.033600000000000005,-6.6524615277834895,0.28645771920173219,7.5372461955636201,635.62076292948927,-12.496811494513551,-9.2180406683424057,0.92877665709229795,26.098269642490905,491.11994004401635,-9.4861458065572482,-11.965884413437404,0.21075569302810601,5.5348149780553824,608.8776149669776,-12.04745409574566,-1.4620102535280788,-62.161241757530433,1.2418120985976631,2.1689675292419071,-12.049781909984432,0.20689581353987432,-2.6050790337712533,297.26376742977976,-5.8828428704991067,-0.19076209902792843,-1.0447897665735781,0.25072735018816228,0.34719687291741358,1.568141087410998,-0.21899853403470276,0.0029559967208845263,0.2222932668141317,-1.9070166014196572,0.9207543821998303,0.0017990191558656557,0.094807668878353554,-1,-1,-1,1,1,1
0.034000000000000002,-6.8009602656587882,0.28943904010609184,7.3693004899803256,642.04122072043901,-12.623890598383998,-9.2970602623361973,0.93915980862043202,25.81588199163285,495.0949430021621,-9.5619529507349448,-12.064446410086308,0.21296829570253742,5.5278128642041215,614.65450383268524,-12.161827617798973,-1.4296662265427074,-65.156314927865679,1.30239492640288,2.1532613470947779,-6.342515639855451,0.091576771760026376,-2.6790965692221573,301.94178623250519,-5.9770429397811782,-0.19618092395626127,-1.0446881360521221,0.25743550068937021,0.34711948619469191,1.5680526230477039,-0.22333348848081083,0.0030455080285571659,0.22525803232154618,-1.9066456583474534,0.93395538808879819,0.0018371776925977191,0.095990558180026261,-1,-1,-1,1,1,1
0.0344,-6.9502538824768498,0.29235311438873313,7.2010289677520261,648.33425102645617,-12.748400413263731,-9.3766456290721987,0.94942809407470141,25.524013174571827,499.03181219394736,-9.6369989028476279,-12.164044869327054,0.21517763515450911,5.518486405622884,620.42846284153075,-12.276150844372385,-1.3966312539447165,-68.095203828899415,1.3618579958203791,2.1358464095589538,-0.64864334420622538,-0.023489404790491119,-2.7540136096697818,306.56458825401484,-6.0701480708503102,-0.20165548017960683,-1.0445838100203122,0.26420470302876847,0.34703992073020751,1.5679624123888865,-0.22773039242633508,0.0031361989746081821,0.22819145670565114,-1.9062694415973385,0.94712264350104713,0.0018758160189301847,0.097206644622707034,-1,-1,-1,1,1,1
0.034800000000000005,-7.1002948230278795,0.29519983465791771,7.0325466595912145,654.49912637720547,-12.870325491819443,-9.4567796289988753,0.95957782327302177,25.223177493824764,502.92906264677652,-9.7112532250559642,-12.264670061471248,0.21738276380715799,5.506746725102488,626.19746003527462,-12.390383658214445,-1.3629289506323776,-70.977047007402717,1.4201833951601601,2.1167410865470062,5.0294196413299828,-0.13825410192130227,-2.829805265539528,311.13076589118793,-6.1621360178475335,-0.20718349791333218,-1.0444767643351416,0.27103355949543378,0.34695815468257407,1.5678704301267332,-0.23219189430636017,0.0032280570135055087,0.23109349756367503,-1.905887964852282,0.96025523035711735,0.0019149474605473348,0.098456157488147483,-1,-1,-1,1,1,1
0.035200000000000002,-7.2510357056774577,0.297979138272843,6.863963980198724,660.53522839008031,-12.989652628322428,-9.5374448013748001,0.96960550974919646,24.913885468260819,506.78528249458498,-9.7846869576911697,-12.366311661896178,0.21958270034384073,5.4925126019729422,631.95935801418989,-12.504483775377457,-1.3285829984005997,-73.801080522704623,1.4773551060042469,2.0959643609704055,10.689296609217367,-0.25266940306722779,-2.9064464301611204,315.63857860994318,-6.2529781831820097,-0.21276270945596198,-1.0443669754082829,0.27792067702512296,0.34687416711256513,1.5677766499147301,-0.23672057281380979,0.0033210695908807157,0.23396415087106948,-1.905501242154672,0.97335225765393585,0.0019545854261990335,0.099739293554420613,-1,-1,-1,1,1,1
0.0356,-7.4024293547604927,0.3006910062804497,6.6953867757527155,666.44204530702439,-13.106370808074049,-9.618623384029684,0.97950787181167753,24.596642700333341,510.59913374158003,-9.8572726357823139,-12.468958717470985,0.22177643218494861,5.4757108649080974,637.71191813357837,-12.618406825824486,-1.2936171201468813,-76.566631071882611,1.5333590181133938,2.073535822961682,16.328645008570728,-0.36668814246936404,-2.9839118062593211,320.08707303025597,-6.3426462645379011,-0.21839085456169102,-1.0442544202117541,0.28486466808094973,0.3467879379930961,1.5676810443821456,-0.24131892677104183,0.0034152241568932667,0.23680344769078057,-1.9051092879016349,0.98641285890979225,0.0019947433938271664,0.10105619390932898,-1,-1,-1,1,1,1
0.036000000000000004,-7.5544288326492559,0.30333546143717571,6.5269165193115519,672.21916732001296,-13.220471111398652,-9.7002973410788016,0.98928182974043,24.271948814712214,514.36935167465037,-9.9289842784012059,-12.572599621519124,0.22396291891646067,5.4562766308329911,643.45280736295013,-12.732106488205181,-1.2580550511497404,-79.273105115858471,1.5881827188208695,2.0494756526915747,21.945149494752268,-0.48026377117698354,-3.0621759447909391,324.47573543669205,-6.4311222958008845,-0.22406568577999178,-1.0441390762739005,0.29186415096186069,0.34669944820257115,1.5675835851712927,-0.24598936596261825,0.0035105081806382585,0.23961145327544134,-1.904712116833557,0.99943619295145969,0.0020354348909075266,0.10240695570353928,-1,-1,-1,1,1,1
0.036400000000000002,-7.7069874935935845,0.30591256932021621,6.3586502031304661,677.86628943184019,-13.33194677248532,-9.7824483727313822,0.99892451805299798,23.940295870243215,518.0947497844902,-9.9997974896822495,-12.677222036116735,0.2261410941498779,5.4341541611599835,649.17959928137634,-12.845534502577694,-1.2219205075449564,-81.919998132043716,1.6418155203780389,2.0238046464848938,27.536530953328299,-0.59335038510006299,-3.1412132661200469,328.80337005675858,-6.5183904228956475,-0.22978497514128732,-1.0440209217186835,0.29891775040134017,0.34660867958642916,1.5674842429066649,-0.25073419446878581,0.0036069091679153129,0.24238827007914018,-1.9043097440475549,1.0124214484994789,0.002076673481597539,0.10379165503556348,-1,-1,-1,1,1,1
0.036799999999999999,-7.860058971898197,0.30842243047843648,6.1906811126363301,683.38319235124652,-13.440792786802946,-9.8650579796221898,1.0084332517112871,23.602168422760837,521.77420783617845,-10.069689218151956,-12.782812974552535,0.22830987286562468,5.4092957168414424,654.88979520311659,-12.958641101607862,-1.1852371613330646,-84.506884437886868,1.6942482869210767,1.9965441119417642,33.10054744564043,-0.70590277580146343,-3.2209981017019156,333.06872867443531,-6.6044284571926939,-0.23554651653238198,-1.0438999351779454,0.30602409730859537,0.34651561481025406,1.5673829873837211,-0.25555561734602067,0.0037044146699030424,0.24513402950364221,-1.9039021849351809,1.0253678384536171,0.0021184727498054583,0.10521033770229909,-1,-1,-1,1,1,1
0.037200000000000004,-8.0135972052172608,0.31086517943907344,6.0230988893701003,688.76974014841744,-13.547005862915585,-9.9481074810558425,1.0178055246764115,23.258042754949571,525.40667164146532,-10.138637752937058,-12.889358782392465,0.23046815409227053,5.3816616903378671,660.5808299121511,-13.071375124192505,-1.1480286209977895,-87.033408245091465,1.7454733757976866,1.9677158596720863,38.634988440650517,-0.81787642792476334,-3.3015047178457775,337.27123712871008,-6.6892170190259979,-0.24134812952174803,-1.0437760957930393,0.31318182934503569,0.34642023735736321,1.5672797875988531,-0.26045573414752521,0.0038030122930318385,0.24784888942946739,-1.903489455176484,1.0382745985066968,0.0021608462869786428,0.10666300556653772,-1,-1,-1,1,1,1
0.037600000000000001,-8.1675564850977587,0.31324098704443548,5.8559892864349647,694.0258860711707,-13.650584542008453,-10.031578014813679,1.0270390254528798,22.908385463751241,528.99115907471923,-10.206622846666022,-12.996845057195758,0.23261482196274802,5.3512214582058775,666.25007096445688,-13.183683994692425,-1.1103184076770392,-89.499285896904127,1.7954846386424383,1.9373422435087639,44.137676254533517,-0.92922750355767636,-3.382707332256583,341.41042451935471,-6.7727434838300047,-0.24718766493921596,-1.0436493832651088,0.32038959166308184,0.34632253160371185,1.56717461170338,-0.26543652340996887,0.0039026897133041557,0.25053303717515435,-1.9030715707619341,1.0511409912990206,0.002203807681137013,0.10814962850851517,-1,-1,-1,1,1,1
0.037999999999999999,-8.3218914802561059,0.31555005858817797,5.6894343551617084,699.15166806775665,-13.751529105884027,-10.115450563828194,1.0361316314598914,22.553652758761359,532.52675836970809,-10.273625681927323,-13.105256639737133,0.23474874954253075,5.3179533221594202,671.89482776482373,-13.295513904797737,-1.0721299317337005,-91.904306784556454,1.8442773661982865,1.9054461393988891,49.606471225871893,-1.0399128759239193,-3.4645801380081567,345.48550688897785,-6.8549956172204345,-0.25306300870809301,-1.0435197778476182,0.32764603711393969,0.3462224827974324,1.5670674270610707,-0.27049983733671157,0.0040034346877773838,0.25318668843925302,-1.9026485479787141,1.0639663073582262,0.0022473705049971099,0.10967015431905501,-1,-1,-1,1,1,1
0.038400000000000004,-8.4765572193935022,0.31779262893202931,5.5235129349382746,704.14719686536296,-13.849841331964287,-10.199705993724567,1.0450813857500296,22.19429087106084,536.01261977730053,-10.339628702600553,-13.214577681427107,0.23686880321103426,5.2818435734138758,677.51236518539008,-13.406810093241246,-1.0334864840589542,-94.248324469182236,1.8918481387398061,1.8720508767653079,55.039270106182101,-1.1498901262655354,-3.5470973258095002,349.49574032287211,-6.9359593665856885,-0.2589720817222419,-1.0433872602866603,0.33494982590031119,0.34612007695598457,1.5669582003756179,-0.27564740972064944,0.0041052350562204359,0.25581008225601781,-1.9022204033702397,1.0767498616003914,0.0022915483076133831,0.11122450452440881,-1,-1,-1,1,1,1
0.038800000000000001,-8.6315091832003201,0.3199689669305269,5.3583001388213143,709.01266695435709,-13.945524719002695,-10.284325052103954,1.0538865250777252,21.830733479492487,539.44796641559401,-10.404615835429091,-13.324791501229726,0.2389738447718508,5.2428879902033634,683.09990309761827,-13.51751682484406,-0.99441119299533054,-96.531263168664296,1.9381950067119624,1.8371803116467993,60.434011292989084,-1.2591176913414661,-3.6302331071048388,353.44071916671754,-7.015622522670828,-0.26491285003110399,-1.043251811914204,0.34229962742903608,0.34601530100135147,1.5668468976128103,-0.28088082814775223,0.0042080787670665263,0.25840348354221565,-1.9017871537759043,1.0894909977092928,0.0023363545979035645,0.11281256484933083,-1,-1,-1,1,1,1
0.039199999999999999,-8.7867033131283439,0.32207937253679486,5.1938676478598298,713.74834957037569,-14.038584342848349,-10.36928839989899,1.0625454670654575,21.463401510225637,542.83208985596571,-10.468572401297132,-13.435880609357982,0.24106273584307025,5.2010913494084479,688.654628423943,-13.627577635437671,-0.95492700709704248,-98.753109733033156,1.9833173142295686,1.8008587875868265,65.788673051548486,-1.3675548135024571,-3.7139617415391739,357.32013852212759,-7.0939770313941271,-0.27088332683122252,-1.0431134146223873,0.34969412028090097,0.3459081427060513,1.5667334840937519,-0.28620153456038527,0.0043119538848912309,0.26096718087493148,-1.901348816307078,1.1021890880801046,0.0023818028319686356,0.11443419379858255,-1,-1,-1,1,1,1
0.039600000000000003,-8.9420960018910947,0.32412417306236474,5.0302841013027901,718.35458356764059,-14.129026668878177,-10.454576642970745,1.0710567915448601,21.092703483292443,546.16434345293055,-10.531484980409783,-13.547826761534505,0.24313434191612801,5.1564666018998366,694.17370766931901,-13.736935589073672,-0.91505668643386529,-100.91390809235692,2.027215541262434,1.7631110812496171,71.101274432754323,-1.4751615169937167,-3.7982575565063574,361.13351477100946,-7.1710154701499862,-0.27688157228415694,-1.0429720508196072,0.35713199184440142,0.34579859061112678,1.5666179246068854,-0.29161083177946073,0.0044168485927384453,0.26350148364787329,-1.9009054083147063,1.1148435328291284,0.0024279064053648095,0.11608923167309576,-1,-1,-1,1,1,1
0.040000000000000001,-9.0976441022595171,0.32610372133924842,4.8676152649765489,722.8317709627969,-14.216859460407305,-10.540170354279109,1.079419231813008,20.719035363528729,549.44413933963074,-10.593341351881319,-13.660610976326126,0.24518753567455767,5.1090344929077478,699.65429616988786,-13.845533466229702,-0.87482278956490989,-103.01375638844301,2.0698912615405289,1.7239623756862659,76.369876984819612,-1.5818986575761789,-3.8830949632696123,364.8804051236342,-7.246729094644996,-0.28290569493729462,-1.0428277034157947,0.36461193851188139,0.34568663398959565,1.5665001834783356,-0.2971098840044557,0.0045227511979483992,0.26600671971362705,-1.900456947372656,1.1274537590088287,0.0024746786456563996,0.117777496956504,-1,-1,-1,1,1,1
0.040400000000000005,-9.2533049532743092,0.32801839557147883,4.7059240179034392,727.18037663774226,-14.302091772567801,-10.626050088027513,1.0876316749094117,20.342779959002268,552.67094876931344,-10.654130501288993,-13.774213518046709,0.24722119969981288,5.0588235903986565,705.09354444635051,-13.953313890947404,-0.83424765621878794,-105.05280383290734,2.1113471224963694,1.6834382588052552,81.592584672355798,-1.6877279608898264,-3.9684484740513124,368.56066558498691,-7.3211110644838655,-0.28895385461210832,-1.0426803558342095,0.372132666240238,0.3455722628513937,1.5663802246046621,-0.30269971170144494,0.004629650141353945,0.26848323437989818,-1.9000034512754076,1.1400192211219398,0.0025221328031538788,0.11949878148175504,-1,-1,-1,1,1,1
0.040800000000000003,-9.4090364027844284,0.32986859881741687,4.5452703957501841,731.40092713849174,-14.384733927616921,-10.712196395699946,1.0956931597304373,19.964306477937146,555.84430164835931,-10.713842611797917,-13.88861388909921,0.24923422934630962,5.0058701891571653,710.48860539086377,-14.060219475566624,-0.79335339113299796,-107.03124796733908,2.1515867711565027,1.6415647157704676,86.767544617382114,-1.792612018772898,-4.0542927200878278,372.1742007370309,-7.3941582179156065,-0.29502426470335857,-1.0425299920174977,0.37969289086884112,0.34545546793837112,1.5662580114960689,-0.30838118821182586,0.0047375340056213687,0.27093139016272361,-1.8995449380322362,1.1525394026338891,0.0025702820414587497,0.12125285717499333,-1,-1,-1,1,1,1
0.041200000000000001,-9.5647968248258124,0.33165475778593567,4.3857117047271075,735.49400778883171,-14.464797455619095,-10.798589846479475,1.1036028712040917,19.583970279870108,558.96378461271308,-10.772469025701145,-14.003790838203869,0.251225536102688,4.95021800757186,715.8366433813361,-14.166193005706056,-0.75216184851753431,-108.94933435983492,2.1906148005467116,1.598368109881215,91.892951150053221,-1.8965143257576496,-4.1406024683670459,375.72067407815985,-7.4658674684388293,-0.30111519385801394,-1.0423765964239209,0.38729133834321439,0.34533624070140267,1.5661335073406317,-0.31415503887345853,0.0048463915228075831,0.27335156594102372,-1.8990814258546356,1.1650138170853273,0.0026191394291747092,0.1230394831655393,-1,-1,-1,1,1,1
0.041600000000000005,-9.7205451302929262,0.33337732148538035,4.2273026312855198,739.46025943110715,-14.542295027467272,-10.885211046020396,1.1113601331537561,19.202112800888173,562.02903856363878,-10.83000219481201,-14.119722378534311,0.25319405055737199,4.8919178034961579,721.13484280667865,-14.271177614194317,-0.71069462040948195,-110.80735516234618,2.2284367444401787,1.5538751599647074,96.967048543630483,-1.9993993572231457,-4.2273526342716377,379.19983518350284,-7.5362331283474981,-0.30722496691794415,-1.042220154018614,0.39492674503814684,0.34521457327076338,1.5660066750697657,-0.32002184210485812,0.0049562115797258848,0.27574415474467517,-1.898612933141937,1.1774420073575995,0.0026687179339531931,0.12485839914600969,-1,-1,-1,1,1,1
0.042000000000000003,-9.8762407769978626,0.33503676019957573,4.0700953198243015,743.3003759749472,-14.617240404509227,-10.972040651720055,1.1189644026356149,18.819061511079862,565.03975671127444,-10.88643564107195,-14.236385803688039,0.25513872486063205,4.831027040574587,726.3804152258482,-14.37511692726126,-0.66897302733482777,-112.60564201708922,2.2650590030378122,1.5081129224394612,101.98812773141621,-2.1012325684645061,-4.314518296423131,382.61189917308349,-7.6052528677456177,-0.31335196559082801,-1.0420606502679377,0.40259785807137244,0.34509045843273012,1.5658774774134934,-0.32598203051761721,0.0050669832222928297,0.27810956187291958,-1.8981394784697732,1.1898235450415819,0.0027190304152811717,0.12670931905956451,-1,-1,-1,1,1,1
0.0424,-10.03184378336195,0.33663356462758048,3.9141394645362158,747.01510235697447,-14.689648396632887,-11.05905938812875,1.1264152651136559,18.435129866373174,567.99568293598168,-10.941763923651656,-14.353757700657624,0.25705853529511147,4.7676095648039718,731.57060671497345,-14.477955214318085,-0.62701810749998632,-114.34456249161781,2.3004887164571568,1.4611087752820693,106.95452646931464,-2.2019803459829563,-4.4020747126635555,385.9569610742501,-7.6729296444812451,-0.31949462908783799,-1.0418980711373822,0.41030343537102509,0.34496388961026592,1.5657458769553139,-0.33203589166798808,0.0051786956607652278,0.28044820511268748,-1.8976610805794858,1.2021580323862124,0.002770089616521045,0.12859194578278088,-1,-1,-1,1,1,1
0.042800000000000005,-10.187314741565457,0.33816824493155473,3.7594823988001522,750.60523226530779,-14.759534815527143,-11.146248063032608,1.1337124289821763,18.050617296562251,570.89660989826939,-10.995982600901529,-14.471813966767582,0.25895248490769612,4.7017352387009659,736.70270555631907,-14.5796375450019,-0.58485060556053237,-116.02452418881494,2.3347337643477521,1.4128903991578976,111.86463700963239,-2.301610083571457,-4.4899973293433266,389.23459933921526,-7.7392627953264785,-0.32565145464071121,-1.0417324030882154,0.41804224584878491,0.3448348608407325,1.5656118361913891,-0.3381835693749628,0.0052913382751200791,0.28276051429836213,-1.8971777583657945,1.2144451035347608,0.002821908160403092,0.13050597929200491,-1,-1,-1,1,1,1
